G40 (disable tool radius compensation)
G49 (disable tool length compensation)
G80 (cancel modal motion)
G54 (select coordinate system 1)
G90 (disable incremental moves)
G21 (metric)
F1000.00000
S250.00000
G61 (exact path mode)
;PYCAM_TOOLPATH_SETTINGS: START
;[Bounds]
;maxz = 20.0
;maxx = 170.0
;maxy = 76.27907
;minx = 5.0
;miny = 6.6860465
;minz = 2.0
;
;[Tool]
;torus_radius = 0.125
;shape = CylindricalCutter
;tool_radius = 0.5
;
;[Process]
;engrave_offset = 0.0
;step_down = 3.0
;generator = DropCutter
;postprocessor = PathAccumulator
;overlap_percent = 0
;milling_style = ignore
;material_allowance = 0.0
;pocketing_type = none
;path_direction = x
;
;PYCAM_TOOLPATH_SETTINGS: END
G0 Z25.00000
M3 (start spindle)
G04 P3 (wait for 3 seconds)
 X5.00000 Y6.68605
G1 Z2.00000
 X170.00000
 Y7.68023
 X5.00000
 Y8.67442
 X170.00000
 Y9.66860
 X77.93359
 X77.93164 Z3.38494
 X77.92969 Z3.38563
 X77.92188 Z3.38827
 X77.91406 Z3.39072
 X77.90625 Z3.39301
 X77.87500 Z3.40087
 X77.81250 Z3.41215
 X77.75000 Z3.41945
 X77.62500 Z3.42598
 X77.50000 Z3.42423
 X77.37500 Z3.41712
 X70.50000 Z3.01285
 X70.37500 Z3.00206
 X70.31250 Z2.99375
 X70.28125 Z2.98878
 X70.26562 Z2.98606
 X70.25781 Z2.98465
 X70.25391 Z2.98392
 X70.25195 Z2.98356
 X70.25098 Z2.98337
 X70.25000 Z2.98319
 X70.23438 Z2.98014
 X70.22656 Z2.97855
 X70.22266 Z2.97774
 X70.22070 Z2.97733
 X70.21973 Z2.97712
 X70.21875 Z2.97692
 X70.21484 Z2.97608
 X70.21289 Z2.97566
 X70.21191 Z2.97544
 X70.21094 Z2.97523
 X70.20898 Z2.97480
 X70.20801 Z2.97458
 X70.20703 Z2.97437
 X70.20605 Z2.00000
 X5.00000
 Y10.66279
 X70.21875
 X70.22656 Z3.12386
 X70.22852 Z3.12775
 X70.23047 Z3.13091
 X70.23242 Z3.13364
 X70.23340 Z3.13490
 X70.23438 Z3.13609
 X70.23828 Z3.14040
 X70.24219 Z3.14417
 X70.24609 Z3.14756
 X70.24805 Z3.14914
 X70.25000 Z3.15066
 X70.26562 Z3.16120
 X70.28125 Z3.16985
 X70.29688 Z3.17733
 X70.31250 Z3.18397
 X70.34375 Z3.19546
 X70.37500 Z3.20522
 X70.50000 Z3.23375
 X70.62500 Z3.25147
 X70.75000 Z3.26140
 X77.62500 Z3.66567
 X77.75000 Z3.67139
 X77.87500 Z3.66996
 X77.93750 Z3.66599
 X77.96875 Z3.66301
 X78.00000 Z3.65927
 X78.03125 Z3.65461
 X78.06250 Z3.64883
 X78.09375 Z3.64162
 X78.10938 Z3.63731
 X78.11719 Z3.63493
 X78.12109 Z3.63368
 X78.12305 Z3.63304
 X78.12500 Z3.63238
 X78.14062 Z3.62665
 X78.14844 Z3.62340
 X78.15625 Z3.61981
 X78.16406 Z3.61580
 X78.16797 Z3.61360
 X78.17188 Z3.61123
 X78.17578 Z3.60866
 X78.17969 Z3.60585
 X78.18359 Z3.60273
 X78.18750 Z3.59917
 X78.19141 Z3.59498
 X78.19336 Z3.59252
 X78.19531 Z3.58967
 X78.19922 Z3.58137
 X78.20020 Z3.57733
 X78.20068 Z2.00000
 X170.00000
 Y11.65698
 X78.40625
 X78.39844 Z3.82560
 X78.39746 Z3.82862
 X78.39648 Z3.83094
 X78.39551 Z3.83288
 X78.39453 Z3.83459
 X78.39258 Z3.83753
 X78.39160 Z3.83884
 X78.39062 Z3.84006
 X78.38672 Z3.84434
 X78.38281 Z3.84794
 X78.37891 Z3.85110
 X78.37695 Z3.85256
 X78.37500 Z3.85394
 X78.36719 Z3.85891
 X78.35938 Z3.86321
 X78.34375 Z3.87044
 X78.32812 Z3.87644
 X78.31250 Z3.88156
 X78.28125 Z3.88997
 X78.25000 Z3.89661
 X78.12500 Z3.91243
 X78.00000 Z3.91731
 X77.87500 Z3.91420
 X77.75000 Z3.90687
 X71.00000 Z3.50994
 X70.87500 Z3.50075
 X70.75000 Z3.48413
 X70.68750 Z3.47231
 X70.65625 Z3.46528
 X70.64062 Z3.46143
 X70.62500 Z3.45733
 X70.59375 Z3.44826
 X70.57812 Z3.44321
 X70.56250 Z3.43773
 X70.54688 Z3.43175
 X70.53125 Z3.42513
 X70.51562 Z3.41769
 X70.50781 Z3.41356
 X70.50391 Z3.41137
 X70.50195 Z3.41023
 X70.50000 Z3.40908
 X70.49219 Z3.40414
 X70.48828 Z3.40146
 X70.48438 Z3.39861
 X70.48047 Z3.39553
 X70.47656 Z3.39218
 X70.47266 Z3.38846
 X70.47070 Z3.38642
 X70.46875 Z3.38423
 X70.46484 Z3.37917
 X70.46289 Z3.37612
 X70.46094 Z3.37245
 X70.45898 Z3.36742
 X70.45801 Z3.36325
 X70.45752 Z2.00000
 X5.00000
 Y12.65116
 X70.69141
 X70.69336 Z3.61639
 X70.69434 Z3.61889
 X70.69482 Z3.61997
 X70.69531 Z3.62098
 X70.69727 Z3.62447
 X70.69922 Z3.62741
 X70.70117 Z3.63000
 X70.70312 Z3.63235
 X70.70703 Z3.63651
 X70.71094 Z3.64018
 X70.71484 Z3.64350
 X70.71875 Z3.64655
 X70.73438 Z3.65695
 X70.74219 Z3.66140
 X70.75000 Z3.66552
 X70.78125 Z3.67953
 X70.81250 Z3.69096
 X70.87500 Z3.70915
 X71.00000 Z3.73436
 X71.12500 Z3.74991
 X71.25000 Z3.75849
 X78.00000 Z4.15541
 X78.12500 Z4.16190
 X78.25000 Z4.16191
 X78.31250 Z4.15879
 X78.37500 Z4.15314
 X78.43750 Z4.14422
 X78.46875 Z4.13809
 X78.48438 Z4.13447
 X78.49219 Z4.13250
 X78.49609 Z4.13147
 X78.49805 Z4.13094
 X78.50000 Z4.13040
 X78.53125 Z4.12043
 X78.54688 Z4.11414
 X78.55469 Z4.11052
 X78.55859 Z4.10855
 X78.56055 Z4.10752
 X78.56250 Z4.10646
 X78.57031 Z4.10182
 X78.57422 Z4.09921
 X78.57812 Z4.09635
 X78.58203 Z4.09315
 X78.58398 Z4.09139
 X78.58496 Z4.09046
 X78.58594 Z4.08949
 X78.58789 Z4.08742
 X78.58887 Z4.08631
 X78.58984 Z4.08513
 X78.59375 Z4.07948
 X78.59766 Z4.06953
 X78.59961 Z2.00000
 X170.00000
 Y13.64535
 X78.81250
 X78.79688 Z4.31282
 X78.79639 Z4.31556
 X78.79590 Z4.31743
 X78.79492 Z4.32025
 X78.79395 Z4.32246
 X78.79346 Z4.32344
 X78.79297 Z4.32435
 X78.79102 Z4.32752
 X78.79004 Z4.32890
 X78.78906 Z4.33019
 X78.78711 Z4.33253
 X78.78516 Z4.33464
 X78.78320 Z4.33657
 X78.78223 Z4.33748
 X78.78125 Z4.33835
 X78.77344 Z4.34448
 X78.76953 Z4.34712
 X78.76562 Z4.34954
 X78.75781 Z4.35389
 X78.75391 Z4.35587
 X78.75000 Z4.35774
 X78.71875 Z4.36992
 X78.70312 Z4.37473
 X78.68750 Z4.37894
 X78.62500 Z4.39167
 X78.50000 Z4.40507
 X78.37500 Z4.40837
 X78.25000 Z4.40396
 X71.50000 Z4.00704
 X71.37500 Z3.99894
 X71.25000 Z3.98443
 X71.18750 Z3.97393
 X71.15625 Z3.96770
 X71.12500 Z3.96070
 X71.06250 Z3.94374
 X71.03125 Z3.93326
 X71.01562 Z3.92731
 X71.00781 Z3.92411
 X71.00391 Z3.92245
 X71.00195 Z3.92160
 X71.00000 Z3.92073
 X70.98438 Z3.91334
 X70.96875 Z3.90481
 X70.96094 Z3.89994
 X70.95703 Z3.89730
 X70.95312 Z3.89448
 X70.94922 Z3.89146
 X70.94531 Z3.88818
 X70.94141 Z3.88456
 X70.93750 Z3.88046
 X70.93359 Z3.87564
 X70.93164 Z3.87279
 X70.92969 Z3.86945
 X70.92578 Z3.85795
 X70.92480 Z2.00000
 X5.00000
 Y14.63953
 X71.15625
 X71.16016 Z4.10795
 X71.16113 Z4.11137
 X71.16211 Z4.11391
 X71.16309 Z4.11602
 X71.16357 Z4.11697
 X71.16406 Z4.11787
 X71.16602 Z4.12108
 X71.16797 Z4.12384
 X71.16992 Z4.12631
 X71.17188 Z4.12856
 X71.17578 Z4.13259
 X71.17969 Z4.13617
 X71.18359 Z4.13942
 X71.18750 Z4.14242
 X71.20312 Z4.15268
 X71.21875 Z4.16117
 X71.23438 Z4.16854
 X71.25000 Z4.17509
 X71.31250 Z4.19615
 X71.37500 Z4.21201
 X71.50000 Z4.23435
 X71.62500 Z4.24785
 X71.75000 Z4.25558
 X78.37500 Z4.64516
 X78.50000 Z4.65217
 X78.62500 Z4.65357
 X78.68750 Z4.65127
 X78.75000 Z4.64660
 X78.81250 Z4.63899
 X78.84375 Z4.63375
 X78.85938 Z4.63067
 X78.86719 Z4.62900
 X78.87109 Z4.62813
 X78.87305 Z4.62769
 X78.87500 Z4.62724
 X78.90625 Z4.61901
 X78.92188 Z4.61402
 X78.92969 Z4.61122
 X78.93359 Z4.60974
 X78.93750 Z4.60820
 X78.95312 Z4.60122
 X78.96094 Z4.59711
 X78.96484 Z4.59485
 X78.96875 Z4.59241
 X78.97656 Z4.58683
 X78.98047 Z4.58355
 X78.98438 Z4.57978
 X78.99219 Z4.56918
 X78.99414 Z4.56478
 X78.99512 Z4.56155
 X78.99561 Z4.55911
 X78.99585 Z4.55706
 X78.99597 Z2.00000
 X170.00000
 Y15.63372
 X79.19531
 X79.19141 Z4.81398
 X79.18945 Z4.81743
 X79.18848 Z4.81891
 X79.18799 Z4.81960
 X79.18750 Z4.82027
 X79.18359 Z4.82492
 X79.18164 Z4.82691
 X79.17969 Z4.82875
 X79.17578 Z4.83207
 X79.17188 Z4.83502
 X79.16406 Z4.84016
 X79.15625 Z4.84457
 X79.14062 Z4.85195
 X79.13281 Z4.85513
 X79.12500 Z4.85805
 X79.09375 Z4.86777
 X79.06250 Z4.87530
 X79.00000 Z4.88616
 X78.87500 Z4.89739
 X78.75000 Z4.89919
 X78.62500 Z4.89370
 X72.00000 Z4.50413
 X71.87500 Z4.49664
 X71.75000 Z4.48414
 X71.68750 Z4.47484
 X71.62500 Z4.46310
 X71.56250 Z4.44822
 X71.53125 Z4.43923
 X71.51562 Z4.43422
 X71.50781 Z4.43156
 X71.50391 Z4.43019
 X71.50195 Z4.42950
 X71.50000 Z4.42879
 X71.46875 Z4.41634
 X71.45312 Z4.40900
 X71.44531 Z4.40494
 X71.44141 Z4.40279
 X71.43750 Z4.40055
 X71.42188 Z4.39035
 X71.41797 Z4.38738
 X71.41406 Z4.38416
 X71.41016 Z4.38063
 X71.40625 Z4.37666
 X71.40430 Z4.37445
 X71.40234 Z4.37203
 X71.40039 Z4.36935
 X71.39941 Z4.36787
 X71.39893 Z4.36708
 X71.39844 Z4.36626
 X71.39453 Z4.35729
 X71.39258 Z2.00000
 X30.90625
 X30.87500 Z2.00787
 X30.81250 Z2.02510
 X30.75000 Z2.03716
 X30.62500 Z2.05195
 X30.50000 Z2.05783
 X30.37500 Z2.05619
 X30.25000 Z2.04909
 X29.50000 Z2.00499
 X29.37500 Z2.00000
 X5.00000
 Y16.62791
 X25.37500
 X25.50000 Z2.00362
 X30.25000 Z2.28294
 X30.37500 Z2.29004
 X30.50000 Z2.29168
 X30.62500 Z2.28579
 X30.68750 Z2.27969
 X30.75000 Z2.27101
 X30.81250 Z2.25895
 X30.84375 Z2.25117
 X30.85938 Z2.24669
 X30.86719 Z2.24427
 X30.87109 Z2.24301
 X30.87305 Z2.24237
 X30.87402 Z2.24204
 X30.87451 Z2.24188
 X30.87500 Z2.24171
 X30.90625 Z2.22972
 X30.92188 Z2.22220
 X30.92969 Z2.21784
 X30.93359 Z2.21546
 X30.93555 Z2.21420
 X30.93652 Z2.21356
 X30.93701 Z2.21323
 X30.93750 Z2.21290
 X30.94141 Z2.21015
 X30.94531 Z2.20713
 X30.94922 Z2.20378
 X30.95117 Z2.20194
 X30.95215 Z2.20097
 X30.95312 Z2.19996
 X30.95508 Z2.19781
 X30.95605 Z2.19665
 X30.95703 Z2.19542
 X30.95898 Z2.19272
 X30.95996 Z2.19120
 X30.96045 Z2.19039
 X30.96094 Z2.18953
 X30.96191 Z2.18765
 X30.96289 Z2.18544
 X30.96338 Z2.18415
 X30.96387 Z2.18267
 X30.96484 Z2.17824
 X30.96509 Z2.17561
 X30.96521 Z2.00000
 X71.62500
 X71.63281 Z4.61462
 X71.63477 Z4.61760
 X71.63672 Z4.62021
 X71.63867 Z4.62257
 X71.64062 Z4.62474
 X71.64453 Z4.62865
 X71.64844 Z4.63215
 X71.65625 Z4.63828
 X71.67188 Z4.64841
 X71.67969 Z4.65278
 X71.68750 Z4.65683
 X71.71875 Z4.67065
 X71.75000 Z4.68197
 X71.81250 Z4.70001
 X71.87500 Z4.71398
 X72.00000 Z4.73378
 X72.12500 Z4.74531
 X72.25000 Z4.75268
 X78.75000 Z5.13490
 X78.87500 Z5.14220
 X79.00000 Z5.14496
 X79.12500 Z5.13967
 X79.18750 Z5.13322
 X79.21875 Z5.12873
 X79.23438 Z5.12610
 X79.24219 Z5.12468
 X79.25000 Z5.12318
 X79.28125 Z5.11625
 X79.29688 Z5.11213
 X79.30469 Z5.10986
 X79.30859 Z5.10867
 X79.31250 Z5.10743
 X79.32812 Z5.10202
 X79.33594 Z5.09896
 X79.33984 Z5.09733
 X79.34375 Z5.09562
 X79.35156 Z5.09192
 X79.35547 Z5.08990
 X79.35938 Z5.08776
 X79.36719 Z5.08298
 X79.37109 Z5.08028
 X79.37500 Z5.07730
 X79.37891 Z5.07394
 X79.38086 Z5.07207
 X79.38281 Z5.07004
 X79.38477 Z5.06781
 X79.38574 Z5.06659
 X79.38672 Z5.06529
 X79.39062 Z5.05873
 X79.39453 Z2.00000
 X170.00000
 Y17.62209
 X79.59375
 X79.58594 Z5.31029
 X79.58398 Z5.31288
 X79.58203 Z5.31516
 X79.58008 Z5.31723
 X79.57812 Z5.31912
 X79.57422 Z5.32253
 X79.57031 Z5.32554
 X79.56641 Z5.32827
 X79.56250 Z5.33077
 X79.54688 Z5.33917
 X79.53125 Z5.34591
 X79.51562 Z5.35157
 X79.50000 Z5.35644
 X79.43750 Z5.37087
 X79.37500 Z5.38016
 X79.25000 Z5.38940
 X79.12500 Z5.38976
 X79.00000 Z5.38345
 X72.37500 Z4.99387
 X72.25000 Z4.98329
 X72.12500 Z4.96468
 X72.06250 Z4.95153
 X72.03125 Z4.94367
 X72.01562 Z4.93934
 X72.00781 Z4.93706
 X72.00000 Z4.93471
 X71.96875 Z4.92432
 X71.95312 Z4.91843
 X71.94531 Z4.91527
 X71.94141 Z4.91362
 X71.93750 Z4.91193
 X71.92188 Z4.90465
 X71.91406 Z4.90063
 X71.91016 Z4.89850
 X71.90625 Z4.89628
 X71.89844 Z4.89151
 X71.89453 Z4.88894
 X71.89062 Z4.88621
 X71.88672 Z4.88329
 X71.88281 Z4.88013
 X71.87891 Z4.87668
 X71.87500 Z4.87282
 X71.86719 Z4.86295
 X71.86328 Z4.85520
 X71.86133 Z4.84709
 X71.86035 Z2.00000
 X30.96875
 X30.96484 Z2.41209
 X30.96436 Z2.41469
 X30.96387 Z2.41651
 X30.96338 Z2.41800
 X30.96289 Z2.41929
 X30.96191 Z2.42149
 X30.96143 Z2.42247
 X30.96094 Z2.42338
 X30.95898 Z2.42657
 X30.95703 Z2.42927
 X30.95508 Z2.43165
 X30.95410 Z2.43275
 X30.95312 Z2.43381
 X30.94922 Z2.43763
 X30.94531 Z2.44098
 X30.94141 Z2.44399
 X30.93945 Z2.44540
 X30.93750 Z2.44675
 X30.92188 Z2.45605
 X30.90625 Z2.46357
 X30.89062 Z2.46997
 X30.87500 Z2.47556
 X30.81250 Z2.49279
 X30.75000 Z2.50486
 X30.62500 Z2.51964
 X30.50000 Z2.52553
 X30.37500 Z2.52389
 X30.25000 Z2.51678
 X21.50000 Z2.00225
 X21.37500 Z2.00000
 X5.00000
 Y18.61628
 X19.50000
 X19.50195 Z2.03705
 X19.50293 Z2.03938
 X19.50342 Z2.04039
 X19.50391 Z2.04134
 X19.50586 Z2.04462
 X19.50781 Z2.04738
 X19.51172 Z2.05198
 X19.51367 Z2.05398
 X19.51562 Z2.05584
 X19.52344 Z2.06225
 X19.53125 Z2.06759
 X19.54688 Z2.07638
 X19.55469 Z2.08015
 X19.56250 Z2.08360
 X19.59375 Z2.09523
 X19.62500 Z2.10446
 X19.68750 Z2.11847
 X19.75000 Z2.12852
 X19.87500 Z2.14054
 X20.00000 Z2.14789
 X30.25000 Z2.75063
 X30.37500 Z2.75773
 X30.50000 Z2.75937
 X30.62500 Z2.75348
 X30.68750 Z2.74739
 X30.75000 Z2.73870
 X30.81250 Z2.72664
 X30.84375 Z2.71886
 X30.85938 Z2.71438
 X30.86719 Z2.71196
 X30.87109 Z2.71070
 X30.87305 Z2.71006
 X30.87402 Z2.70973
 X30.87500 Z2.70940
 X30.90625 Z2.69741
 X30.92188 Z2.68989
 X30.92969 Z2.68553
 X30.93359 Z2.68315
 X30.93555 Z2.68190
 X30.93652 Z2.68125
 X30.93750 Z2.68060
 X30.94141 Z2.67784
 X30.94531 Z2.67482
 X30.94922 Z2.67147
 X30.95117 Z2.66963
 X30.95215 Z2.66866
 X30.95312 Z2.66765
 X30.95508 Z2.66550
 X30.95605 Z2.66434
 X30.95703 Z2.66312
 X30.95898 Z2.66041
 X30.96094 Z2.65722
 X30.96484 Z2.64593
 X30.96582 Z2.00000
 X72.09375
 X72.10156 Z5.11125
 X72.10352 Z5.11404
 X72.10547 Z5.11653
 X72.10742 Z5.11879
 X72.10938 Z5.12089
 X72.11719 Z5.12811
 X72.12109 Z5.13123
 X72.12500 Z5.13413
 X72.14062 Z5.14414
 X72.15625 Z5.15247
 X72.17188 Z5.15973
 X72.18750 Z5.16621
 X72.21875 Z5.17747
 X72.25000 Z5.18707
 X72.37500 Z5.21520
 X72.50000 Z5.23267
 X72.62500 Z5.24242
 X79.25000 Z5.63200
 X79.37500 Z5.63609
 X79.50000 Z5.63239
 X79.56250 Z5.62699
 X79.59375 Z5.62316
 X79.60938 Z5.62091
 X79.62500 Z5.61840
 X79.65625 Z5.61251
 X79.67188 Z5.60903
 X79.68750 Z5.60513
 X79.70312 Z5.60071
 X79.71875 Z5.59564
 X79.73438 Z5.58973
 X79.74219 Z5.58635
 X79.74609 Z5.58453
 X79.75000 Z5.58261
 X79.75781 Z5.57840
 X79.76172 Z5.57607
 X79.76367 Z5.57484
 X79.76562 Z5.57355
 X79.76953 Z5.57080
 X79.77148 Z5.56932
 X79.77344 Z5.56775
 X79.78125 Z5.56028
 X79.78906 Z5.54805
 X79.79102 Z5.54085
 X79.79199 Z2.00000
 X170.00000
 Y19.61047
 X79.99219
 X79.98828 Z5.79260
 X79.98730 Z5.79498
 X79.98633 Z5.79696
 X79.98535 Z5.79869
 X79.98486 Z5.79949
 X79.98438 Z5.80025
 X79.98047 Z5.80538
 X79.97852 Z5.80752
 X79.97656 Z5.80948
 X79.97266 Z5.81297
 X79.96875 Z5.81606
 X79.96094 Z5.82137
 X79.95312 Z5.82590
 X79.94531 Z5.82989
 X79.93750 Z5.83345
 X79.90625 Z5.84493
 X79.87500 Z5.85355
 X79.81250 Z5.86579
 X79.75000 Z5.87372
 X79.62500 Z5.88114
 X79.50000 Z5.88009
 X79.37500 Z5.87319
 X72.87500 Z5.49097
 X72.75000 Z5.48192
 X72.62500 Z5.46555
 X72.56250 Z5.45388
 X72.53125 Z5.44694
 X72.51562 Z5.44315
 X72.50000 Z5.43911
 X72.46875 Z5.43018
 X72.45312 Z5.42522
 X72.43750 Z5.41985
 X72.40625 Z5.40753
 X72.39062 Z5.40030
 X72.38281 Z5.39631
 X72.37891 Z5.39420
 X72.37500 Z5.39200
 X72.36719 Z5.38729
 X72.36328 Z5.38475
 X72.35938 Z5.38205
 X72.35156 Z5.37608
 X72.34766 Z5.37271
 X72.34375 Z5.36895
 X72.33594 Z5.35952
 X72.33203 Z5.35258
 X72.33008 Z5.34713
 X72.32910 Z5.34139
 X72.32861 Z2.00000
 X30.96875
 X30.96484 Z2.87978
 X30.96387 Z2.88420
 X30.96338 Z2.88569
 X30.96289 Z2.88698
 X30.96191 Z2.88919
 X30.96143 Z2.89016
 X30.96094 Z2.89107
 X30.95898 Z2.89426
 X30.95703 Z2.89696
 X30.95508 Z2.89934
 X30.95410 Z2.90045
 X30.95312 Z2.90150
 X30.94922 Z2.90532
 X30.94531 Z2.90867
 X30.94141 Z2.91168
 X30.93945 Z2.91309
 X30.93750 Z2.91444
 X30.92188 Z2.92374
 X30.90625 Z2.93126
 X30.89062 Z2.93766
 X30.87500 Z2.94325
 X30.81250 Z2.96048
 X30.75000 Z2.97255
 X30.62500 Z2.98733
 X30.50000 Z2.99322
 X30.37500 Z2.99158
 X30.25000 Z2.98448
 X20.00000 Z2.38174
 X19.87500 Z2.37439
 X19.81250 Z2.36954
 X19.75000 Z2.36236
 X19.68750 Z2.35232
 X19.65625 Z2.34592
 X19.64062 Z2.34228
 X19.63281 Z2.34034
 X19.62891 Z2.33933
 X19.62695 Z2.33882
 X19.62598 Z2.33856
 X19.62549 Z2.33843
 X19.62500 Z2.33830
 X19.59375 Z2.32907
 X19.57812 Z2.32364
 X19.57031 Z2.32065
 X19.56641 Z2.31908
 X19.56445 Z2.31827
 X19.56348 Z2.31786
 X19.56299 Z2.31766
 X19.56250 Z2.31745
 X19.54688 Z2.31023
 X19.53906 Z2.30608
 X19.53516 Z2.30383
 X19.53320 Z2.30266
 X19.53223 Z2.30205
 X19.53174 Z2.30175
 X19.53125 Z2.30144
 X19.52344 Z2.29610
 X19.51953 Z2.29306
 X19.51758 Z2.29142
 X19.51660 Z2.29057
 X19.51611 Z2.29013
 X19.51562 Z2.28968
 X19.51172 Z2.28583
 X19.50977 Z2.28364
 X19.50879 Z2.28247
 X19.50830 Z2.28185
 X19.50781 Z2.28122
 X19.50586 Z2.27846
 X19.50488 Z2.27691
 X19.50391 Z2.27518
 X19.50293 Z2.27323
 X19.50195 Z2.27090
 X19.50098 Z2.26786
 X19.50049 Z2.26571
 X19.50024 Z2.26419
 X19.50012 Z2.26311
 X19.50006 Z2.26235
 X19.50003 Z2.26181
 X19.50002 Z2.26143
 X19.50001 Z2.00000
 X5.00000
 Y20.60465
 X19.50000
 X19.50195 Z2.50474
 X19.50293 Z2.50707
 X19.50342 Z2.50809
 X19.50391 Z2.50903
 X19.50586 Z2.51231
 X19.50781 Z2.51507
 X19.51172 Z2.51967
 X19.51367 Z2.52167
 X19.51562 Z2.52353
 X19.52344 Z2.52994
 X19.53125 Z2.53528
 X19.54688 Z2.54408
 X19.55469 Z2.54784
 X19.56250 Z2.55130
 X19.59375 Z2.56292
 X19.62500 Z2.57215
 X19.68750 Z2.58617
 X19.75000 Z2.59621
 X19.87500 Z2.60823
 X20.00000 Z2.61558
 X30.25000 Z3.21832
 X30.37500 Z3.22542
 X30.50000 Z3.22706
 X30.62500 Z3.22118
 X30.68750 Z3.21508
 X30.75000 Z3.20639
 X30.81250 Z3.19433
 X30.84375 Z3.18655
 X30.85938 Z3.18207
 X30.86719 Z3.17965
 X30.87109 Z3.17839
 X30.87305 Z3.17775
 X30.87402 Z3.17742
 X30.87500 Z3.17710
 X30.90625 Z3.16511
 X30.92188 Z3.15759
 X30.92969 Z3.15323
 X30.93359 Z3.15084
 X30.93555 Z3.14959
 X30.93750 Z3.14829
 X30.94141 Z3.14553
 X30.94531 Z3.14251
 X30.94922 Z3.13916
 X30.95117 Z3.13732
 X30.95215 Z3.13635
 X30.95312 Z3.13535
 X30.95508 Z3.13319
 X30.95605 Z3.13203
 X30.95703 Z3.13081
 X30.95898 Z3.12811
 X30.96094 Z3.12492
 X30.96484 Z3.11362
 X30.96582 Z2.00000
 X72.56250
 X72.57812 Z5.61701
 X72.58594 Z5.62405
 X72.58984 Z5.62712
 X72.59375 Z5.62997
 X72.60938 Z5.63986
 X72.61719 Z5.64415
 X72.62500 Z5.64812
 X72.65625 Z5.66177
 X72.68750 Z5.67297
 X72.75000 Z5.69086
 X72.87500 Z5.71574
 X73.00000 Z5.73105
 X73.12500 Z5.73952
 X79.62500 Z6.12174
 X79.75000 Z6.12697
 X79.87500 Z6.12479
 X79.93750 Z6.12035
 X79.96875 Z6.11710
 X80.00000 Z6.11303
 X80.03125 Z6.10799
 X80.06250 Z6.10173
 X80.09375 Z6.09385
 X80.10938 Z6.08909
 X80.11719 Z6.08645
 X80.12109 Z6.08505
 X80.12500 Z6.08359
 X80.14062 Z6.07708
 X80.14844 Z6.07330
 X80.15234 Z6.07124
 X80.15625 Z6.06903
 X80.16406 Z6.06411
 X80.16797 Z6.06131
 X80.16992 Z6.05979
 X80.17090 Z6.05900
 X80.17139 Z6.05860
 X80.17188 Z6.05819
 X80.17578 Z6.05465
 X80.17773 Z6.05266
 X80.17871 Z6.05159
 X80.17920 Z6.05104
 X80.17969 Z6.05047
 X80.18750 Z6.03703
 X80.19141 Z2.00000
 X170.00000
 Y21.59884
 X80.39062
 X80.38281 Z6.29012
 X80.38086 Z6.29304
 X80.37891 Z6.29555
 X80.37695 Z6.29779
 X80.37598 Z6.29882
 X80.37500 Z6.29981
 X80.36719 Z6.30656
 X80.36328 Z6.30939
 X80.35938 Z6.31197
 X80.35156 Z6.31657
 X80.34375 Z6.32059
 X80.32812 Z6.32746
 X80.31250 Z6.33321
 X80.28125 Z6.34247
 X80.25000 Z6.34970
 X80.18750 Z6.36015
 X80.12500 Z6.36689
 X80.00000 Z6.37260
 X79.87500 Z6.37018
 X79.75000 Z6.36294
 X73.37500 Z5.98806
 X73.25000 Z5.98006
 X73.12500 Z5.96578
 X73.06250 Z5.95542
 X73.03125 Z5.94927
 X73.00000 Z5.94236
 X72.93750 Z5.92566
 X72.90625 Z5.91537
 X72.89062 Z5.90954
 X72.88281 Z5.90642
 X72.87891 Z5.90479
 X72.87500 Z5.90312
 X72.85938 Z5.89594
 X72.84375 Z5.88772
 X72.83594 Z5.88306
 X72.83203 Z5.88055
 X72.82812 Z5.87789
 X72.82031 Z5.87202
 X72.81250 Z5.86506
 X72.80469 Z5.85601
 X72.80078 Z5.84966
 X72.79883 Z5.84518
 X72.79785 Z5.84203
 X72.79736 Z5.83981
 X72.79712 Z5.83824
 X72.79700 Z5.83713
 X72.79694 Z5.83633
 X72.79691 Z5.83576
 X72.79689 Z5.83533
 X72.79688 Z2.00000
 X30.96875
 X30.96484 Z3.34747
 X30.96387 Z3.35190
 X30.96338 Z3.35338
 X30.96289 Z3.35467
 X30.96191 Z3.35688
 X30.96143 Z3.35785
 X30.96094 Z3.35876
 X30.95898 Z3.36195
 X30.95703 Z3.36465
 X30.95508 Z3.36704
 X30.95410 Z3.36814
 X30.95312 Z3.36919
 X30.94922 Z3.37301
 X30.94531 Z3.37636
 X30.94141 Z3.37938
 X30.93945 Z3.38078
 X30.93750 Z3.38213
 X30.92188 Z3.39143
 X30.90625 Z3.39895
 X30.89062 Z3.40535
 X30.87500 Z3.41094
 X30.81250 Z3.42818
 X30.75000 Z3.44024
 X30.62500 Z3.45502
 X30.50000 Z3.46091
 X30.37500 Z3.45927
 X30.25000 Z3.45217
 X20.00000 Z2.84943
 X19.87500 Z2.84208
 X19.81250 Z2.83723
 X19.75000 Z2.83006
 X19.68750 Z2.82001
 X19.65625 Z2.81361
 X19.64062 Z2.80997
 X19.63281 Z2.80803
 X19.62891 Z2.80702
 X19.62695 Z2.80651
 X19.62598 Z2.80625
 X19.62500 Z2.80599
 X19.59375 Z2.79677
 X19.57812 Z2.79133
 X19.57031 Z2.78834
 X19.56641 Z2.78677
 X19.56445 Z2.78596
 X19.56348 Z2.78555
 X19.56250 Z2.78514
 X19.54688 Z2.77792
 X19.53906 Z2.77378
 X19.53516 Z2.77153
 X19.53320 Z2.77035
 X19.53223 Z2.76974
 X19.53125 Z2.76913
 X19.52344 Z2.76379
 X19.51953 Z2.76075
 X19.51758 Z2.75912
 X19.51660 Z2.75826
 X19.51562 Z2.75738
 X19.51172 Z2.75352
 X19.50977 Z2.75134
 X19.50781 Z2.74891
 X19.50586 Z2.74616
 X19.50391 Z2.74288
 X19.50195 Z2.73859
 X19.50098 Z2.73555
 X19.50049 Z2.73340
 X19.50024 Z2.73188
 X19.50012 Z2.73080
 X19.50006 Z2.73004
 X19.50003 Z2.72950
 X19.50002 Z2.72912
 X19.50001 Z2.00000
 X5.00000
 Y22.59302
 X19.50000
 X19.50195 Z2.97244
 X19.50293 Z2.97476
 X19.50342 Z2.97578
 X19.50391 Z2.97672
 X19.50586 Z2.98000
 X19.50781 Z2.98276
 X19.51172 Z2.98736
 X19.51367 Z2.98937
 X19.51562 Z2.99122
 X19.52344 Z2.99764
 X19.53125 Z3.00298
 X19.54688 Z3.01177
 X19.55469 Z3.01553
 X19.56250 Z3.01899
 X19.59375 Z3.03061
 X19.62500 Z3.03984
 X19.68750 Z3.05386
 X19.75000 Z3.06390
 X19.87500 Z3.07592
 X20.00000 Z3.08328
 X30.25000 Z3.68601
 X30.37500 Z3.69312
 X30.50000 Z3.69476
 X30.62500 Z3.68887
 X30.68750 Z3.68277
 X30.75000 Z3.67409
 X30.81250 Z3.66202
 X30.84375 Z3.65425
 X30.85938 Z3.64977
 X30.86719 Z3.64735
 X30.87109 Z3.64609
 X30.87305 Z3.64544
 X30.87500 Z3.64479
 X30.90625 Z3.63280
 X30.92188 Z3.62528
 X30.92969 Z3.62092
 X30.93359 Z3.61853
 X30.93555 Z3.61728
 X30.93750 Z3.61598
 X30.94141 Z3.61322
 X30.94531 Z3.61021
 X30.94922 Z3.60686
 X30.95117 Z3.60502
 X30.95215 Z3.60405
 X30.95312 Z3.60304
 X30.95508 Z3.60088
 X30.95605 Z3.59972
 X30.95703 Z3.59850
 X30.96094 Z3.59261
 X30.96484 Z3.58132
 X30.96582 Z2.00000
 X73.03076
 X73.03101 Z6.08553
 X73.03113 Z6.08644
 X73.03119 Z6.08683
 X73.03125 Z6.08720
 X73.03223 Z6.09122
 X73.03271 Z6.09268
 X73.03320 Z6.09396
 X73.03418 Z6.09619
 X73.03516 Z6.09811
 X73.03711 Z6.10141
 X73.03809 Z6.10287
 X73.03906 Z6.10423
 X73.04297 Z6.10903
 X73.04492 Z6.11113
 X73.04688 Z6.11310
 X73.05469 Z6.11998
 X73.05859 Z6.12300
 X73.06250 Z6.12581
 X73.07812 Z6.13557
 X73.09375 Z6.14376
 X73.10938 Z6.15092
 X73.12500 Z6.15732
 X73.18750 Z6.17799
 X73.25000 Z6.19362
 X73.37500 Z6.21567
 X73.50000 Z6.22894
 X73.62500 Z6.23661
 X80.00000 Z6.61148
 X80.12500 Z6.61761
 X80.25000 Z6.61688
 X80.31250 Z6.61334
 X80.34375 Z6.61061
 X80.37500 Z6.60715
 X80.43750 Z6.59748
 X80.46875 Z6.59082
 X80.48438 Z6.58688
 X80.49219 Z6.58471
 X80.49609 Z6.58357
 X80.50000 Z6.58240
 X80.53125 Z6.57125
 X80.53906 Z6.56780
 X80.54688 Z6.56398
 X80.55469 Z6.55966
 X80.56250 Z6.55466
 X80.56641 Z6.55180
 X80.56836 Z6.55026
 X80.57031 Z6.54861
 X80.57422 Z6.54497
 X80.57617 Z6.54291
 X80.57715 Z6.54180
 X80.57764 Z6.54122
 X80.57812 Z6.54063
 X80.58594 Z6.52534
 X80.58984 Z2.00000
 X170.00000
 Y23.58721
 X80.78906
 X80.78516 Z6.76885
 X80.78418 Z6.77312
 X80.78369 Z6.77458
 X80.78320 Z6.77586
 X80.78223 Z6.77804
 X80.78174 Z6.77900
 X80.78149 Z6.77945
 X80.78125 Z6.77990
 X80.77930 Z6.78304
 X80.77734 Z6.78569
 X80.77539 Z6.78802
 X80.77344 Z6.79012
 X80.76953 Z6.79382
 X80.76758 Z6.79548
 X80.76562 Z6.79705
 X80.75781 Z6.80256
 X80.75391 Z6.80498
 X80.75000 Z6.80722
 X80.71875 Z6.82125
 X80.70312 Z6.82660
 X80.68750 Z6.83124
 X80.65625 Z6.83895
 X80.62500 Z6.84509
 X80.50000 Z6.85970
 X80.37500 Z6.86379
 X80.25000 Z6.86003
 X73.87500 Z6.48516
 X73.75000 Z6.47770
 X73.62500 Z6.46542
 X73.56250 Z6.45625
 X73.50000 Z6.44466
 X73.43750 Z6.43000
 X73.40625 Z6.42114
 X73.39062 Z6.41622
 X73.38281 Z6.41361
 X73.37891 Z6.41227
 X73.37500 Z6.41089
 X73.34375 Z6.39871
 X73.32812 Z6.39158
 X73.32031 Z6.38766
 X73.31641 Z6.38559
 X73.31250 Z6.38343
 X73.29688 Z6.37372
 X73.28906 Z6.36794
 X73.28125 Z6.36114
 X73.27734 Z6.35713
 X73.27539 Z6.35489
 X73.27344 Z6.35244
 X73.27148 Z6.34969
 X73.27051 Z6.34818
 X73.27002 Z6.34737
 X73.26953 Z6.34653
 X73.26562 Z6.33693
 X73.26172 Z2.00000
 X30.96875
 X30.96484 Z3.81516
 X30.96387 Z3.81959
 X30.96338 Z3.82108
 X30.96289 Z3.82237
 X30.96191 Z3.82457
 X30.96143 Z3.82554
 X30.96094 Z3.82645
 X30.95898 Z3.82964
 X30.95703 Z3.83235
 X30.95508 Z3.83473
 X30.95410 Z3.83583
 X30.95312 Z3.83688
 X30.94922 Z3.84070
 X30.94531 Z3.84405
 X30.94141 Z3.84707
 X30.93945 Z3.84848
 X30.93750 Z3.84983
 X30.92188 Z3.85912
 X30.90625 Z3.86665
 X30.89062 Z3.87304
 X30.87500 Z3.87864
 X30.81250 Z3.89587
 X30.75000 Z3.90793
 X30.62500 Z3.92271
 X30.50000 Z3.92860
 X30.37500 Z3.92696
 X30.25000 Z3.91986
 X20.00000 Z3.31712
 X19.87500 Z3.30977
 X19.81250 Z3.30492
 X19.75000 Z3.29775
 X19.68750 Z3.28770
 X19.65625 Z3.28130
 X19.64062 Z3.27767
 X19.63281 Z3.27572
 X19.62891 Z3.27472
 X19.62695 Z3.27420
 X19.62598 Z3.27395
 X19.62500 Z3.27369
 X19.59375 Z3.26446
 X19.57812 Z3.25902
 X19.57031 Z3.25604
 X19.56641 Z3.25446
 X19.56445 Z3.25366
 X19.56250 Z3.25283
 X19.54688 Z3.24561
 X19.53906 Z3.24147
 X19.53516 Z3.23922
 X19.53320 Z3.23804
 X19.53125 Z3.23682
 X19.52344 Z3.23148
 X19.51953 Z3.22845
 X19.51758 Z3.22681
 X19.51562 Z3.22507
 X19.51172 Z3.22121
 X19.50977 Z3.21903
 X19.50781 Z3.21661
 X19.50391 Z3.21057
 X19.50195 Z3.20628
 X19.50098 Z3.20324
 X19.50049 Z3.20109
 X19.50024 Z3.19957
 X19.50012 Z3.19850
 X19.50006 Z3.19774
 X19.50003 Z3.19720
 X19.50002 Z3.19682
 X19.50001 Z2.00000
 X5.00000
 Y24.58140
 X19.50000
 X19.50781 Z3.45045
 X19.51172 Z3.45506
 X19.51367 Z3.45706
 X19.51562 Z3.45891
 X19.52344 Z3.46533
 X19.53125 Z3.47067
 X19.54688 Z3.47946
 X19.55469 Z3.48322
 X19.56250 Z3.48668
 X19.59375 Z3.49830
 X19.62500 Z3.50753
 X19.68750 Z3.52155
 X19.75000 Z3.53159
 X19.87500 Z3.54362
 X20.00000 Z3.55097
 X30.25000 Z4.15371
 X30.37500 Z4.16081
 X30.50000 Z4.16245
 X30.62500 Z4.15656
 X30.68750 Z4.15046
 X30.75000 Z4.14178
 X30.81250 Z4.12972
 X30.84375 Z4.12194
 X30.85938 Z4.11746
 X30.86719 Z4.11504
 X30.87109 Z4.11378
 X30.87305 Z4.11313
 X30.87500 Z4.11248
 X30.90625 Z4.10049
 X30.92188 Z4.09297
 X30.92969 Z4.08861
 X30.93359 Z4.08623
 X30.93750 Z4.08367
 X30.94141 Z4.08091
 X30.94531 Z4.07790
 X30.94922 Z4.07455
 X30.95117 Z4.07271
 X30.95215 Z4.07174
 X30.95312 Z4.07073
 X30.95508 Z4.06858
 X30.95605 Z4.06742
 X30.95703 Z4.06619
 X30.96094 Z4.06030
 X30.96484 Z4.04901
 X30.96680 Z2.00000
 X73.49805
 X73.49902 Z6.58193
 X73.49951 Z6.58437
 X73.49976 Z6.58531
 X73.49988 Z6.58575
 X73.50000 Z6.58616
 X73.50195 Z6.59122
 X73.50293 Z6.59317
 X73.50391 Z6.59491
 X73.50586 Z6.59796
 X73.50781 Z6.60062
 X73.51172 Z6.60522
 X73.51367 Z6.60726
 X73.51562 Z6.60917
 X73.52344 Z6.61590
 X73.53125 Z6.62163
 X73.54688 Z6.63128
 X73.56250 Z6.63940
 X73.59375 Z6.65287
 X73.62500 Z6.66396
 X73.68750 Z6.68172
 X73.75000 Z6.69550
 X73.87500 Z6.71503
 X74.00000 Z6.72635
 X74.12500 Z6.73370
 X80.37500 Z7.10123
 X80.50000 Z7.10800
 X80.62500 Z7.10869
 X80.68750 Z7.10598
 X80.75000 Z7.10082
 X80.81250 Z7.09255
 X80.84375 Z7.08687
 X80.85938 Z7.08354
 X80.86719 Z7.08172
 X80.87109 Z7.08077
 X80.87500 Z7.07979
 X80.90625 Z7.07075
 X80.92188 Z7.06516
 X80.92969 Z7.06200
 X80.93750 Z7.05853
 X80.95312 Z7.05029
 X80.95703 Z7.04785
 X80.96094 Z7.04520
 X80.96875 Z7.03902
 X80.97656 Z7.03074
 X80.98047 Z7.02474
 X80.98242 Z7.02041
 X80.98340 Z7.01730
 X80.98389 Z7.01504
 X80.98413 Z7.01336
 X80.98425 Z7.01204
 X80.98431 Z2.00000
 X170.00000
 Y25.57558
 X81.18750
 X81.17188 Z7.28040
 X81.16797 Z7.28422
 X81.16406 Z7.28752
 X81.16016 Z7.29047
 X81.15625 Z7.29314
 X81.14844 Z7.29787
 X81.14062 Z7.30200
 X81.13281 Z7.30568
 X81.12500 Z7.30900
 X81.09375 Z7.31985
 X81.06250 Z7.32809
 X81.00000 Z7.33986
 X80.87500 Z7.35217
 X80.75000 Z7.35474
 X80.62500 Z7.34977
 X74.25000 Z6.97490
 X74.12500 Z6.96451
 X74.00000 Z6.94616
 X73.93750 Z6.93319
 X73.90625 Z6.92544
 X73.89062 Z6.92118
 X73.88281 Z6.91893
 X73.87500 Z6.91661
 X73.84375 Z6.90642
 X73.82812 Z6.90065
 X73.82031 Z6.89756
 X73.81250 Z6.89430
 X73.79688 Z6.88722
 X73.78906 Z6.88333
 X73.78516 Z6.88127
 X73.78125 Z6.87914
 X73.77344 Z6.87458
 X73.76953 Z6.87213
 X73.76562 Z6.86954
 X73.75781 Z6.86386
 X73.75000 Z6.85720
 X73.74609 Z6.85330
 X73.74414 Z6.85114
 X73.74219 Z6.84880
 X73.74023 Z6.84620
 X73.73926 Z6.84478
 X73.73877 Z6.84403
 X73.73828 Z6.84325
 X73.73438 Z6.83515
 X73.73047 Z2.00000
 X30.96875
 X30.96484 Z4.28286
 X30.96387 Z4.28728
 X30.96338 Z4.28877
 X30.96289 Z4.29006
 X30.96191 Z4.29226
 X30.96143 Z4.29324
 X30.96094 Z4.29415
 X30.95898 Z4.29734
 X30.95703 Z4.30004
 X30.95508 Z4.30242
 X30.95410 Z4.30352
 X30.95312 Z4.30458
 X30.94922 Z4.30839
 X30.94531 Z4.31175
 X30.94141 Z4.31476
 X30.93945 Z4.31617
 X30.93750 Z4.31752
 X30.92188 Z4.32682
 X30.90625 Z4.33434
 X30.89062 Z4.34073
 X30.87500 Z4.34633
 X30.81250 Z4.36356
 X30.75000 Z4.37562
 X30.62500 Z4.39041
 X30.50000 Z4.39629
 X30.37500 Z4.39466
 X30.25000 Z4.38755
 X20.00000 Z3.78482
 X19.87500 Z3.77746
 X19.81250 Z3.77261
 X19.75000 Z3.76544
 X19.68750 Z3.75540
 X19.65625 Z3.74899
 X19.64062 Z3.74536
 X19.63281 Z3.74341
 X19.62891 Z3.74241
 X19.62695 Z3.74190
 X19.62500 Z3.74138
 X19.59375 Z3.73215
 X19.57812 Z3.72671
 X19.57031 Z3.72373
 X19.56641 Z3.72216
 X19.56445 Z3.72135
 X19.56250 Z3.72053
 X19.54688 Z3.71331
 X19.53906 Z3.70916
 X19.53516 Z3.70691
 X19.53320 Z3.70573
 X19.53125 Z3.70452
 X19.52344 Z3.69917
 X19.51953 Z3.69614
 X19.51758 Z3.69450
 X19.51562 Z3.69276
 X19.51172 Z3.68890
 X19.50781 Z3.68430
 X19.50391 Z3.67826
 X19.50195 Z3.67397
 X19.50098 Z3.67094
 X19.50049 Z3.66879
 X19.50024 Z3.66726
 X19.50012 Z3.66619
 X19.50006 Z3.66543
 X19.50003 Z3.66489
 X19.50002 Z3.66451
 X19.50001 Z2.00000
 X5.00000
 Y26.56977
 X19.50000
 X19.50781 Z3.91814
 X19.51172 Z3.92275
 X19.51367 Z3.92475
 X19.51562 Z3.92661
 X19.52344 Z3.93302
 X19.53125 Z3.93836
 X19.54688 Z3.94715
 X19.55469 Z3.95092
 X19.56250 Z3.95437
 X19.59375 Z3.96600
 X19.62500 Z3.97523
 X19.68750 Z3.98924
 X19.75000 Z3.99929
 X19.87500 Z4.01131
 X20.00000 Z4.01866
 X30.25000 Z4.62140
 X30.37500 Z4.62850
 X30.50000 Z4.63014
 X30.62500 Z4.62425
 X30.68750 Z4.61815
 X30.75000 Z4.60947
 X30.81250 Z4.59741
 X30.84375 Z4.58963
 X30.85938 Z4.58515
 X30.86719 Z4.58273
 X30.87109 Z4.58147
 X30.87305 Z4.58083
 X30.87500 Z4.58017
 X30.90625 Z4.56818
 X30.92188 Z4.56066
 X30.92969 Z4.55630
 X30.93359 Z4.55392
 X30.93750 Z4.55137
 X30.94141 Z4.54861
 X30.94531 Z4.54559
 X30.94922 Z4.54224
 X30.95117 Z4.54040
 X30.95215 Z4.53943
 X30.95312 Z4.53842
 X30.95508 Z4.53627
 X30.95605 Z4.53511
 X30.95703 Z4.53388
 X30.96094 Z4.52799
 X30.96484 Z4.51670
 X30.96680 Z2.00000
 X73.96484
 X73.96680 Z7.07660
 X73.96729 Z7.07923
 X73.96777 Z7.08110
 X73.96826 Z7.08263
 X73.96851 Z7.08332
 X73.96863 Z7.08365
 X73.96875 Z7.08397
 X73.97070 Z7.08822
 X73.97168 Z7.08998
 X73.97266 Z7.09157
 X73.97461 Z7.09443
 X73.97656 Z7.09696
 X73.98047 Z7.10138
 X73.98242 Z7.10335
 X73.98438 Z7.10522
 X73.99219 Z7.11181
 X73.99609 Z7.11472
 X74.00000 Z7.11745
 X74.03125 Z7.13504
 X74.04688 Z7.14210
 X74.06250 Z7.14842
 X74.09375 Z7.15946
 X74.12500 Z7.16890
 X74.25000 Z7.19664
 X74.37500 Z7.21386
 X74.50000 Z7.22345
 X80.75000 Z7.59097
 X80.87500 Z7.59815
 X81.00000 Z7.60022
 X81.06250 Z7.59830
 X81.12500 Z7.59408
 X81.18750 Z7.58705
 X81.21875 Z7.58219
 X81.23438 Z7.57934
 X81.24219 Z7.57780
 X81.24609 Z7.57699
 X81.25000 Z7.57617
 X81.28125 Z7.56862
 X81.29688 Z7.56408
 X81.30469 Z7.56157
 X81.30859 Z7.56025
 X81.31055 Z7.55956
 X81.31250 Z7.55887
 X81.32812 Z7.55275
 X81.33594 Z7.54924
 X81.33984 Z7.54735
 X81.34180 Z7.54636
 X81.34375 Z7.54534
 X81.35156 Z7.54090
 X81.35547 Z7.53843
 X81.35742 Z7.53711
 X81.35938 Z7.53573
 X81.36328 Z7.53276
 X81.36523 Z7.53114
 X81.36719 Z7.52941
 X81.37500 Z7.52080
 X81.38281 Z2.00000
 X170.00000
 Y27.56395
 X81.59375
 X81.57812 Z7.75901
 X81.57715 Z7.76103
 X81.57617 Z7.76279
 X81.57422 Z7.76580
 X81.57227 Z7.76838
 X81.57031 Z7.77065
 X81.56641 Z7.77459
 X81.56445 Z7.77635
 X81.56348 Z7.77718
 X81.56250 Z7.77799
 X81.55469 Z7.78371
 X81.54688 Z7.78852
 X81.53906 Z7.79269
 X81.53125 Z7.79641
 X81.51562 Z7.80283
 X81.50000 Z7.80826
 X81.43750 Z7.82404
 X81.37500 Z7.83411
 X81.25000 Z7.84434
 X81.12500 Z7.84544
 X81.00000 Z7.83952
 X74.75000 Z7.47200
 X74.62500 Z7.46309
 X74.50000 Z7.44695
 X74.43750 Z7.43544
 X74.40625 Z7.42860
 X74.37500 Z7.42088
 X74.34375 Z7.41209
 X74.31250 Z7.40194
 X74.28125 Z7.38989
 X74.26562 Z7.38286
 X74.25781 Z7.37899
 X74.25000 Z7.37484
 X74.24219 Z7.37032
 X74.23438 Z7.36535
 X74.22656 Z7.35975
 X74.22266 Z7.35664
 X74.22070 Z7.35498
 X74.21973 Z7.35411
 X74.21875 Z7.35323
 X74.20312 Z7.33267
 X74.19922 Z2.00000
 X30.96875
 X30.96094 Z4.76184
 X30.95898 Z4.76503
 X30.95703 Z4.76773
 X30.95508 Z4.77011
 X30.95410 Z4.77122
 X30.95312 Z4.77227
 X30.94922 Z4.77609
 X30.94531 Z4.77944
 X30.94141 Z4.78245
 X30.93945 Z4.78386
 X30.93750 Z4.78521
 X30.92188 Z4.79451
 X30.90625 Z4.80203
 X30.89062 Z4.80843
 X30.87500 Z4.81402
 X30.81250 Z4.83125
 X30.75000 Z4.84332
 X30.62500 Z4.85810
 X30.50000 Z4.86399
 X30.37500 Z4.86235
 X30.25000 Z4.85524
 X20.00000 Z4.25251
 X19.87500 Z4.24515
 X19.81250 Z4.24031
 X19.75000 Z4.23313
 X19.68750 Z4.22309
 X19.65625 Z4.21669
 X19.64062 Z4.21305
 X19.63281 Z4.21111
 X19.62891 Z4.21010
 X19.62695 Z4.20959
 X19.62500 Z4.20907
 X19.59375 Z4.19984
 X19.57812 Z4.19441
 X19.57031 Z4.19142
 X19.56641 Z4.18985
 X19.56445 Z4.18904
 X19.56250 Z4.18822
 X19.54688 Z4.18100
 X19.53906 Z4.17685
 X19.53516 Z4.17460
 X19.53125 Z4.17221
 X19.52344 Z4.16687
 X19.51953 Z4.16383
 X19.51562 Z4.16045
 X19.51172 Z4.15660
 X19.50781 Z4.15199
 X19.50391 Z4.14595
 X19.50195 Z4.14167
 X19.50098 Z4.13863
 X19.50049 Z4.13648
 X19.50024 Z4.13496
 X19.50012 Z4.13388
 X19.50006 Z4.13312
 X19.50003 Z4.13258
 X19.50002 Z4.13220
 X19.50001 Z2.00000
 X5.00000
 Y28.55814
 X19.50000
 X19.50781 Z4.38584
 X19.51172 Z4.39044
 X19.51367 Z4.39244
 X19.51562 Z4.39430
 X19.52344 Z4.40071
 X19.53125 Z4.40605
 X19.54688 Z4.41485
 X19.55469 Z4.41861
 X19.56250 Z4.42206
 X19.59375 Z4.43369
 X19.62500 Z4.44292
 X19.68750 Z4.45694
 X19.75000 Z4.46698
 X19.87500 Z4.47900
 X20.00000 Z4.48635
 X30.25000 Z5.08909
 X30.37500 Z5.09619
 X30.50000 Z5.09783
 X30.62500 Z5.09194
 X30.68750 Z5.08585
 X30.75000 Z5.07716
 X30.81250 Z5.06510
 X30.84375 Z5.05732
 X30.85938 Z5.05284
 X30.86719 Z5.05042
 X30.87109 Z5.04916
 X30.87500 Z5.04787
 X30.90625 Z5.03588
 X30.92188 Z5.02836
 X30.92969 Z5.02399
 X30.93359 Z5.02161
 X30.93750 Z5.01906
 X30.94141 Z5.01630
 X30.94531 Z5.01328
 X30.94922 Z5.00993
 X30.95117 Z5.00809
 X30.95215 Z5.00712
 X30.95312 Z5.00611
 X30.96094 Z4.99569
 X30.96484 Z4.98439
 X30.96680 Z2.00000
 X74.43359
 X74.43555 Z7.57603
 X74.43652 Z7.57897
 X74.43701 Z7.58018
 X74.43726 Z7.58075
 X74.43750 Z7.58129
 X74.43945 Z7.58504
 X74.44141 Z7.58813
 X74.44336 Z7.59083
 X74.44531 Z7.59324
 X74.44922 Z7.59751
 X74.45312 Z7.60124
 X74.46094 Z7.60770
 X74.46484 Z7.61057
 X74.46875 Z7.61325
 X74.48438 Z7.62269
 X74.49219 Z7.62682
 X74.50000 Z7.63067
 X74.53125 Z7.64397
 X74.56250 Z7.65496
 X74.62500 Z7.67257
 X74.75000 Z7.69711
 X74.87500 Z7.71219
 X75.00000 Z7.72054
 X81.12500 Z8.08071
 X81.25000 Z8.08806
 X81.37500 Z8.09148
 X81.50000 Z8.08698
 X81.56250 Z8.08105
 X81.59375 Z8.07689
 X81.60938 Z8.07445
 X81.62500 Z8.07174
 X81.65625 Z8.06534
 X81.67188 Z8.06156
 X81.67969 Z8.05949
 X81.68750 Z8.05728
 X81.70312 Z8.05239
 X81.71094 Z8.04967
 X81.71875 Z8.04672
 X81.73438 Z8.03996
 X81.74219 Z8.03601
 X81.75000 Z8.03151
 X81.75781 Z8.02625
 X81.76172 Z8.02321
 X81.76562 Z8.01977
 X81.77344 Z8.01080
 X81.77734 Z8.00366
 X81.77930 Z7.99683
 X81.78027 Z2.00000
 X170.00000
 Y29.55233
 X81.98438
 X81.97656 Z8.24823
 X81.97461 Z8.25251
 X81.97363 Z8.25423
 X81.97266 Z8.25577
 X81.97070 Z8.25849
 X81.96973 Z8.25971
 X81.96875 Z8.26087
 X81.96484 Z8.26495
 X81.96094 Z8.26843
 X81.95703 Z8.27151
 X81.95312 Z8.27428
 X81.94531 Z8.27916
 X81.94141 Z8.28134
 X81.93750 Z8.28339
 X81.92188 Z8.29053
 X81.90625 Z8.29646
 X81.89062 Z8.30154
 X81.87500 Z8.30597
 X81.81250 Z8.31928
 X81.75000 Z8.32788
 X81.62500 Z8.33622
 X81.50000 Z8.33589
 X81.37500 Z8.32926
 X75.25000 Z7.96909
 X75.12500 Z7.96117
 X75.00000 Z7.94711
 X74.93750 Z7.93690
 X74.90625 Z7.93083
 X74.87500 Z7.92401
 X74.81250 Z7.90756
 X74.78125 Z7.89745
 X74.76562 Z7.89174
 X74.75781 Z7.88869
 X74.75000 Z7.88547
 X74.73438 Z7.87849
 X74.71875 Z7.87054
 X74.71094 Z7.86607
 X74.70312 Z7.86115
 X74.69531 Z7.85564
 X74.68750 Z7.84925
 X74.67188 Z7.82984
 X74.66797 Z2.00000
 X30.96875
 X30.96094 Z5.22953
 X30.95898 Z5.23272
 X30.95703 Z5.23542
 X30.95508 Z5.23781
 X30.95410 Z5.23891
 X30.95312 Z5.23996
 X30.94922 Z5.24378
 X30.94531 Z5.24713
 X30.94141 Z5.25015
 X30.93945 Z5.25155
 X30.93750 Z5.25290
 X30.92188 Z5.26220
 X30.90625 Z5.26972
 X30.89062 Z5.27612
 X30.87500 Z5.28171
 X30.81250 Z5.29895
 X30.75000 Z5.31101
 X30.62500 Z5.32579
 X30.50000 Z5.33168
 X30.37500 Z5.33004
 X30.25000 Z5.32294
 X20.00000 Z4.72020
 X19.87500 Z4.71285
 X19.81250 Z4.70800
 X19.75000 Z4.70082
 X19.68750 Z4.69078
 X19.65625 Z4.68438
 X19.64062 Z4.68074
 X19.63281 Z4.67880
 X19.62891 Z4.67779
 X19.62695 Z4.67728
 X19.62500 Z4.67676
 X19.59375 Z4.66753
 X19.57812 Z4.66210
 X19.57031 Z4.65911
 X19.56641 Z4.65754
 X19.56250 Z4.65591
 X19.54688 Z4.64869
 X19.53906 Z4.64455
 X19.53516 Z4.64229
 X19.53125 Z4.63990
 X19.52344 Z4.63456
 X19.51953 Z4.63152
 X19.51562 Z4.62815
 X19.51172 Z4.62429
 X19.50781 Z4.61968
 X19.50391 Z4.61365
 X19.50195 Z4.60936
 X19.50098 Z4.60632
 X19.50049 Z4.60417
 X19.50024 Z4.60265
 X19.50012 Z4.60157
 X19.50006 Z4.60081
 X19.50003 Z4.60027
 X19.50002 Z4.59989
 X19.50001 Z2.00000
 X5.00000
 Y30.54651
 X19.50000
 X19.50781 Z4.85353
 X19.51172 Z4.85813
 X19.51367 Z4.86013
 X19.51562 Z4.86199
 X19.52344 Z4.86841
 X19.53125 Z4.87375
 X19.54688 Z4.88254
 X19.55469 Z4.88630
 X19.56250 Z4.88976
 X19.59375 Z4.90138
 X19.62500 Z4.91061
 X19.68750 Z4.92463
 X19.75000 Z4.93467
 X19.87500 Z4.94669
 X20.00000 Z4.95405
 X30.25000 Z5.55678
 X30.37500 Z5.56389
 X30.50000 Z5.56553
 X30.62500 Z5.55964
 X30.68750 Z5.55354
 X30.75000 Z5.54486
 X30.81250 Z5.53279
 X30.84375 Z5.52501
 X30.85938 Z5.52053
 X30.86719 Z5.51811
 X30.87109 Z5.51685
 X30.87500 Z5.51556
 X30.90625 Z5.50357
 X30.92188 Z5.49605
 X30.92969 Z5.49169
 X30.93359 Z5.48930
 X30.93750 Z5.48675
 X30.94141 Z5.48399
 X30.94531 Z5.48098
 X30.94922 Z5.47763
 X30.95117 Z5.47579
 X30.95215 Z5.47482
 X30.95312 Z5.47381
 X30.96094 Z5.46338
 X30.96484 Z5.45209
 X30.96680 Z2.00000
 X74.87500
 X74.90625 Z8.07833
 X74.91016 Z8.08462
 X74.91211 Z8.08717
 X74.91406 Z8.08948
 X74.91797 Z8.09361
 X74.92188 Z8.09725
 X74.92969 Z8.10358
 X74.93359 Z8.10640
 X74.93750 Z8.10905
 X74.95312 Z8.11838
 X74.96875 Z8.12630
 X74.98438 Z8.13326
 X75.00000 Z8.13952
 X75.06250 Z8.15981
 X75.12500 Z8.17522
 X75.25000 Z8.19697
 X75.37500 Z8.21002
 X75.50000 Z8.21764
 X81.62500 Z8.57781
 X81.75000 Z8.58249
 X81.87500 Z8.57954
 X81.93750 Z8.57461
 X81.96875 Z8.57107
 X81.98438 Z8.56899
 X82.00000 Z8.56666
 X82.03125 Z8.56120
 X82.04688 Z8.55799
 X82.06250 Z8.55440
 X82.09375 Z8.54576
 X82.10938 Z8.54047
 X82.11719 Z8.53750
 X82.12500 Z8.53425
 X82.13281 Z8.53067
 X82.14062 Z8.52667
 X82.14844 Z8.52211
 X82.15234 Z8.51956
 X82.15430 Z8.51819
 X82.15527 Z8.51749
 X82.15625 Z8.51676
 X82.17188 Z8.50072
 X82.17578 Z8.49269
 X82.17773 Z2.00000
 X170.00000
 Y31.54070
 X82.37695
 X82.37598 Z8.73225
 X82.37549 Z8.73511
 X82.37524 Z8.73613
 X82.37512 Z8.73658
 X82.37500 Z8.73701
 X82.37305 Z8.74209
 X82.37207 Z8.74398
 X82.37109 Z8.74565
 X82.36914 Z8.74855
 X82.36719 Z8.75105
 X82.36328 Z8.75529
 X82.36133 Z8.75714
 X82.35938 Z8.75887
 X82.35156 Z8.76483
 X82.34375 Z8.76979
 X82.32812 Z8.77787
 X82.32031 Z8.78129
 X82.31250 Z8.78441
 X82.28125 Z8.79469
 X82.25000 Z8.80258
 X82.18750 Z8.81391
 X82.12500 Z8.82125
 X82.00000 Z8.82782
 X81.87500 Z8.82610
 X81.75000 Z8.81900
 X75.75000 Z8.46618
 X75.62500 Z8.45876
 X75.50000 Z8.44669
 X75.43750 Z8.43765
 X75.37500 Z8.42622
 X75.31250 Z8.41175
 X75.28125 Z8.40303
 X75.26562 Z8.39819
 X75.25781 Z8.39563
 X75.25000 Z8.39297
 X75.21875 Z8.38105
 X75.20312 Z8.37412
 X75.19531 Z8.37031
 X75.18750 Z8.36623
 X75.17188 Z8.35695
 X75.16406 Z8.35151
 X75.15625 Z8.34524
 X75.14062 Z8.32677
 X75.13672 Z8.31632
 X75.13477 Z2.00000
 X30.96875
 X30.96094 Z5.69722
 X30.95898 Z5.70041
 X30.95703 Z5.70312
 X30.95508 Z5.70550
 X30.95410 Z5.70660
 X30.95312 Z5.70765
 X30.94922 Z5.71147
 X30.94531 Z5.71482
 X30.94141 Z5.71784
 X30.93945 Z5.71925
 X30.93750 Z5.72060
 X30.92188 Z5.72989
 X30.90625 Z5.73741
 X30.89062 Z5.74381
 X30.87500 Z5.74940
 X30.81250 Z5.76664
 X30.75000 Z5.77870
 X30.62500 Z5.79348
 X30.50000 Z5.79937
 X30.37500 Z5.79773
 X30.25000 Z5.79063
 X20.00000 Z5.18789
 X19.87500 Z5.18054
 X19.81250 Z5.17569
 X19.75000 Z5.16852
 X19.68750 Z5.15847
 X19.65625 Z5.15207
 X19.64062 Z5.14844
 X19.63281 Z5.14649
 X19.62891 Z5.14549
 X19.62500 Z5.14446
 X19.59375 Z5.13523
 X19.57812 Z5.12979
 X19.57031 Z5.12680
 X19.56641 Z5.12523
 X19.56250 Z5.12360
 X19.54688 Z5.11638
 X19.53906 Z5.11224
 X19.53516 Z5.10999
 X19.53125 Z5.10759
 X19.52344 Z5.10225
 X19.51953 Z5.09922
 X19.51562 Z5.09584
 X19.50781 Z5.08738
 X19.50391 Z5.08134
 X19.50195 Z5.07705
 X19.50098 Z5.07401
 X19.50049 Z5.07186
 X19.50024 Z5.07034
 X19.50012 Z5.06927
 X19.50006 Z5.06850
 X19.50003 Z5.06797
 X19.50002 Z5.06759
 X19.50001 Z2.00000
 X5.00000
 Y32.53488
 X19.50000
 X19.50781 Z5.32122
 X19.51172 Z5.32583
 X19.51367 Z5.32783
 X19.51562 Z5.32968
 X19.52344 Z5.33610
 X19.53125 Z5.34144
 X19.54688 Z5.35023
 X19.55469 Z5.35399
 X19.56250 Z5.35745
 X19.59375 Z5.36907
 X19.62500 Z5.37830
 X19.68750 Z5.39232
 X19.75000 Z5.40236
 X19.87500 Z5.41439
 X20.00000 Z5.42174
 X30.25000 Z6.02448
 X30.37500 Z6.03158
 X30.50000 Z6.03322
 X30.62500 Z6.02733
 X30.68750 Z6.02123
 X30.75000 Z6.01255
 X30.81250 Z6.00048
 X30.84375 Z5.99271
 X30.85938 Z5.98823
 X30.86719 Z5.98581
 X30.87109 Z5.98455
 X30.87500 Z5.98325
 X30.90625 Z5.97126
 X30.92188 Z5.96374
 X30.92969 Z5.95938
 X30.93359 Z5.95700
 X30.93750 Z5.95444
 X30.94141 Z5.95168
 X30.94531 Z5.94867
 X30.94922 Z5.94532
 X30.95117 Z5.94348
 X30.95215 Z5.94251
 X30.95312 Z5.94150
 X30.96094 Z5.93107
 X30.96484 Z5.91978
 X30.96680 Z2.00000
 X75.36719
 X75.37109 Z8.56586
 X75.37207 Z8.56895
 X75.37305 Z8.57135
 X75.37402 Z8.57338
 X75.37451 Z8.57430
 X75.37476 Z8.57475
 X75.37500 Z8.57518
 X75.37695 Z8.57831
 X75.37891 Z8.58103
 X75.38281 Z8.58569
 X75.38672 Z8.58968
 X75.39062 Z8.59324
 X75.39844 Z8.59945
 X75.40625 Z8.60484
 X75.42188 Z8.61407
 X75.43750 Z8.62193
 X75.46875 Z8.63506
 X75.50000 Z8.64594
 X75.56250 Z8.66342
 X75.62500 Z8.67702
 X75.75000 Z8.69628
 X75.87500 Z8.70738
 X82.00000 Z9.06755
 X82.12500 Z9.07325
 X82.25000 Z9.07178
 X82.31250 Z9.06779
 X82.34375 Z9.06480
 X82.37500 Z9.06103
 X82.40625 Z9.05636
 X82.43750 Z9.05056
 X82.46875 Z9.04332
 X82.48438 Z9.03898
 X82.49219 Z9.03660
 X82.50000 Z9.03403
 X82.51562 Z9.02827
 X82.52344 Z9.02499
 X82.53125 Z9.02138
 X82.53906 Z9.01733
 X82.54297 Z9.01510
 X82.54492 Z9.01393
 X82.54688 Z9.01271
 X82.55078 Z9.01011
 X82.55469 Z9.00726
 X82.56250 Z9.00044
 X82.57031 Z8.99056
 X82.57422 Z8.98111
 X82.57617 Z2.00000
 X170.00000
 Y33.52907
 X82.78125
 X82.76562 Z9.24119
 X82.76172 Z9.24560
 X82.75977 Z9.24751
 X82.75781 Z9.24928
 X82.75391 Z9.25250
 X82.75195 Z9.25398
 X82.75000 Z9.25538
 X82.74219 Z9.26041
 X82.73438 Z9.26475
 X82.71875 Z9.27205
 X82.70312 Z9.27808
 X82.68750 Z9.28323
 X82.65625 Z9.29168
 X82.62500 Z9.29835
 X82.50000 Z9.31424
 X82.37500 Z9.31915
 X82.25000 Z9.31607
 X82.12500 Z9.30875
 X76.12500 Z8.95593
 X76.00000 Z8.94573
 X75.87500 Z8.92763
 X75.81250 Z8.91483
 X75.78125 Z8.90719
 X75.76562 Z8.90299
 X75.75781 Z8.90079
 X75.75000 Z8.89851
 X75.71875 Z8.88849
 X75.70312 Z8.88283
 X75.69531 Z8.87981
 X75.68750 Z8.87663
 X75.67188 Z8.86974
 X75.66406 Z8.86596
 X75.65625 Z8.86192
 X75.64844 Z8.85754
 X75.64062 Z8.85274
 X75.63281 Z8.84738
 X75.62500 Z8.84122
 X75.60938 Z8.82355
 X75.60547 Z8.81501
 X75.60352 Z2.00000
 X30.96875
 X30.96094 Z6.16492
 X30.95898 Z6.16811
 X30.95703 Z6.17081
 X30.95508 Z6.17319
 X30.95410 Z6.17429
 X30.95312 Z6.17535
 X30.94922 Z6.17916
 X30.94531 Z6.18251
 X30.94141 Z6.18553
 X30.93945 Z6.18694
 X30.93750 Z6.18829
 X30.92188 Z6.19759
 X30.90625 Z6.20511
 X30.89062 Z6.21150
 X30.87500 Z6.21710
 X30.81250 Z6.23433
 X30.75000 Z6.24639
 X30.62500 Z6.26118
 X30.50000 Z6.26706
 X30.37500 Z6.26542
 X30.25000 Z6.25832
 X20.00000 Z5.65558
 X19.87500 Z5.64823
 X19.81250 Z5.64338
 X19.75000 Z5.63621
 X19.68750 Z5.62617
 X19.65625 Z5.61976
 X19.64062 Z5.61613
 X19.63281 Z5.61418
 X19.62891 Z5.61318
 X19.62500 Z5.61215
 X19.59375 Z5.60292
 X19.57812 Z5.59748
 X19.57031 Z5.59450
 X19.56641 Z5.59293
 X19.56250 Z5.59130
 X19.54688 Z5.58408
 X19.53906 Z5.57993
 X19.53516 Z5.57768
 X19.53125 Z5.57528
 X19.52344 Z5.56994
 X19.51953 Z5.56691
 X19.51562 Z5.56353
 X19.50781 Z5.55507
 X19.50391 Z5.54903
 X19.50195 Z5.54474
 X19.50098 Z5.54171
 X19.50049 Z5.53956
 X19.50024 Z5.53803
 X19.50012 Z5.53696
 X19.50006 Z5.53620
 X19.50003 Z5.53566
 X19.50002 Z5.53528
 X19.50001 Z2.00000
 X5.00000
 Y34.52326
 X19.50000
 X19.50781 Z5.78891
 X19.51172 Z5.79352
 X19.51367 Z5.79552
 X19.51562 Z5.79738
 X19.52344 Z5.80379
 X19.53125 Z5.80913
 X19.54688 Z5.81792
 X19.55469 Z5.82169
 X19.56250 Z5.82514
 X19.59375 Z5.83677
 X19.62500 Z5.84599
 X19.68750 Z5.86001
 X19.75000 Z5.87006
 X19.87500 Z5.88208
 X20.00000 Z5.88943
 X30.25000 Z6.49217
 X30.37500 Z6.49927
 X30.50000 Z6.50091
 X30.62500 Z6.49502
 X30.68750 Z6.48892
 X30.75000 Z6.48024
 X30.81250 Z6.46818
 X30.84375 Z6.46040
 X30.85938 Z6.45592
 X30.86719 Z6.45350
 X30.87109 Z6.45224
 X30.87500 Z6.45094
 X30.90625 Z6.43895
 X30.92188 Z6.43143
 X30.92969 Z6.42707
 X30.93750 Z6.42213
 X30.94141 Z6.41938
 X30.94531 Z6.41636
 X30.94922 Z6.41301
 X30.95117 Z6.41117
 X30.95215 Z6.41020
 X30.95312 Z6.40919
 X30.96094 Z6.39876
 X30.96484 Z6.38747
 X30.96680 Z2.00000
 X75.83594
 X75.83984 Z9.06394
 X75.84082 Z9.06637
 X75.84180 Z9.06843
 X75.84277 Z9.07024
 X75.84326 Z9.07108
 X75.84375 Z9.07189
 X75.84570 Z9.07480
 X75.84766 Z9.07738
 X75.85156 Z9.08186
 X75.85547 Z9.08574
 X75.85938 Z9.08921
 X75.86719 Z9.09531
 X75.87109 Z9.09805
 X75.87500 Z9.10063
 X75.90625 Z9.11755
 X75.92188 Z9.12442
 X75.93750 Z9.13061
 X75.96875 Z9.14143
 X76.00000 Z9.15072
 X76.12500 Z9.17807
 X76.25000 Z9.19505
 X76.37500 Z9.20447
 X82.37500 Z9.55730
 X82.50000 Z9.56376
 X82.62500 Z9.56373
 X82.68750 Z9.56060
 X82.75000 Z9.55493
 X82.81250 Z9.54596
 X82.84375 Z9.53981
 X82.85938 Z9.53618
 X82.86719 Z9.53419
 X82.87500 Z9.53208
 X82.90625 Z9.52206
 X82.92188 Z9.51573
 X82.92969 Z9.51208
 X82.93750 Z9.50798
 X82.94531 Z9.50329
 X82.94922 Z9.50065
 X82.95312 Z9.49774
 X82.95703 Z9.49449
 X82.95898 Z9.49269
 X82.95996 Z9.49173
 X82.96094 Z9.49074
 X82.96875 Z9.48029
 X82.97656 Z2.00000
 X170.00000
 Y35.51744
 X83.17188
 X83.16406 Z9.73128
 X83.16211 Z9.73371
 X83.16016 Z9.73588
 X83.15820 Z9.73786
 X83.15723 Z9.73879
 X83.15625 Z9.73968
 X83.14844 Z9.74592
 X83.14453 Z9.74858
 X83.14062 Z9.75103
 X83.13281 Z9.75543
 X83.12891 Z9.75743
 X83.12500 Z9.75931
 X83.09375 Z9.77157
 X83.07812 Z9.77641
 X83.06250 Z9.78064
 X83.00000 Z9.79343
 X82.87500 Z9.80688
 X82.75000 Z9.81022
 X82.62500 Z9.80584
 X76.62500 Z9.45302
 X76.50000 Z9.44425
 X76.37500 Z9.42835
 X76.31250 Z9.41699
 X76.28125 Z9.41024
 X76.25000 Z9.40263
 X76.21875 Z9.39398
 X76.18750 Z9.38400
 X76.15625 Z9.37221
 X76.14062 Z9.36536
 X76.13281 Z9.36162
 X76.12500 Z9.35760
 X76.11719 Z9.35326
 X76.10938 Z9.34852
 X76.10156 Z9.34323
 X76.09766 Z9.34033
 X76.09570 Z9.33879
 X76.09375 Z9.33719
 X76.07812 Z9.32020
 X76.07422 Z9.31272
 X76.07227 Z9.30588
 X76.07129 Z2.00000
 X30.96875
 X30.96094 Z6.63261
 X30.95898 Z6.63580
 X30.95703 Z6.63850
 X30.95508 Z6.64088
 X30.95410 Z6.64199
 X30.95312 Z6.64304
 X30.94922 Z6.64686
 X30.94531 Z6.65021
 X30.94141 Z6.65322
 X30.93945 Z6.65463
 X30.93750 Z6.65598
 X30.92188 Z6.66528
 X30.90625 Z6.67280
 X30.89062 Z6.67920
 X30.87500 Z6.68479
 X30.81250 Z6.70202
 X30.75000 Z6.71409
 X30.62500 Z6.72887
 X30.50000 Z6.73476
 X30.37500 Z6.73312
 X30.25000 Z6.72601
 X20.00000 Z6.12328
 X19.87500 Z6.11592
 X19.81250 Z6.11108
 X19.75000 Z6.10390
 X19.68750 Z6.09386
 X19.65625 Z6.08746
 X19.64062 Z6.08382
 X19.63281 Z6.08188
 X19.62891 Z6.08087
 X19.62500 Z6.07984
 X19.59375 Z6.07061
 X19.57812 Z6.06518
 X19.57031 Z6.06219
 X19.56641 Z6.06062
 X19.56250 Z6.05899
 X19.54688 Z6.05177
 X19.53906 Z6.04762
 X19.53516 Z6.04537
 X19.53125 Z6.04298
 X19.52344 Z6.03764
 X19.51562 Z6.03122
 X19.50781 Z6.02276
 X19.50391 Z6.01672
 X19.50195 Z6.01244
 X19.50098 Z6.00940
 X19.50049 Z6.00725
 X19.50024 Z6.00573
 X19.50012 Z6.00465
 X19.50006 Z6.00389
 X19.50003 Z6.00335
 X19.50002 Z6.00297
 X19.50001 Z2.00000
 X5.00000
 Y36.51163
 X19.50000
 X19.50781 Z6.25661
 X19.51172 Z6.26121
 X19.51367 Z6.26321
 X19.51562 Z6.26507
 X19.52344 Z6.27148
 X19.53125 Z6.27682
 X19.54688 Z6.28561
 X19.55469 Z6.28938
 X19.56250 Z6.29283
 X19.59375 Z6.30446
 X19.62500 Z6.31369
 X19.68750 Z6.32770
 X19.75000 Z6.33775
 X19.87500 Z6.34977
 X20.00000 Z6.35712
 X30.25000 Z6.95986
 X30.37500 Z6.96696
 X30.50000 Z6.96860
 X30.62500 Z6.96271
 X30.68750 Z6.95662
 X30.75000 Z6.94793
 X30.81250 Z6.93587
 X30.84375 Z6.92809
 X30.85938 Z6.92361
 X30.86719 Z6.92119
 X30.87109 Z6.91993
 X30.87500 Z6.91864
 X30.90625 Z6.90665
 X30.92188 Z6.89912
 X30.92969 Z6.89476
 X30.93750 Z6.88983
 X30.94141 Z6.88707
 X30.94531 Z6.88405
 X30.94922 Z6.88070
 X30.95117 Z6.87886
 X30.95215 Z6.87789
 X30.95312 Z6.87688
 X30.96094 Z6.86645
 X30.96484 Z6.85516
 X30.96680 Z2.00000
 X76.30469
 X76.30859 Z9.56140
 X76.31055 Z9.56531
 X76.31152 Z9.56696
 X76.31201 Z9.56774
 X76.31250 Z9.56848
 X76.31641 Z9.57368
 X76.31836 Z9.57592
 X76.32031 Z9.57800
 X76.32812 Z9.58516
 X76.33594 Z9.59116
 X76.34375 Z9.59640
 X76.35938 Z9.60544
 X76.36719 Z9.60944
 X76.37500 Z9.61317
 X76.40625 Z9.62615
 X76.43750 Z9.63692
 X76.50000 Z9.65426
 X76.62500 Z9.67847
 X76.75000 Z9.69332
 X76.87500 Z9.70157
 X82.87500 Z10.05439
 X83.00000 Z10.06051
 X83.12500 Z10.05974
 X83.18750 Z10.05596
 X83.21875 Z10.05299
 X83.23438 Z10.05118
 X83.25000 Z10.04913
 X83.28125 Z10.04421
 X83.29688 Z10.04125
 X83.31250 Z10.03789
 X83.32812 Z10.03405
 X83.34375 Z10.02963
 X83.35938 Z10.02444
 X83.36719 Z10.02147
 X83.37500 Z10.01820
 X83.38281 Z10.01453
 X83.38672 Z10.01251
 X83.39062 Z10.01035
 X83.39453 Z10.00800
 X83.39844 Z10.00544
 X83.40625 Z9.99940
 X83.41406 Z9.99114
 X83.41797 Z9.98490
 X83.41992 Z9.98002
 X83.42090 Z9.97562
 X83.42139 Z2.00000
 X170.00000
G0 Z25.00000
 Y37.50581
G1 Z15.40786
 X169.87500 Z15.40413
 X164.75000 Z15.10276
 X164.62500 Z15.09530
 X164.56250 Z15.08984
 X164.53125 Z15.08622
 X164.51562 Z15.08417
 X164.50781 Z15.08307
 X164.50000 Z15.08193
 X164.49219 Z15.08075
 X164.48438 Z15.07951
 X164.47656 Z15.07822
 X164.47266 Z15.07756
 X164.47070 Z15.07722
 X164.46973 Z15.07705
 X164.46924 Z15.07696
 X164.46899 Z15.07692
 X164.46887 Z2.00000
 X158.09375
 X158.08594 Z14.66722
 X158.07812 Z14.66854
 X158.06250 Z14.67102
 X158.00000 Z14.67911
 X157.87500 Z14.68823
 X157.75000 Z14.68952
 X157.62500 Z14.68379
 X152.43750 Z14.37875
 X152.40625 Z14.37666
 X152.39062 Z14.37543
 X152.38281 Z14.37475
 X152.37500 Z14.37405
 X152.34375 Z14.37086
 X152.32812 Z14.36904
 X152.32031 Z14.36807
 X152.31250 Z14.36705
 X152.29688 Z14.36489
 X152.28906 Z14.36374
 X152.28125 Z14.36254
 X152.27344 Z14.36129
 X152.26562 Z14.36000
 X152.25781 Z2.00000
 X145.88281
 X145.87891 Z13.94888
 X145.87500 Z13.94955
 X145.75000 Z13.96508
 X145.62500 Z13.97152
 X145.50000 Z13.97040
 X145.37500 Z13.96345
 X140.25000 Z13.66208
 X140.18750 Z13.65798
 X140.15625 Z13.65520
 X140.14062 Z13.65359
 X140.13281 Z13.65273
 X140.12500 Z13.65183
 X140.09375 Z13.64782
 X140.07812 Z13.64554
 X140.07031 Z13.64434
 X140.06250 Z13.64308
 X140.04688 Z2.00000
 X135.42188
 X135.41406 Z13.33345
 X135.40625 Z13.33478
 X135.37500 Z13.33961
 X135.25000 Z13.35230
 X135.12500 Z13.35656
 X135.00000 Z13.35336
 X134.87500 Z13.34601
 X131.34375 Z13.13836
 X131.33594 Z13.13789
 X131.33203 Z13.13762
 X131.32812 Z13.13729
 X131.32422 Z13.13690
 X131.32227 Z13.13667
 X131.32129 Z13.13654
 X131.32031 Z13.13640
 X131.31250 Z13.13422
 X131.29688 Z2.00000
 X118.31250
 X118.29688 Z12.36496
 X118.28906 Z12.36543
 X118.28125 Z12.36568
 X118.25000 Z12.36566
 X118.12500 Z12.36083
 X118.00000 Z12.35370
 X117.56250 Z12.32798
 X117.53125 Z12.32614
 X117.51562 Z12.32522
 X117.50781 Z12.32476
 X117.50000 Z12.32426
 X117.46875 Z12.32180
 X117.45312 Z12.32025
 X117.44531 Z12.31938
 X117.43750 Z12.31844
 X117.42188 Z12.31634
 X117.41406 Z12.31515
 X117.40625 Z12.31387
 X117.39844 Z12.31247
 X117.39062 Z12.31095
 X117.38281 Z12.30929
 X117.37891 Z12.30839
 X117.37695 Z12.30793
 X117.37598 Z12.30769
 X117.37549 Z2.00000
 X111.00000
 X110.99219 Z11.89798
 X110.98438 Z11.89903
 X110.96875 Z11.90103
 X110.95312 Z11.90293
 X110.93750 Z11.90470
 X110.87500 Z11.91074
 X110.75000 Z11.91796
 X110.62500 Z11.91871
 X110.50000 Z11.91268
 X110.37500 Z11.90533
 X96.62500 Z11.09678
 X96.56250 Z11.09299
 X96.53125 Z11.09034
 X96.51562 Z11.08867
 X96.50781 Z11.08774
 X96.50000 Z11.08673
 X96.46875 Z11.08181
 X96.46094 Z11.08029
 X96.45312 Z11.07864
 X96.44531 Z2.00000
 X83.75000
 X83.71875 Z10.24451
 X83.71484 Z10.24875
 X83.71289 Z10.25058
 X83.71094 Z10.25228
 X83.70703 Z10.25535
 X83.70312 Z10.25810
 X83.69531 Z10.26287
 X83.69141 Z10.26499
 X83.68750 Z10.26696
 X83.67188 Z10.27379
 X83.65625 Z10.27938
 X83.64062 Z10.28410
 X83.62500 Z10.28817
 X83.56250 Z10.30003
 X83.50000 Z10.30723
 X83.37500 Z10.31293
 X83.25000 Z10.31021
 X83.12500 Z10.30294
 X77.12500 Z9.95012
 X77.00000 Z9.94227
 X76.87500 Z9.92845
 X76.81250 Z9.91836
 X76.75000 Z9.90565
 X76.68750 Z9.88944
 X76.65625 Z9.87951
 X76.64062 Z9.87392
 X76.63281 Z9.87093
 X76.62500 Z9.86779
 X76.59375 Z9.85328
 X76.58594 Z9.84898
 X76.57812 Z9.84429
 X76.57031 Z9.83908
 X76.56250 Z9.83314
 X76.54688 Z9.81675
 X76.53906 Z2.00000
 X30.96875
 X30.96094 Z7.10030
 X30.95898 Z7.10349
 X30.95703 Z7.10619
 X30.95508 Z7.10858
 X30.95410 Z7.10968
 X30.95312 Z7.11073
 X30.94922 Z7.11455
 X30.94531 Z7.11790
 X30.94141 Z7.12091
 X30.93945 Z7.12232
 X30.93750 Z7.12367
 X30.92188 Z7.13297
 X30.90625 Z7.14049
 X30.89062 Z7.14689
 X30.87500 Z7.15248
 X30.81250 Z7.16972
 X30.75000 Z7.18178
 X30.62500 Z7.19656
 X30.50000 Z7.20245
 X30.37500 Z7.20081
 X30.25000 Z7.19371
 X20.00000 Z6.59097
 X19.87500 Z6.58362
 X19.81250 Z6.57877
 X19.75000 Z6.57159
 X19.68750 Z6.56155
 X19.65625 Z6.55515
 X19.64062 Z6.55151
 X19.63281 Z6.54957
 X19.62891 Z6.54856
 X19.62500 Z6.54753
 X19.59375 Z6.53830
 X19.57812 Z6.53287
 X19.57031 Z6.52988
 X19.56641 Z6.52831
 X19.56250 Z6.52668
 X19.54688 Z6.51946
 X19.53906 Z6.51531
 X19.53125 Z6.51067
 X19.52344 Z6.50533
 X19.51562 Z6.49891
 X19.50781 Z6.49045
 X19.50391 Z6.48442
 X19.50195 Z6.48013
 X19.50098 Z6.47709
 X19.50049 Z6.47494
 X19.50024 Z6.47342
 X19.50012 Z6.47234
 X19.50006 Z6.47158
 X19.50003 Z6.47104
 X19.50002 Z6.47066
 X19.50001 Z2.00000
 X5.00000
 Y38.50000
 X19.50000
 X19.50781 Z6.72430
 X19.51172 Z6.72890
 X19.51367 Z6.73090
 X19.51562 Z6.73276
 X19.52344 Z6.73917
 X19.53125 Z6.74452
 X19.54688 Z6.75331
 X19.55469 Z6.75707
 X19.56250 Z6.76053
 X19.59375 Z6.77215
 X19.62500 Z6.78138
 X19.68750 Z6.79540
 X19.75000 Z6.80544
 X19.87500 Z6.81746
 X20.00000 Z6.82482
 X30.25000 Z7.42755
 X30.37500 Z7.43466
 X30.50000 Z7.43629
 X30.62500 Z7.43041
 X30.68750 Z7.42431
 X30.75000 Z7.41562
 X30.81250 Z7.40356
 X30.84375 Z7.39578
 X30.85938 Z7.39130
 X30.86719 Z7.38888
 X30.87109 Z7.38762
 X30.87500 Z7.38633
 X30.90625 Z7.37434
 X30.92188 Z7.36682
 X30.92969 Z7.36246
 X30.93750 Z7.35752
 X30.94141 Z7.35476
 X30.94531 Z7.35175
 X30.94922 Z7.34839
 X30.95117 Z7.34656
 X30.95215 Z7.34559
 X30.95312 Z7.34458
 X30.96094 Z7.33415
 X30.96484 Z7.32285
 X30.96680 Z2.00000
 X76.75000
 X76.78125 Z10.06499
 X76.78516 Z10.06994
 X76.78906 Z10.07411
 X76.79297 Z10.07778
 X76.79688 Z10.08110
 X76.80469 Z10.08699
 X76.80859 Z10.08966
 X76.81250 Z10.09217
 X76.82812 Z10.10112
 X76.84375 Z10.10879
 X76.85938 Z10.11557
 X76.87500 Z10.12169
 X76.93750 Z10.14162
 X77.00000 Z10.15681
 X77.12500 Z10.17827
 X77.25000 Z10.19110
 X77.37500 Z10.19866
 X83.50000 Z10.55883
 X83.62500 Z10.56447
 X83.75000 Z10.56283
 X83.81250 Z10.55847
 X83.84375 Z10.55515
 X83.85938 Z10.55314
 X83.87500 Z10.55087
 X83.90625 Z10.54540
 X83.92188 Z10.54211
 X83.92969 Z10.54029
 X83.93750 Z10.53835
 X83.95312 Z10.53403
 X83.96094 Z10.53160
 X83.96875 Z10.52897
 X83.98438 Z10.52292
 X83.99219 Z10.51939
 X84.00000 Z10.51538
 X84.00781 Z10.51073
 X84.01172 Z10.50807
 X84.01367 Z10.50664
 X84.01465 Z10.50589
 X84.01514 Z10.50550
 X84.01562 Z10.50511
 X84.03125 Z10.48513
 X84.03906 Z2.00000
 X95.87500
 X95.89062 Z11.25255
 X95.89160 Z11.25419
 X95.89258 Z11.25555
 X95.89355 Z11.25675
 X95.89453 Z11.25782
 X95.89648 Z11.25970
 X95.89746 Z11.26054
 X95.89844 Z11.26133
 X95.90234 Z11.26411
 X95.90430 Z11.26533
 X95.90625 Z11.26646
 X95.91406 Z11.27034
 X95.92188 Z11.27352
 X95.92969 Z11.27623
 X95.93750 Z11.27860
 X95.96875 Z11.28587
 X96.00000 Z11.29095
 X96.12500 Z11.30123
 X96.50000 Z11.32328
 X96.62500 Z11.33063
 X108.37500 Z12.02157
 X108.50000 Z12.02892
 X110.25000 Z12.13183
 X110.37500 Z12.13791
 X110.50000 Z12.13724
 X110.62500 Z12.13009
 X110.75000 Z12.11633
 X110.81250 Z12.10653
 X110.84375 Z12.10074
 X110.87500 Z12.09423
 X110.93750 Z12.07846
 X110.96875 Z12.06864
 X110.98438 Z12.06302
 X110.99219 Z12.05998
 X111.00000 Z12.05675
 X111.01562 Z12.04962
 X111.02344 Z12.04560
 X111.03125 Z12.04117
 X111.03906 Z12.03618
 X111.04297 Z12.03340
 X111.04492 Z12.03192
 X111.04590 Z12.03115
 X111.04688 Z12.03036
 X111.06250 Z12.01169
 X111.07812 Z2.00000
 X116.81250
 X116.82812 Z12.49167
 X116.83203 Z12.49452
 X116.83594 Z12.49692
 X116.83984 Z12.49900
 X116.84375 Z12.50086
 X116.85938 Z12.50682
 X116.86719 Z12.50921
 X116.87500 Z12.51134
 X117.00000 Z12.52868
 X117.12500 Z12.53610
 X117.50000 Z12.55815
 X117.62500 Z12.56550
 X124.00000 Z12.94037
 X124.12500 Z12.94717
 X124.18750 Z12.94963
 X124.21875 Z12.95033
 X124.23438 Z12.95043
 X124.24219 Z12.95037
 X124.25000 Z12.95020
 X124.25781 Z12.94986
 X124.26562 Z12.94921
 X124.27344 Z12.94726
 X124.27734 Z2.00000
 X129.31250
 X129.32812 Z13.25265
 X129.33594 Z13.25383
 X129.34375 Z13.25455
 X129.37500 Z13.25644
 X134.87500 Z13.57986
 X135.00000 Z13.58720
 X135.12500 Z13.59041
 X135.25000 Z13.58614
 X135.31250 Z13.58099
 X135.37500 Z13.57346
 X135.43750 Z13.56295
 X135.46875 Z13.55623
 X135.48438 Z13.55241
 X135.49219 Z13.55037
 X135.50000 Z13.54822
 X135.53125 Z13.53843
 X135.54688 Z13.53260
 X135.56250 Z13.52588
 X135.57812 Z13.51788
 X135.58594 Z13.51317
 X135.59375 Z13.50772
 X135.60938 Z13.49230
 X135.61719 Z2.00000
 X139.84375
 X139.85938 Z13.80453
 X139.86328 Z13.80858
 X139.86719 Z13.81208
 X139.87109 Z13.81521
 X139.87305 Z13.81667
 X139.87500 Z13.81806
 X139.88281 Z13.82313
 X139.89062 Z13.82758
 X139.90625 Z13.83523
 X139.92188 Z13.84172
 X139.93750 Z13.84737
 X139.96875 Z13.85692
 X140.00000 Z13.86477
 X140.12500 Z13.88568
 X140.25000 Z13.89593
 X145.37500 Z14.19730
 X145.50000 Z14.20424
 X145.62500 Z14.20536
 X145.75000 Z14.19892
 X145.81250 Z14.19250
 X145.84375 Z14.18832
 X145.87500 Z14.18340
 X145.93750 Z14.17076
 X145.96875 Z14.16257
 X145.98438 Z14.15782
 X146.00000 Z14.15252
 X146.01562 Z14.14651
 X146.03125 Z14.13954
 X146.03906 Z14.13556
 X146.04688 Z14.13115
 X146.06250 Z14.12023
 X146.07812 Z14.10163
 X146.08594 Z2.00000
 X152.05469
 X152.05859 Z14.50347
 X152.05957 Z14.50735
 X152.06006 Z14.50875
 X152.06055 Z14.50999
 X152.06152 Z14.51212
 X152.06201 Z14.51307
 X152.06226 Z14.51352
 X152.06250 Z14.51396
 X152.06445 Z14.51709
 X152.06641 Z14.51976
 X152.06836 Z14.52212
 X152.07031 Z14.52425
 X152.07422 Z14.52805
 X152.07812 Z14.53138
 X152.08594 Z14.53713
 X152.08984 Z14.53967
 X152.09375 Z14.54205
 X152.10938 Z14.55032
 X152.11719 Z14.55390
 X152.12500 Z14.55721
 X152.15625 Z14.56843
 X152.18750 Z14.57740
 X152.25000 Z14.59108
 X152.37500 Z14.60789
 X152.50000 Z14.61627
 X157.62500 Z14.91764
 X157.75000 Z14.92337
 X157.87500 Z14.92208
 X158.00000 Z14.91296
 X158.06250 Z14.90487
 X158.09375 Z14.89970
 X158.10938 Z14.89678
 X158.12500 Z14.89361
 X158.15625 Z14.88639
 X158.17188 Z14.88226
 X158.18750 Z14.87771
 X158.20312 Z14.87264
 X158.21875 Z14.86693
 X158.23438 Z14.86038
 X158.25000 Z14.85263
 X158.25781 Z14.84810
 X158.26172 Z14.84561
 X158.26367 Z14.84430
 X158.26562 Z14.84293
 X158.28125 Z14.82891
 X158.28906 Z14.81566
 X158.29297 Z2.00000
 X164.25000
 X164.28125 Z15.24386
 X164.28516 Z15.24744
 X164.28906 Z15.25062
 X164.29688 Z15.25617
 X164.30469 Z15.26095
 X164.31250 Z15.26520
 X164.32812 Z15.27257
 X164.34375 Z15.27886
 X164.35938 Z15.28437
 X164.37500 Z15.28928
 X164.43750 Z15.30478
 X164.50000 Z15.31578
 X164.62500 Z15.32914
 X164.75000 Z15.33661
 X169.87500 Z15.63798
 X170.00000 Z15.64171
G0 Z25.00000
 Y39.49419
G1 Z15.87556
 X169.87500 Z15.87183
 X164.75000 Z15.57046
 X164.62500 Z15.56299
 X164.56250 Z15.55753
 X164.50000 Z15.54963
 X164.43750 Z15.53862
 X164.40625 Z15.53158
 X164.39062 Z15.52756
 X164.37500 Z15.52313
 X164.34375 Z15.51270
 X164.32812 Z15.50641
 X164.31250 Z15.49905
 X164.29688 Z15.49001
 X164.29297 Z15.48735
 X164.28906 Z15.48447
 X164.28125 Z15.47770
 X164.27344 Z15.46841
 X164.26953 Z15.46100
 X164.26758 Z15.45300
 X164.26660 Z2.00000
 X158.29688
 X158.28906 Z15.04950
 X158.28711 Z15.05407
 X158.28613 Z15.05586
 X158.28516 Z15.05746
 X158.28320 Z15.06029
 X158.28223 Z15.06156
 X158.28174 Z15.06216
 X158.28125 Z15.06275
 X158.27734 Z15.06700
 X158.27344 Z15.07063
 X158.26953 Z15.07386
 X158.26562 Z15.07678
 X158.25781 Z15.08195
 X158.25391 Z15.08428
 X158.25000 Z15.08648
 X158.21875 Z15.10078
 X158.20312 Z15.10649
 X158.18750 Z15.11156
 X158.15625 Z15.12024
 X158.12500 Z15.12745
 X158.00000 Z15.14681
 X157.87500 Z15.15592
 X157.75000 Z15.15722
 X157.62500 Z15.15148
 X152.50000 Z14.85011
 X152.37500 Z14.84174
 X152.31250 Z14.83474
 X152.28125 Z14.83023
 X152.25000 Z14.82493
 X152.21875 Z14.81867
 X152.18750 Z14.81124
 X152.15625 Z14.80227
 X152.14062 Z14.79702
 X152.12500 Z14.79106
 X152.10938 Z14.78417
 X152.10156 Z14.78025
 X152.09375 Z14.77590
 X152.08594 Z14.77097
 X152.08203 Z14.76823
 X152.08008 Z14.76676
 X152.07910 Z14.76600
 X152.07812 Z14.76523
 X152.06250 Z14.74780
 X152.04688 Z2.00000
 X146.09375
 X146.07812 Z14.33548
 X146.07617 Z14.33901
 X146.07422 Z14.34191
 X146.07227 Z14.34442
 X146.07031 Z14.34668
 X146.06641 Z14.35063
 X146.06445 Z14.35241
 X146.06250 Z14.35408
 X146.04688 Z14.36499
 X146.03906 Z14.36941
 X146.03125 Z14.37339
 X146.01562 Z14.38036
 X146.00000 Z14.38637
 X145.93750 Z14.40461
 X145.87500 Z14.41725
 X145.75000 Z14.43277
 X145.62500 Z14.43921
 X145.50000 Z14.43809
 X145.37500 Z14.43114
 X140.25000 Z14.12977
 X140.12500 Z14.11952
 X140.06250 Z14.11077
 X140.03125 Z14.10520
 X140.01562 Z14.10204
 X140.00000 Z14.09861
 X139.96875 Z14.09077
 X139.95312 Z14.08625
 X139.94531 Z14.08380
 X139.93750 Z14.08122
 X139.92188 Z14.07556
 X139.91406 Z14.07244
 X139.90625 Z14.06908
 X139.89844 Z14.06543
 X139.89062 Z14.06143
 X139.87500 Z14.05190
 X139.85938 Z14.03838
 X139.85156 Z14.02662
 X139.84766 Z2.00000
 X135.62500
 X135.59375 Z13.74157
 X135.58594 Z13.74701
 X135.57812 Z13.75173
 X135.57031 Z13.75592
 X135.56250 Z13.75973
 X135.53125 Z13.77227
 X135.50000 Z13.78207
 X135.43750 Z13.79679
 X135.37500 Z13.80730
 X135.25000 Z13.81999
 X135.12500 Z13.82426
 X135.00000 Z13.82105
 X134.87500 Z13.81371
 X127.37500 Z13.37268
 X127.25000 Z13.36533
 X117.62500 Z12.79935
 X117.50000 Z12.79200
 X116.62500 Z12.74054
 X116.50000 Z12.73309
 X116.43750 Z12.72693
 X116.40625 Z12.72207
 X116.39062 Z12.71896
 X116.38281 Z12.71717
 X116.37500 Z12.71519
 X116.36719 Z12.71297
 X116.35938 Z12.71046
 X116.35156 Z12.70756
 X116.34766 Z12.70592
 X116.34570 Z12.70504
 X116.34375 Z12.70411
 X116.32812 Z12.69367
 X116.32031 Z2.00000
 X110.81641
 X110.81445 Z12.22974
 X110.81348 Z12.23194
 X110.81299 Z12.23290
 X110.81274 Z12.23335
 X110.81250 Z12.23379
 X110.81055 Z12.23687
 X110.80859 Z12.23947
 X110.80664 Z12.24176
 X110.80469 Z12.24383
 X110.80078 Z12.24752
 X110.79688 Z12.25076
 X110.78906 Z12.25639
 X110.78125 Z12.26126
 X110.76562 Z12.26956
 X110.75000 Z12.27660
 X110.68750 Z12.29811
 X110.62500 Z12.31378
 X110.50000 Z12.33576
 X110.37500 Z12.34944
 X110.25000 Z12.35652
 X110.12500 Z12.35710
 X110.00000 Z12.35097
 X106.50000 Z12.14516
 X106.37500 Z12.13781
 X96.62500 Z11.56447
 X96.50000 Z11.55712
 X95.62500 Z11.50567
 X95.56250 Z11.50179
 X95.53125 Z11.49898
 X95.51562 Z11.49722
 X95.50781 Z11.49623
 X95.50000 Z11.49516
 X95.46875 Z11.48992
 X95.45312 Z11.48653
 X95.44531 Z11.48457
 X95.43750 Z11.48237
 X95.42188 Z11.47701
 X95.41406 Z11.47361
 X95.40625 Z11.46936
 X95.39844 Z11.46343
 X95.39453 Z11.45884
 X95.39258 Z11.45507
 X95.39160 Z11.45067
 X95.39111 Z2.00000
 X84.34375
 X84.32812 Z10.75092
 X84.32422 Z10.75468
 X84.32031 Z10.75791
 X84.31641 Z10.76076
 X84.31445 Z10.76208
 X84.31250 Z10.76334
 X84.29688 Z10.77180
 X84.28906 Z10.77527
 X84.28125 Z10.77840
 X84.26562 Z10.78383
 X84.25000 Z10.78844
 X84.18750 Z10.80166
 X84.12500 Z10.80967
 X84.00000 Z10.81643
 X83.87500 Z10.81451
 X83.75000 Z10.80738
 X70.37500 Z10.02088
 X70.31250 Z10.01695
 X70.28125 Z10.01414
 X70.26562 Z10.01243
 X70.25000 Z10.01048
 X70.21875 Z10.00572
 X70.20312 Z10.00281
 X70.19531 Z10.00118
 X70.18750 Z9.99943
 X70.17188 Z9.99547
 X70.16406 Z9.99321
 X70.15625 Z9.99072
 X70.14844 Z9.98793
 X70.14062 Z9.98478
 X70.13281 Z9.98112
 X70.12500 Z9.97672
 X70.10938 Z9.96202
 X70.10156 Z2.00000
 X30.96875
 X30.96094 Z7.56799
 X30.95898 Z7.57118
 X30.95703 Z7.57388
 X30.95508 Z7.57627
 X30.95410 Z7.57737
 X30.95312 Z7.57842
 X30.94922 Z7.58224
 X30.94531 Z7.58559
 X30.94141 Z7.58861
 X30.93945 Z7.59001
 X30.93750 Z7.59136
 X30.92188 Z7.60066
 X30.90625 Z7.60818
 X30.89062 Z7.61458
 X30.87500 Z7.62017
 X30.81250 Z7.63741
 X30.75000 Z7.64947
 X30.62500 Z7.66425
 X30.50000 Z7.67014
 X30.37500 Z7.66850
 X30.25000 Z7.66140
 X20.00000 Z7.05866
 X19.87500 Z7.05131
 X19.81250 Z7.04646
 X19.75000 Z7.03929
 X19.68750 Z7.02924
 X19.65625 Z7.02284
 X19.64062 Z7.01920
 X19.63281 Z7.01726
 X19.62891 Z7.01626
 X19.62500 Z7.01523
 X19.59375 Z7.00600
 X19.57812 Z7.00056
 X19.57031 Z6.99757
 X19.56641 Z6.99600
 X19.56250 Z6.99437
 X19.54688 Z6.98715
 X19.53906 Z6.98301
 X19.53125 Z6.97836
 X19.52344 Z6.97302
 X19.51562 Z6.96661
 X19.50781 Z6.95814
 X19.50391 Z6.95211
 X19.50195 Z6.94782
 X19.50098 Z6.94478
 X19.50049 Z6.94263
 X19.50024 Z6.94111
 X19.50012 Z6.94003
 X19.50006 Z6.93927
 X19.50003 Z6.93874
 X19.50002 Z6.93835
 X19.50001 Z2.00000
 X5.00000
 Y40.48837
 X19.50000
 X19.50781 Z7.19199
 X19.51172 Z7.19660
 X19.51367 Z7.19860
 X19.51562 Z7.20045
 X19.52344 Z7.20687
 X19.53125 Z7.21221
 X19.54688 Z7.22100
 X19.55469 Z7.22476
 X19.56250 Z7.22822
 X19.59375 Z7.23984
 X19.62500 Z7.24907
 X19.68750 Z7.26309
 X19.75000 Z7.27313
 X19.87500 Z7.28515
 X20.00000 Z7.29251
 X30.25000 Z7.89524
 X30.37500 Z7.90235
 X30.50000 Z7.90399
 X30.62500 Z7.89810
 X30.68750 Z7.89200
 X30.75000 Z7.88332
 X30.81250 Z7.87125
 X30.84375 Z7.86348
 X30.85938 Z7.85900
 X30.86719 Z7.85658
 X30.87500 Z7.85402
 X30.90625 Z7.84203
 X30.92188 Z7.83451
 X30.92969 Z7.83015
 X30.93750 Z7.82521
 X30.94141 Z7.82245
 X30.94531 Z7.81944
 X30.94922 Z7.81609
 X30.95117 Z7.81425
 X30.95215 Z7.81328
 X30.95312 Z7.81227
 X30.96094 Z7.80184
 X30.96484 Z7.79055
 X30.96680 Z2.00000
 X69.74219
 X69.74609 Z10.17086
 X69.74707 Z10.17315
 X69.74756 Z10.17408
 X69.74805 Z10.17493
 X69.74902 Z10.17644
 X69.74951 Z10.17713
 X69.74976 Z10.17746
 X69.75000 Z10.17778
 X69.75195 Z10.18007
 X69.75391 Z10.18205
 X69.75781 Z10.18537
 X69.76172 Z10.18817
 X69.76562 Z10.19061
 X69.77344 Z10.19477
 X69.78125 Z10.19827
 X69.79688 Z10.20401
 X69.81250 Z10.20864
 X69.84375 Z10.21582
 X69.87500 Z10.22117
 X70.00000 Z10.23268
 X84.12500 Z11.06328
 X84.25000 Z11.06835
 X84.37500 Z11.06580
 X84.43750 Z11.06084
 X84.46875 Z11.05714
 X84.48438 Z11.05491
 X84.49219 Z11.05369
 X84.50000 Z11.05239
 X84.53125 Z11.04632
 X84.54688 Z11.04264
 X84.55469 Z11.04060
 X84.56250 Z11.03841
 X84.57812 Z11.03348
 X84.58594 Z11.03069
 X84.58984 Z11.02919
 X84.59375 Z11.02762
 X84.60156 Z11.02420
 X84.60547 Z11.02234
 X84.60938 Z11.02036
 X84.62500 Z11.01067
 X84.64062 Z10.99403
 X84.64844 Z2.00000
 X94.87500
 X94.90625 Z11.67205
 X94.91016 Z11.67458
 X94.91406 Z11.67677
 X94.92188 Z11.68043
 X94.92969 Z11.68348
 X94.93750 Z11.68610
 X94.96875 Z11.69396
 X95.00000 Z11.69936
 X95.12500 Z11.71012
 X96.50000 Z11.79097
 X96.62500 Z11.79832
 X104.37500 Z12.25405
 X104.50000 Z12.26140
 X109.75000 Z12.57012
 X109.87500 Z12.57630
 X110.00000 Z12.57579
 X110.12500 Z12.56879
 X110.25000 Z12.55519
 X110.31250 Z12.54550
 X110.37500 Z12.53333
 X110.43750 Z12.51775
 X110.46875 Z12.50808
 X110.48438 Z12.50257
 X110.50000 Z12.49644
 X110.51562 Z12.48949
 X110.52344 Z12.48560
 X110.53125 Z12.48134
 X110.53906 Z12.47658
 X110.54297 Z12.47395
 X110.54492 Z12.47257
 X110.54590 Z12.47185
 X110.54688 Z12.47111
 X110.56250 Z12.45537
 X110.57812 Z2.00000
 X115.81250
 X115.82812 Z12.89488
 X115.82910 Z12.89616
 X115.83008 Z12.89729
 X115.83203 Z12.89925
 X115.83398 Z12.90093
 X115.83594 Z12.90243
 X115.83984 Z12.90503
 X115.84180 Z12.90618
 X115.84375 Z12.90725
 X115.85156 Z12.91097
 X115.85938 Z12.91405
 X115.86719 Z12.91669
 X115.87500 Z12.91901
 X116.00000 Z12.93750
 X116.12500 Z12.94499
 X117.50000 Z13.02584
 X117.62500 Z13.03319
 X125.25000 Z13.48157
 X125.37500 Z13.48892
 X134.87500 Z14.04755
 X135.00000 Z14.05489
 X135.12500 Z14.05810
 X135.25000 Z14.05384
 X135.31250 Z14.04868
 X135.37500 Z14.04115
 X135.43750 Z14.03064
 X135.46875 Z14.02393
 X135.48438 Z14.02011
 X135.50000 Z14.01591
 X135.53125 Z14.00612
 X135.54688 Z14.00029
 X135.56250 Z13.99357
 X135.57812 Z13.98557
 X135.58594 Z13.98086
 X135.59375 Z13.97542
 X135.60938 Z13.95999
 X135.61719 Z2.00000
 X139.84375
 X139.85938 Z14.27222
 X139.86328 Z14.27627
 X139.86719 Z14.27977
 X139.87109 Z14.28290
 X139.87305 Z14.28436
 X139.87500 Z14.28575
 X139.88281 Z14.29082
 X139.89062 Z14.29527
 X139.90625 Z14.30292
 X139.92188 Z14.30941
 X139.93750 Z14.31507
 X139.96875 Z14.32462
 X140.00000 Z14.33246
 X140.12500 Z14.35337
 X140.25000 Z14.36362
 X145.37500 Z14.66499
 X145.50000 Z14.67194
 X145.62500 Z14.67306
 X145.75000 Z14.66662
 X145.81250 Z14.66019
 X145.84375 Z14.65601
 X145.87500 Z14.65109
 X145.93750 Z14.63845
 X145.96875 Z14.63026
 X145.98438 Z14.62552
 X146.00000 Z14.62021
 X146.01562 Z14.61420
 X146.03125 Z14.60723
 X146.03906 Z14.60326
 X146.04688 Z14.59884
 X146.06250 Z14.58792
 X146.07812 Z14.56933
 X146.08594 Z2.00000
 X152.05469
 X152.05859 Z14.97116
 X152.05957 Z14.97504
 X152.06006 Z14.97645
 X152.06055 Z14.97768
 X152.06152 Z14.97981
 X152.06201 Z14.98076
 X152.06226 Z14.98121
 X152.06250 Z14.98165
 X152.06445 Z14.98478
 X152.06641 Z14.98745
 X152.06836 Z14.98981
 X152.07031 Z14.99195
 X152.07422 Z14.99574
 X152.07812 Z14.99907
 X152.08594 Z15.00482
 X152.08984 Z15.00737
 X152.09375 Z15.00974
 X152.10938 Z15.01801
 X152.11719 Z15.02160
 X152.12500 Z15.02491
 X152.15625 Z15.03612
 X152.18750 Z15.04509
 X152.25000 Z15.05877
 X152.37500 Z15.07559
 X152.50000 Z15.08396
 X157.62500 Z15.38533
 X157.75000 Z15.39106
 X157.87500 Z15.38977
 X158.00000 Z15.38065
 X158.06250 Z15.37256
 X158.09375 Z15.36739
 X158.10938 Z15.36447
 X158.12500 Z15.36130
 X158.15625 Z15.35409
 X158.17188 Z15.34996
 X158.18750 Z15.34540
 X158.20312 Z15.34033
 X158.21875 Z15.33463
 X158.23438 Z15.32807
 X158.25000 Z15.32032
 X158.25781 Z15.31579
 X158.26172 Z15.31330
 X158.26367 Z15.31199
 X158.26562 Z15.31062
 X158.28125 Z15.29660
 X158.28906 Z15.28335
 X158.29297 Z2.00000
 X164.25000
 X164.28125 Z15.71155
 X164.28516 Z15.71513
 X164.28906 Z15.71831
 X164.29688 Z15.72386
 X164.30469 Z15.72864
 X164.31250 Z15.73289
 X164.32812 Z15.74026
 X164.34375 Z15.74655
 X164.35938 Z15.75206
 X164.37500 Z15.75698
 X164.43750 Z15.77247
 X164.50000 Z15.78347
 X164.62500 Z15.79684
 X164.75000 Z15.80430
 X169.87500 Z16.10567
 X170.00000 Z16.10940
G0 Z25.00000
 Y41.48256
G1 Z16.34325
 X169.87500 Z16.33952
 X164.75000 Z16.03815
 X164.62500 Z16.03068
 X164.56250 Z16.02522
 X164.50000 Z16.01732
 X164.43750 Z16.00631
 X164.40625 Z15.99927
 X164.39062 Z15.99525
 X164.37500 Z15.99082
 X164.34375 Z15.98040
 X164.32812 Z15.97411
 X164.31250 Z15.96674
 X164.29688 Z15.95770
 X164.29297 Z15.95505
 X164.28906 Z15.95216
 X164.28125 Z15.94540
 X164.27344 Z15.93611
 X164.26953 Z15.92869
 X164.26758 Z15.92069
 X164.26660 Z2.00000
 X158.29688
 X158.28906 Z15.51720
 X158.28711 Z15.52176
 X158.28613 Z15.52355
 X158.28516 Z15.52515
 X158.28320 Z15.52798
 X158.28223 Z15.52925
 X158.28174 Z15.52986
 X158.28125 Z15.53045
 X158.27734 Z15.53469
 X158.27344 Z15.53833
 X158.26953 Z15.54155
 X158.26562 Z15.54447
 X158.25781 Z15.54964
 X158.25391 Z15.55197
 X158.25000 Z15.55417
 X158.21875 Z15.56847
 X158.20312 Z15.57418
 X158.18750 Z15.57925
 X158.15625 Z15.58793
 X158.12500 Z15.59515
 X158.00000 Z15.61450
 X157.87500 Z15.62362
 X157.75000 Z15.62491
 X157.62500 Z15.61918
 X152.50000 Z15.31781
 X152.37500 Z15.30943
 X152.31250 Z15.30244
 X152.28125 Z15.29793
 X152.25000 Z15.29262
 X152.21875 Z15.28636
 X152.18750 Z15.27894
 X152.15625 Z15.26997
 X152.14062 Z15.26471
 X152.12500 Z15.25875
 X152.10938 Z15.25186
 X152.10156 Z15.24794
 X152.09375 Z15.24359
 X152.08594 Z15.23867
 X152.08203 Z15.23592
 X152.08008 Z15.23445
 X152.07910 Z15.23370
 X152.07812 Z15.23292
 X152.06250 Z15.21550
 X152.04688 Z2.00000
 X146.09375
 X146.07812 Z14.80317
 X146.07617 Z14.80670
 X146.07422 Z14.80960
 X146.07227 Z14.81211
 X146.07031 Z14.81437
 X146.06641 Z14.81832
 X146.06445 Z14.82010
 X146.06250 Z14.82177
 X146.04688 Z14.83268
 X146.03906 Z14.83710
 X146.03125 Z14.84108
 X146.01562 Z14.84805
 X146.00000 Z14.85406
 X145.93750 Z14.87230
 X145.87500 Z14.88494
 X145.75000 Z14.90046
 X145.62500 Z14.90690
 X145.50000 Z14.90578
 X145.37500 Z14.89883
 X140.25000 Z14.59747
 X140.12500 Z14.58722
 X140.06250 Z14.57846
 X140.03125 Z14.57289
 X140.01562 Z14.56974
 X140.00000 Z14.56631
 X139.96875 Z14.55846
 X139.95312 Z14.55394
 X139.94531 Z14.55150
 X139.93750 Z14.54891
 X139.92188 Z14.54325
 X139.91406 Z14.54013
 X139.90625 Z14.53677
 X139.89844 Z14.53312
 X139.89062 Z14.52912
 X139.87500 Z14.51960
 X139.85938 Z14.50607
 X139.85156 Z14.49431
 X139.84766 Z2.00000
 X135.62500
 X135.59375 Z14.20926
 X135.58594 Z14.21470
 X135.57812 Z14.21942
 X135.57031 Z14.22362
 X135.56250 Z14.22742
 X135.53125 Z14.23997
 X135.50000 Z14.24976
 X135.43750 Z14.26448
 X135.37500 Z14.27500
 X135.25000 Z14.28768
 X135.12500 Z14.29195
 X135.00000 Z14.28874
 X134.87500 Z14.28140
 X125.75000 Z13.74482
 X125.62500 Z13.73721
 X125.50000 Z13.72733
 X125.37500 Z13.71548
 X125.25000 Z13.70212
 X125.12500 Z13.68750
 X125.00000 Z13.67177
 X124.87500 Z13.65502
 X124.75000 Z13.63728
 X124.62500 Z13.61854
 X124.50000 Z13.59876
 X124.43750 Z13.58845
 X124.40625 Z13.58319
 X124.39844 Z13.58186
 X124.39453 Z13.58119
 X124.39258 Z13.58086
 X124.39062 Z13.58052
 X124.37500 Z13.57969
 X124.25000 Z13.58514
 X124.12500 Z13.59023
 X124.00000 Z13.59493
 X123.87500 Z13.59919
 X123.75000 Z13.60289
 X123.62500 Z13.60582
 X123.50000 Z13.60746
 X123.37500 Z13.60516
 X117.62500 Z13.26704
 X117.50000 Z13.25969
 X115.56250 Z13.14576
 X115.50000 Z13.14190
 X115.46875 Z13.13913
 X115.43750 Z13.13537
 X115.40625 Z13.13021
 X115.39062 Z13.12688
 X115.38281 Z13.12495
 X115.37500 Z13.12280
 X115.36719 Z13.12037
 X115.36328 Z13.11903
 X115.35938 Z13.11758
 X115.35156 Z13.11429
 X115.34766 Z13.11239
 X115.34570 Z13.11135
 X115.34473 Z13.11080
 X115.34424 Z13.11052
 X115.34375 Z13.11024
 X115.32812 Z13.09352
 X115.32031 Z2.00000
 X110.32031
 X110.31641 Z12.67036
 X110.31543 Z12.67221
 X110.31445 Z12.67383
 X110.31348 Z12.67530
 X110.31299 Z12.67599
 X110.31250 Z12.67665
 X110.30859 Z12.68126
 X110.30664 Z12.68325
 X110.30469 Z12.68508
 X110.29688 Z12.69143
 X110.28906 Z12.69674
 X110.28125 Z12.70139
 X110.26562 Z12.70941
 X110.25000 Z12.71627
 X110.18750 Z12.73740
 X110.12500 Z12.75288
 X110.00000 Z12.77462
 X109.87500 Z12.78814
 X109.75000 Z12.79507
 X109.62500 Z12.79550
 X109.50000 Z12.78926
 X104.50000 Z12.49524
 X104.37500 Z12.48704
 X104.25000 Z12.47582
 X104.12500 Z12.46217
 X104.00000 Z12.44651
 X103.87500 Z12.42904
 X103.75000 Z12.40984
 X103.62500 Z12.38887
 X103.50000 Z12.36598
 X103.46875 Z12.35993
 X103.45312 Z12.35685
 X103.44531 Z12.35529
 X103.44141 Z12.35451
 X103.43750 Z12.35373
 X103.37500 Z12.35200
 X103.25000 Z12.35725
 X103.12500 Z12.36214
 X103.00000 Z12.36660
 X102.87500 Z12.37056
 X102.75000 Z12.37387
 X102.62500 Z12.37619
 X102.50000 Z12.37643
 X102.37500 Z12.37029
 X96.62500 Z12.03217
 X96.50000 Z12.02482
 X94.62500 Z11.91456
 X94.56250 Z11.91056
 X94.53125 Z11.90758
 X94.51562 Z11.90572
 X94.50781 Z11.90467
 X94.50000 Z11.90354
 X94.46875 Z11.89797
 X94.45312 Z11.89432
 X94.44531 Z11.89219
 X94.43750 Z11.88978
 X94.42969 Z11.88702
 X94.42188 Z11.88377
 X94.41797 Z11.88190
 X94.41602 Z11.88088
 X94.41406 Z11.87979
 X94.40625 Z11.87444
 X94.39844 Z11.86442
 X94.39453 Z2.00000
 X84.95312
 X84.94531 Z11.24785
 X84.94336 Z11.25060
 X84.94141 Z11.25297
 X84.93945 Z11.25508
 X84.93848 Z11.25606
 X84.93750 Z11.25700
 X84.93359 Z11.26041
 X84.92969 Z11.26339
 X84.92188 Z11.26850
 X84.91406 Z11.27282
 X84.90625 Z11.27659
 X84.89062 Z11.28298
 X84.87500 Z11.28826
 X84.84375 Z11.29666
 X84.81250 Z11.30307
 X84.75000 Z11.31197
 X84.62500 Z11.31985
 X84.50000 Z11.31873
 X84.37500 Z11.31182
 X69.62500 Z10.44447
 X69.56250 Z10.43975
 X69.53125 Z10.43622
 X69.51562 Z10.43408
 X69.50781 Z10.43289
 X69.50000 Z10.43163
 X69.46875 Z10.42559
 X69.45312 Z10.42180
 X69.44531 Z10.41965
 X69.43750 Z10.41729
 X69.42188 Z10.41174
 X69.41406 Z10.40838
 X69.40625 Z10.40442
 X69.39062 Z10.39287
 X69.38281 Z2.00000
 X45.50195
 X45.50098 Z8.99178
 X45.50073 Z8.99234
 X45.50049 Z8.99281
 X45.50024 Z8.99323
 X45.50012 Z8.99342
 X45.50000 Z8.99361
 X45.49805 Z8.99584
 X45.49707 Z8.99667
 X45.49658 Z8.99705
 X45.49609 Z8.99741
 X45.49414 Z8.99867
 X45.49219 Z8.99973
 X45.48828 Z9.00147
 X45.48438 Z9.00288
 X45.46875 Z9.00681
 X45.45312 Z9.00928
 X45.43750 Z9.01098
 X45.37500 Z9.01378
 X45.25000 Z9.01095
 X45.12500 Z9.00379
 X44.50000 Z8.96704
 X44.37500 Z8.95969
 X43.62500 Z8.91559
 X43.50000 Z8.90824
 X30.37500 Z8.13644
 X30.25000 Z8.12909
 X20.00000 Z7.52635
 X19.87500 Z7.51900
 X19.81250 Z7.51415
 X19.75000 Z7.50698
 X19.68750 Z7.49694
 X19.65625 Z7.49053
 X19.64062 Z7.48690
 X19.63281 Z7.48495
 X19.62891 Z7.48395
 X19.62500 Z7.48292
 X19.59375 Z7.47369
 X19.57812 Z7.46825
 X19.57031 Z7.46527
 X19.56250 Z7.46206
 X19.54688 Z7.45485
 X19.53906 Z7.45070
 X19.53125 Z7.44605
 X19.52344 Z7.44071
 X19.51562 Z7.43430
 X19.50781 Z7.42584
 X19.50391 Z7.41980
 X19.50195 Z7.41551
 X19.50098 Z7.41248
 X19.50049 Z7.41032
 X19.50024 Z7.40880
 X19.50012 Z7.40773
 X19.50006 Z7.40697
 X19.50003 Z7.40643
 X19.50002 Z7.40605
 X19.50001 Z2.00000
 X5.00000
 Y42.47674
 X19.50000
 X19.50781 Z7.65968
 X19.51172 Z7.66429
 X19.51367 Z7.66629
 X19.51562 Z7.66815
 X19.52344 Z7.67456
 X19.53125 Z7.67990
 X19.54688 Z7.68869
 X19.55469 Z7.69245
 X19.56250 Z7.69591
 X19.59375 Z7.70753
 X19.62500 Z7.71676
 X19.68750 Z7.73078
 X19.75000 Z7.74083
 X19.87500 Z7.75285
 X20.00000 Z7.76020
 X30.25000 Z8.36294
 X30.37500 Z8.37028
 X42.12500 Z9.06123
 X42.25000 Z9.06858
 X44.62500 Z9.20824
 X44.75000 Z9.21558
 X46.75000 Z9.33319
 X46.87500 Z9.33979
 X46.93750 Z9.34122
 X46.96875 Z9.34113
 X46.98438 Z9.34079
 X46.99219 Z9.34054
 X46.99609 Z9.34039
 X47.00000 Z9.34022
 X47.03125 Z9.33808
 X47.04688 Z9.33626
 X47.05469 Z9.33506
 X47.06250 Z9.33357
 X47.07031 Z9.33170
 X47.07422 Z9.33054
 X47.07617 Z9.32990
 X47.07812 Z9.32919
 X47.08594 Z9.32537
 X47.08984 Z9.32209
 X47.09180 Z9.31883
 X47.09277 Z2.00000
 X69.00000
 X69.03125 Z10.60758
 X69.03516 Z10.61085
 X69.03906 Z10.61360
 X69.04297 Z10.61601
 X69.04688 Z10.61817
 X69.05469 Z10.62194
 X69.06250 Z10.62517
 X69.09375 Z10.63495
 X69.12500 Z10.64182
 X69.25000 Z10.65626
 X69.37500 Z10.66362
 X84.75000 Z11.56772
 X84.87500 Z11.57214
 X84.93750 Z11.57152
 X85.00000 Z11.56866
 X85.06250 Z11.56306
 X85.09375 Z11.55894
 X85.10938 Z11.55647
 X85.11719 Z11.55512
 X85.12109 Z11.55441
 X85.12500 Z11.55368
 X85.15625 Z11.54691
 X85.17188 Z11.54278
 X85.17969 Z11.54047
 X85.18359 Z11.53925
 X85.18555 Z11.53862
 X85.18750 Z11.53797
 X85.20312 Z11.53227
 X85.21094 Z11.52897
 X85.21484 Z11.52718
 X85.21680 Z11.52624
 X85.21875 Z11.52528
 X85.22656 Z11.52105
 X85.23047 Z11.51868
 X85.23242 Z11.51742
 X85.23340 Z11.51676
 X85.23438 Z11.51609
 X85.25000 Z11.50145
 X85.25781 Z2.00000
 X93.87500
 X93.90625 Z12.07638
 X93.91016 Z12.07986
 X93.91211 Z12.08131
 X93.91406 Z12.08263
 X93.91797 Z12.08497
 X93.92188 Z12.08701
 X93.92969 Z12.09049
 X93.93750 Z12.09341
 X93.96875 Z12.10196
 X94.00000 Z12.10771
 X94.12500 Z12.11900
 X96.50000 Z12.25866
 X96.62500 Z12.26601
 X100.37500 Z12.48653
 X100.50000 Z12.49314
 X100.62500 Z12.49325
 X100.75000 Z12.49106
 X100.87500 Z12.48783
 X101.00000 Z12.48391
 X101.12500 Z12.47949
 X101.25000 Z12.47465
 X101.37500 Z12.46943
 X101.50000 Z12.46387
 X101.62500 Z12.45798
 X101.75000 Z12.45175
 X101.87500 Z12.44519
 X102.00000 Z12.43824
 X102.12500 Z12.43087
 X102.25000 Z12.42298
 X102.37500 Z12.41440
 X102.50000 Z12.40473
 X102.56250 Z12.39918
 X102.59375 Z12.39606
 X102.60938 Z12.39437
 X102.61719 Z12.39348
 X102.62500 Z12.39255
 X102.65625 Z12.38816
 X102.66406 Z12.38671
 X102.67188 Z12.38478
 X102.67969 Z2.00000
 X104.43750
 X104.45312 Z12.53888
 X104.46094 Z12.54423
 X104.46875 Z12.54877
 X104.48438 Z12.55656
 X104.50000 Z12.56335
 X104.62500 Z12.60448
 X104.75000 Z12.63647
 X104.87500 Z12.66423
 X105.00000 Z12.68918
 X105.12500 Z12.71193
 X105.25000 Z12.73277
 X105.37500 Z12.75185
 X105.50000 Z12.76920
 X105.62500 Z12.78472
 X105.75000 Z12.79822
 X105.87500 Z12.80926
 X106.00000 Z12.81729
 X109.25000 Z13.00841
 X109.37500 Z13.01469
 X109.50000 Z13.01434
 X109.62500 Z13.00749
 X109.75000 Z12.99405
 X109.81250 Z12.98446
 X109.87500 Z12.97242
 X109.93750 Z12.95704
 X109.96875 Z12.94752
 X109.98438 Z12.94210
 X110.00000 Z12.93609
 X110.01562 Z12.92932
 X110.03125 Z12.92143
 X110.03906 Z12.91688
 X110.04297 Z12.91439
 X110.04492 Z12.91308
 X110.04688 Z12.91171
 X110.06250 Z12.89772
 X110.07812 Z2.00000
 X114.82812
 X114.83594 Z13.30657
 X114.83789 Z13.30852
 X114.83984 Z13.31020
 X114.84180 Z13.31170
 X114.84277 Z13.31239
 X114.84375 Z13.31305
 X114.85156 Z13.31751
 X114.85547 Z13.31936
 X114.85938 Z13.32104
 X114.86719 Z13.32400
 X114.87500 Z13.32655
 X114.90625 Z13.33425
 X114.93750 Z13.33957
 X115.00000 Z13.34629
 X115.12500 Z13.35388
 X117.50000 Z13.49354
 X117.62500 Z13.50088
 X121.37500 Z13.72140
 X121.50000 Z13.72443
 X121.62500 Z13.72296
 X121.75000 Z13.72012
 X121.87500 Z13.71648
 X122.00000 Z13.71227
 X122.12500 Z13.70760
 X122.25000 Z13.70255
 X122.37500 Z13.69714
 X122.50000 Z13.69139
 X122.62500 Z13.68531
 X122.75000 Z13.67890
 X122.87500 Z13.67213
 X123.00000 Z13.66496
 X123.12500 Z13.65731
 X123.25000 Z13.64906
 X123.37500 Z13.63995
 X123.43750 Z13.63489
 X123.46875 Z13.63216
 X123.48438 Z13.63073
 X123.49219 Z13.63000
 X123.50000 Z13.62925
 X123.53125 Z13.62606
 X123.54688 Z13.62431
 X123.55469 Z13.62338
 X123.56250 Z13.62241
 X123.57812 Z13.62025
 X123.58594 Z13.61902
 X123.59375 Z13.61759
 X123.60156 Z13.61572
 X123.60547 Z13.61417
 X123.60742 Z2.00000
 X125.68750
 X125.70312 Z13.77217
 X125.70703 Z13.77488
 X125.71094 Z13.77722
 X125.71875 Z13.78130
 X125.75000 Z13.79409
 X125.87500 Z13.83032
 X126.00000 Z13.85921
 X126.12500 Z13.88490
 X126.25000 Z13.90853
 X126.37500 Z13.93061
 X126.50000 Z13.95141
 X126.62500 Z13.97109
 X126.75000 Z13.98974
 X126.87500 Z14.00739
 X127.00000 Z14.02405
 X127.12500 Z14.03968
 X127.25000 Z14.05418
 X127.37500 Z14.06742
 X127.50000 Z14.07912
 X127.62500 Z14.08876
 X127.75000 Z14.09627
 X134.87500 Z14.51524
 X135.00000 Z14.52259
 X135.12500 Z14.52579
 X135.25000 Z14.52153
 X135.31250 Z14.51638
 X135.37500 Z14.50884
 X135.43750 Z14.49833
 X135.46875 Z14.49162
 X135.48438 Z14.48780
 X135.50000 Z14.48360
 X135.53125 Z14.47381
 X135.54688 Z14.46798
 X135.56250 Z14.46126
 X135.57812 Z14.45326
 X135.58594 Z14.44855
 X135.59375 Z14.44311
 X135.60938 Z14.42768
 X135.61719 Z2.00000
 X139.84375
 X139.85938 Z14.73992
 X139.86328 Z14.74396
 X139.86719 Z14.74747
 X139.87109 Z14.75060
 X139.87305 Z14.75205
 X139.87500 Z14.75344
 X139.88281 Z14.75851
 X139.89062 Z14.76297
 X139.90625 Z14.77062
 X139.92188 Z14.77710
 X139.93750 Z14.78276
 X139.96875 Z14.79231
 X140.00000 Z14.80015
 X140.12500 Z14.82106
 X140.25000 Z14.83131
 X145.37500 Z15.13268
 X145.50000 Z15.13963
 X145.62500 Z15.14075
 X145.75000 Z15.13431
 X145.81250 Z15.12788
 X145.84375 Z15.12371
 X145.87500 Z15.11878
 X145.93750 Z15.10615
 X145.96875 Z15.09795
 X145.98438 Z15.09321
 X146.00000 Z15.08791
 X146.01562 Z15.08189
 X146.03125 Z15.07492
 X146.03906 Z15.07095
 X146.04688 Z15.06653
 X146.06250 Z15.05562
 X146.07812 Z15.03702
 X146.08594 Z2.00000
 X152.05469
 X152.05859 Z15.43886
 X152.05957 Z15.44274
 X152.06006 Z15.44414
 X152.06055 Z15.44537
 X152.06152 Z15.44750
 X152.06201 Z15.44845
 X152.06226 Z15.44890
 X152.06250 Z15.44934
 X152.06445 Z15.45248
 X152.06641 Z15.45514
 X152.06836 Z15.45750
 X152.07031 Z15.45964
 X152.07422 Z15.46343
 X152.07812 Z15.46676
 X152.08594 Z15.47251
 X152.08984 Z15.47506
 X152.09375 Z15.47743
 X152.10938 Z15.48570
 X152.11719 Z15.48929
 X152.12500 Z15.49260
 X152.15625 Z15.50381
 X152.18750 Z15.51278
 X152.25000 Z15.52646
 X152.37500 Z15.54328
 X152.50000 Z15.55165
 X157.62500 Z15.85302
 X157.75000 Z15.85876
 X157.87500 Z15.85746
 X158.00000 Z15.84835
 X158.06250 Z15.84025
 X158.09375 Z15.83508
 X158.10938 Z15.83216
 X158.12500 Z15.82899
 X158.15625 Z15.82178
 X158.17188 Z15.81765
 X158.18750 Z15.81309
 X158.20312 Z15.80803
 X158.21875 Z15.80232
 X158.23438 Z15.79577
 X158.25000 Z15.78801
 X158.25781 Z15.78349
 X158.26172 Z15.78100
 X158.26367 Z15.77968
 X158.26562 Z15.77831
 X158.28125 Z15.76429
 X158.28906 Z15.75104
 X158.29297 Z2.00000
 X164.25000
 X164.28125 Z16.17924
 X164.28516 Z16.18282
 X164.28906 Z16.18600
 X164.29688 Z16.19155
 X164.30469 Z16.19634
 X164.31250 Z16.20059
 X164.32812 Z16.20795
 X164.34375 Z16.21424
 X164.35938 Z16.21976
 X164.37500 Z16.22467
 X164.43750 Z16.24016
 X164.50000 Z16.25116
 X164.62500 Z16.26453
 X164.75000 Z16.27200
 X169.87500 Z16.57336
 X170.00000 Z16.57709
G0 Z25.00000
 Y43.47093
G1 Z16.81094
 X169.87500 Z16.80721
 X164.75000 Z16.50584
 X164.62500 Z16.49837
 X164.56250 Z16.49291
 X164.50000 Z16.48501
 X164.43750 Z16.47401
 X164.40625 Z16.46697
 X164.39062 Z16.46294
 X164.37500 Z16.45852
 X164.34375 Z16.44809
 X164.32812 Z16.44180
 X164.31250 Z16.43443
 X164.29688 Z16.42540
 X164.29297 Z16.42274
 X164.28906 Z16.41985
 X164.28125 Z16.41309
 X164.27344 Z16.40380
 X164.26953 Z16.39638
 X164.26758 Z16.38839
 X164.26660 Z2.00000
 X158.29688
 X158.28906 Z15.98489
 X158.28711 Z15.98945
 X158.28613 Z15.99124
 X158.28516 Z15.99285
 X158.28320 Z15.99567
 X158.28223 Z15.99694
 X158.28174 Z15.99755
 X158.28125 Z15.99814
 X158.27734 Z16.00238
 X158.27344 Z16.00602
 X158.26953 Z16.00924
 X158.26562 Z16.01216
 X158.25781 Z16.01733
 X158.25391 Z16.01966
 X158.25000 Z16.02186
 X158.21875 Z16.03616
 X158.20312 Z16.04187
 X158.18750 Z16.04694
 X158.15625 Z16.05562
 X158.12500 Z16.06284
 X158.00000 Z16.08219
 X157.87500 Z16.09131
 X157.75000 Z16.09260
 X157.62500 Z16.08687
 X152.50000 Z15.78550
 X152.37500 Z15.77713
 X152.31250 Z15.77013
 X152.28125 Z15.76562
 X152.25000 Z15.76031
 X152.21875 Z15.75406
 X152.18750 Z15.74663
 X152.15625 Z15.73766
 X152.14062 Z15.73240
 X152.12500 Z15.72644
 X152.10938 Z15.71955
 X152.10156 Z15.71563
 X152.09375 Z15.71128
 X152.08594 Z15.70636
 X152.08203 Z15.70361
 X152.08008 Z15.70215
 X152.07910 Z15.70139
 X152.07812 Z15.70061
 X152.06250 Z15.68319
 X152.04688 Z2.00000
 X146.09375
 X146.07812 Z15.27086
 X146.07617 Z15.27439
 X146.07422 Z15.27729
 X146.07227 Z15.27981
 X146.07031 Z15.28206
 X146.06641 Z15.28602
 X146.06445 Z15.28779
 X146.06250 Z15.28946
 X146.04688 Z15.30038
 X146.03906 Z15.30480
 X146.03125 Z15.30877
 X146.01562 Z15.31574
 X146.00000 Z15.32175
 X145.93750 Z15.33999
 X145.87500 Z15.35263
 X145.75000 Z15.36815
 X145.62500 Z15.37459
 X145.50000 Z15.37347
 X145.37500 Z15.36653
 X140.25000 Z15.06516
 X140.12500 Z15.05491
 X140.06250 Z15.04616
 X140.03125 Z15.04058
 X140.01562 Z15.03743
 X140.00000 Z15.03400
 X139.96875 Z15.02616
 X139.95312 Z15.02163
 X139.94531 Z15.01919
 X139.93750 Z15.01661
 X139.92188 Z15.01095
 X139.91406 Z15.00782
 X139.90625 Z15.00446
 X139.89844 Z15.00081
 X139.89062 Z14.99681
 X139.87500 Z14.98729
 X139.85938 Z14.97376
 X139.85156 Z14.96201
 X139.84766 Z2.00000
 X135.62500
 X135.59375 Z14.67696
 X135.58594 Z14.68240
 X135.57812 Z14.68711
 X135.57031 Z14.69131
 X135.56250 Z14.69511
 X135.53125 Z14.70766
 X135.50000 Z14.71745
 X135.43750 Z14.73218
 X135.37500 Z14.74269
 X135.25000 Z14.75537
 X135.12500 Z14.75964
 X135.00000 Z14.75643
 X134.87500 Z14.74909
 X129.75000 Z14.44772
 X129.62500 Z14.44030
 X129.50000 Z14.43088
 X129.37500 Z14.41935
 X129.25000 Z14.40624
 X129.12500 Z14.39184
 X129.00000 Z14.37632
 X128.87500 Z14.35975
 X128.75000 Z14.34219
 X128.62500 Z14.32364
 X128.50000 Z14.30406
 X128.37500 Z14.28336
 X128.25000 Z14.26141
 X128.12500 Z14.23795
 X128.00000 Z14.21248
 X127.87500 Z14.18397
 X127.81250 Z14.16776
 X127.78125 Z14.15880
 X127.76562 Z14.15400
 X127.75000 Z14.14890
 X127.71875 Z14.13728
 X127.71094 Z14.13387
 X127.70703 Z14.13202
 X127.70508 Z14.13106
 X127.70312 Z14.13006
 X127.68750 Z14.11941
 X127.67188 Z2.00000
 X121.62500
 X121.61719 Z13.73103
 X121.61670 Z13.73132
 X121.61621 Z13.73156
 X121.61523 Z13.73196
 X121.61426 Z13.73231
 X121.61328 Z13.73261
 X121.60938 Z13.73364
 X121.59375 Z13.73656
 X121.57812 Z13.73881
 X121.56250 Z13.74077
 X121.50000 Z13.74728
 X121.37500 Z13.75777
 X121.25000 Z13.76678
 X121.12500 Z13.77497
 X121.00000 Z13.78256
 X120.87500 Z13.78970
 X120.75000 Z13.79644
 X120.62500 Z13.80282
 X120.50000 Z13.80886
 X120.37500 Z13.81458
 X120.25000 Z13.81996
 X120.12500 Z13.82498
 X120.00000 Z13.82961
 X119.87500 Z13.83377
 X119.75000 Z13.83735
 X119.62500 Z13.84010
 X119.50000 Z13.84137
 X119.37500 Z13.83764
 X117.62500 Z13.73473
 X117.50000 Z13.72738
 X114.53125 Z13.55281
 X114.50000 Z13.55068
 X114.46875 Z13.54774
 X114.43750 Z13.54376
 X114.40625 Z13.53827
 X114.39062 Z13.53469
 X114.38281 Z13.53260
 X114.37500 Z13.53025
 X114.36719 Z13.52757
 X114.36328 Z13.52606
 X114.36133 Z13.52526
 X114.35938 Z13.52442
 X114.34375 Z13.51560
 X114.33594 Z13.50735
 X114.33203 Z2.00000
 X109.82812
 X109.82031 Z13.10654
 X109.81836 Z13.11063
 X109.81738 Z13.11226
 X109.81641 Z13.11373
 X109.81445 Z13.11634
 X109.81348 Z13.11752
 X109.81250 Z13.11864
 X109.80859 Z13.12262
 X109.80469 Z13.12607
 X109.79688 Z13.13196
 X109.78906 Z13.13700
 X109.78125 Z13.14146
 X109.76562 Z13.14922
 X109.75000 Z13.15591
 X109.68750 Z13.17668
 X109.62500 Z13.19197
 X109.50000 Z13.21348
 X109.37500 Z13.22683
 X109.25000 Z13.23362
 X109.12500 Z13.23388
 X109.00000 Z13.22755
 X107.50000 Z13.13935
 X107.37500 Z13.13145
 X107.25000 Z13.12062
 X107.12500 Z13.10727
 X107.00000 Z13.09188
 X106.87500 Z13.07466
 X106.75000 Z13.05570
 X106.62500 Z13.03498
 X106.50000 Z13.01238
 X106.37500 Z12.98760
 X106.25000 Z12.96006
 X106.12500 Z12.92845
 X106.06250 Z12.91010
 X106.03125 Z12.89984
 X106.01562 Z12.89430
 X106.00000 Z12.88839
 X105.96875 Z12.87481
 X105.96094 Z12.87080
 X105.95703 Z12.86863
 X105.95508 Z12.86750
 X105.95312 Z12.86633
 X105.93750 Z12.85414
 X105.92188 Z2.00000
 X100.68799
 X100.68774 Z12.49947
 X100.68762 Z12.49968
 X100.68750 Z12.49982
 X100.62500 Z12.51084
 X100.50000 Z12.52262
 X100.37500 Z12.53216
 X100.25000 Z12.54067
 X100.12500 Z12.54850
 X100.00000 Z12.55583
 X99.87500 Z12.56273
 X99.75000 Z12.56927
 X99.62500 Z12.57546
 X99.50000 Z12.58132
 X99.37500 Z12.58685
 X99.25000 Z12.59204
 X99.12500 Z12.59685
 X99.00000 Z12.60123
 X98.87500 Z12.60508
 X98.75000 Z12.60824
 X98.62500 Z12.61030
 X98.50000 Z12.60976
 X98.37500 Z12.60276
 X96.62500 Z12.49986
 X96.50000 Z12.49251
 X93.62500 Z12.32345
 X93.56250 Z12.31930
 X93.53125 Z12.31615
 X93.51562 Z12.31418
 X93.50781 Z12.31307
 X93.50000 Z12.31187
 X93.46875 Z12.30592
 X93.45312 Z12.30199
 X93.44531 Z12.29966
 X93.43750 Z12.29700
 X93.42969 Z12.29389
 X93.42578 Z12.29211
 X93.42188 Z12.29013
 X93.41797 Z12.28788
 X93.41602 Z12.28662
 X93.41504 Z12.28595
 X93.41455 Z12.28560
 X93.41406 Z12.28524
 X93.40625 Z12.27743
 X93.39844 Z2.00000
 X85.56250
 X85.54688 Z11.76285
 X85.54297 Z11.76597
 X85.53906 Z11.76876
 X85.53516 Z11.77128
 X85.53125 Z11.77359
 X85.51562 Z11.78135
 X85.50781 Z11.78459
 X85.50000 Z11.78753
 X85.46875 Z11.79708
 X85.43750 Z11.80423
 X85.37500 Z11.81411
 X85.25000 Z11.82316
 X85.12500 Z11.82287
 X85.00000 Z11.81627
 X69.00000 Z10.87541
 X68.87500 Z10.86794
 X68.81250 Z10.86194
 X68.78125 Z10.85751
 X68.76562 Z10.85481
 X68.75781 Z10.85331
 X68.75000 Z10.85170
 X68.71875 Z10.84379
 X68.70312 Z10.83857
 X68.69531 Z10.83546
 X68.68750 Z10.83186
 X68.67188 Z10.82204
 X68.66406 Z10.81362
 X68.66016 Z2.00000
 X48.68750
 X48.67188 Z9.65531
 X48.66797 Z9.65689
 X48.66406 Z9.65820
 X48.65625 Z9.66028
 X48.64062 Z9.66320
 X48.62500 Z9.66516
 X48.50000 Z9.66819
 X48.37500 Z9.66259
 X45.00000 Z9.46413
 X44.87500 Z9.45678
 X41.00000 Z9.22892
 X40.87500 Z9.22157
 X30.37500 Z8.60413
 X30.25000 Z8.59678
 X20.00000 Z7.99405
 X19.87500 Z7.98669
 X19.81250 Z7.98185
 X19.75000 Z7.97467
 X19.68750 Z7.96463
 X19.65625 Z7.95822
 X19.64062 Z7.95459
 X19.63281 Z7.95265
 X19.62500 Z7.95061
 X19.59375 Z7.94138
 X19.57812 Z7.93594
 X19.57031 Z7.93296
 X19.56250 Z7.92976
 X19.54688 Z7.92254
 X19.53906 Z7.91839
 X19.53125 Z7.91375
 X19.52344 Z7.90841
 X19.51562 Z7.90199
 X19.50781 Z7.89353
 X19.50391 Z7.88749
 X19.50195 Z7.88321
 X19.50098 Z7.88017
 X19.50049 Z7.87802
 X19.50024 Z7.87650
 X19.50012 Z7.87542
 X19.50006 Z7.87466
 X19.50003 Z7.87412
 X19.50002 Z7.87374
 X19.50001 Z2.00000
 X5.00000
 Y44.46512
 X19.50000
 X19.50781 Z8.12738
 X19.51172 Z8.13198
 X19.51367 Z8.13398
 X19.51562 Z8.13584
 X19.52344 Z8.14225
 X19.53125 Z8.14759
 X19.54688 Z8.15638
 X19.55469 Z8.16015
 X19.56250 Z8.16360
 X19.59375 Z8.17523
 X19.62500 Z8.18446
 X19.68750 Z8.19847
 X19.75000 Z8.20852
 X19.87500 Z8.22054
 X20.00000 Z8.22789
 X30.25000 Z8.83063
 X30.37500 Z8.83798
 X39.50000 Z9.37456
 X39.62500 Z9.38191
 X45.12500 Z9.70533
 X45.25000 Z9.71268
 X49.87500 Z9.98465
 X50.00000 Z9.99197
 X50.06250 Z9.99478
 X50.12500 Z9.99603
 X50.15625 Z9.99579
 X50.18750 Z9.99469
 X50.21875 Z9.99221
 X50.23438 Z9.99011
 X50.24219 Z9.98870
 X50.25000 Z9.98692
 X50.25781 Z9.98458
 X50.26172 Z9.98307
 X50.26562 Z9.98117
 X50.27344 Z9.97275
 X50.27734 Z2.00000
 X68.29688
 X68.30469 Z11.02909
 X68.30664 Z11.03124
 X68.30859 Z11.03311
 X68.31055 Z11.03479
 X68.31152 Z11.03557
 X68.31250 Z11.03631
 X68.31641 Z11.03903
 X68.32031 Z11.04141
 X68.32812 Z11.04549
 X68.33594 Z11.04894
 X68.34375 Z11.05195
 X68.35938 Z11.05702
 X68.37500 Z11.06120
 X68.50000 Z11.07950
 X68.62500 Z11.08721
 X85.37500 Z12.07217
 X85.50000 Z12.07584
 X85.56250 Z12.07478
 X85.62500 Z12.07140
 X85.68750 Z12.06511
 X85.71875 Z12.06054
 X85.73438 Z12.05781
 X85.74219 Z12.05630
 X85.75000 Z12.05470
 X85.78125 Z12.04713
 X85.79688 Z12.04244
 X85.80469 Z12.03980
 X85.81250 Z12.03690
 X85.82812 Z12.03015
 X85.83594 Z12.02610
 X85.84375 Z12.02140
 X85.85938 Z12.00818
 X85.86719 Z11.99457
 X85.87109 Z2.00000
 X92.87500
 X92.90625 Z12.47481
 X92.90649 Z12.47611
 X92.90674 Z12.47703
 X92.90723 Z12.47844
 X92.90771 Z12.47955
 X92.90796 Z12.48004
 X92.90820 Z12.48049
 X92.90918 Z12.48208
 X92.91016 Z12.48342
 X92.91113 Z12.48460
 X92.91211 Z12.48565
 X92.91309 Z12.48662
 X92.91406 Z12.48751
 X92.91602 Z12.48913
 X92.91797 Z12.49058
 X92.91992 Z12.49189
 X92.92188 Z12.49310
 X92.92969 Z12.49720
 X92.93359 Z12.49893
 X92.93750 Z12.50052
 X92.95312 Z12.50577
 X92.96875 Z12.50987
 X93.00000 Z12.51602
 X93.12500 Z12.52789
 X96.50000 Z12.72636
 X96.62500 Z12.73370
 X96.75000 Z12.73709
 X96.87500 Z12.73300
 X97.00000 Z12.72054
 X97.12500 Z12.71420
 X97.25000 Z12.70942
 X97.37500 Z12.70427
 X97.50000 Z12.69878
 X97.62500 Z12.69294
 X97.75000 Z12.68678
 X97.87500 Z12.68028
 X98.00000 Z12.67341
 X98.12500 Z12.66613
 X98.25000 Z12.65834
 X98.37500 Z12.64991
 X98.50000 Z12.64049
 X98.56250 Z12.63517
 X98.59375 Z12.63225
 X98.60938 Z12.63070
 X98.61719 Z12.62989
 X98.62500 Z12.62906
 X98.65625 Z12.62539
 X98.67188 Z12.62322
 X98.67969 Z12.62197
 X98.68750 Z12.62052
 X98.70312 Z2.00000
 X107.42188
 X107.42969 Z13.17667
 X107.43359 Z13.18029
 X107.43555 Z13.18185
 X107.43750 Z13.18330
 X107.45312 Z13.19282
 X107.46094 Z13.19680
 X107.46875 Z13.20047
 X107.50000 Z13.21328
 X107.62500 Z13.25238
 X107.75000 Z13.28363
 X107.87500 Z13.31094
 X108.00000 Z13.33556
 X108.12500 Z13.35802
 X108.25000 Z13.37861
 X108.37500 Z13.39745
 X108.50000 Z13.41455
 X108.62500 Z13.42981
 X108.75000 Z13.43590
 X109.21875
 X109.25000 Z13.43291
 X109.31250 Z13.42342
 X109.37500 Z13.41151
 X109.43750 Z13.39631
 X109.46875 Z13.38693
 X109.48438 Z13.38161
 X109.50000 Z13.37572
 X109.51562 Z13.36911
 X109.53125 Z13.36147
 X109.53906 Z13.35709
 X109.54297 Z13.35472
 X109.54688 Z13.35218
 X109.56250 Z13.33943
 X109.57812 Z2.00000
 X113.83594
 X113.83984 Z13.71347
 X113.84082 Z13.71473
 X113.84180 Z13.71585
 X113.84277 Z13.71686
 X113.84326 Z13.71734
 X113.84375 Z13.71779
 X113.84570 Z13.71947
 X113.84766 Z13.72096
 X113.85156 Z13.72354
 X113.85547 Z13.72576
 X113.85938 Z13.72771
 X113.86719 Z13.73107
 X113.87500 Z13.73391
 X113.90625 Z13.74227
 X113.93750 Z13.74794
 X114.00000 Z13.75506
 X114.12500 Z13.76276
 X117.50000 Z13.96123
 X117.62500 Z13.96729
 X117.75000 Z13.96651
 X117.87500 Z13.95799
 X118.00000 Z13.94694
 X118.12500 Z13.94235
 X118.25000 Z13.93736
 X118.37500 Z13.93202
 X118.50000 Z13.92633
 X118.62500 Z13.92032
 X118.75000 Z13.91397
 X118.87500 Z13.90726
 X119.00000 Z13.90017
 X119.12500 Z13.89262
 X119.25000 Z13.88450
 X119.37500 Z13.87558
 X119.50000 Z13.86528
 X119.56250 Z13.85903
 X119.59375 Z13.85519
 X119.60938 Z13.85283
 X119.61719 Z13.85140
 X119.62500 Z13.84951
 X119.63281 Z2.00000
 X129.67188
 X129.67969 Z14.47357
 X129.68359 Z14.47630
 X129.68750 Z14.47866
 X129.71875 Z14.49267
 X129.75000 Z14.50350
 X129.87500 Z14.53757
 X130.00000 Z14.56573
 X130.12500 Z14.59097
 X130.25000 Z14.61428
 X130.37500 Z14.63611
 X130.50000 Z14.65669
 X130.62500 Z14.67618
 X130.75000 Z14.69464
 X130.87500 Z14.71210
 X131.00000 Z14.72858
 X131.12500 Z14.74400
 X131.25000 Z14.75829
 X131.37500 Z14.77222
 X131.50000 Z14.78446
 X131.62500 Z14.79182
 X134.87500 Z14.98294
 X135.00000 Z14.99028
 X135.12500 Z14.99349
 X135.25000 Z14.98922
 X135.31250 Z14.98407
 X135.37500 Z14.97654
 X135.43750 Z14.96602
 X135.46875 Z14.95931
 X135.48438 Z14.95549
 X135.50000 Z14.95130
 X135.53125 Z14.94150
 X135.54688 Z14.93567
 X135.56250 Z14.92896
 X135.57812 Z14.92096
 X135.58594 Z14.91624
 X135.59375 Z14.91080
 X135.60938 Z14.89537
 X135.61719 Z2.00000
 X139.84375
 X139.85938 Z15.20761
 X139.86328 Z15.21165
 X139.86719 Z15.21516
 X139.87109 Z15.21829
 X139.87305 Z15.21974
 X139.87500 Z15.22113
 X139.88281 Z15.22620
 X139.89062 Z15.23066
 X139.90625 Z15.23831
 X139.92188 Z15.24479
 X139.93750 Z15.25045
 X139.96875 Z15.26000
 X140.00000 Z15.26785
 X140.12500 Z15.28875
 X140.25000 Z15.29900
 X145.37500 Z15.60037
 X145.50000 Z15.60732
 X145.62500 Z15.60844
 X145.75000 Z15.60200
 X145.81250 Z15.59557
 X145.84375 Z15.59140
 X145.87500 Z15.58648
 X145.93750 Z15.57384
 X145.96875 Z15.56565
 X145.98438 Z15.56090
 X146.00000 Z15.55560
 X146.01562 Z15.54959
 X146.03125 Z15.54262
 X146.03906 Z15.53864
 X146.04688 Z15.53422
 X146.06250 Z15.52331
 X146.07812 Z15.50471
 X146.08594 Z2.00000
 X152.05469
 X152.05859 Z15.90655
 X152.05957 Z15.91043
 X152.06006 Z15.91183
 X152.06055 Z15.91306
 X152.06152 Z15.91520
 X152.06201 Z15.91615
 X152.06226 Z15.91660
 X152.06250 Z15.91704
 X152.06445 Z15.92017
 X152.06641 Z15.92283
 X152.06836 Z15.92519
 X152.07031 Z15.92733
 X152.07422 Z15.93112
 X152.07812 Z15.93446
 X152.08594 Z15.94021
