G40 (disable tool radius compensation)
G49 (disable tool length compensation)
G80 (cancel modal motion)
G54 (select coordinate system 1)
G90 (disable incremental moves)
G21 (metric)
F1000.00000
S1000.00000
G61 (exact path mode)
;PYCAM_TOOLPATH_SETTINGS: START
;[Bounds]
;maxz = 0.0
;maxx = 100.624
;maxy = 15.0001
;minx = -10.0624
;miny = -0.69076022
;minz = 0.0
;
;[Tool]
;torus_radius = 0.125
;speed = 1000.0
;shape = CylindricalCutter
;tool_radius = 0.5
;
;[Process]
;engrave_offset = 0.0
;step_down = 3.0
;generator = EngraveCutter
;postprocessor = SimpleCutter
;overlap_percent = 0
;milling_style = conventional
;material_allowance = 0.0
;pocketing_type = none
;path_direction = x
;
;PYCAM_TOOLPATH_SETTINGS: END
G0 Z25.00000
M3 (start spindle)
G04 P3 (wait for 3 seconds)
 X16.48000 Y7.39740
G1 Z0.00000
 X16.34560 Y7.20844
 X16.18580 Y7.04465
 X16.00120 Y6.90608
 X15.79140 Y6.79275
 X15.55650 Y6.70464
 X15.29640 Y6.64165
 X15.01130 Y6.60389
 X14.70100 Y6.59131
 X6.46007
 X9.62554 Y13.53930
 X17.52870
 X17.81400 Y13.52530
 X18.06130 Y13.48320
 X18.27030 Y13.41300
 X18.44150 Y13.31480
 X18.57440 Y13.18850
 X18.66940 Y13.03400
 X18.72650 Y12.85150
 X18.74560 Y12.64070
 X18.71260 Y12.34540
 X18.61470 Y12.05930
 X16.48000 Y7.39740
G0 Z25.00000
 X62.63610 Y6.61035
G1 Z0.00000
 X62.36640 Y6.62299
 X62.13830 Y6.66075
 X61.95180 Y6.72368
 X61.80710 Y6.81179
 X61.70370 Y6.92507
 X61.64210 Y7.06342
 X61.62210 Y7.22683
 X61.64360 Y7.41536
 X62.41140 Y9.10058
 X62.57740 Y9.39794
 X62.77630 Y9.63465
 X63.00790 Y9.81033
 X63.27250 Y9.92469
 X63.45860 Y9.96614
 X63.71720 Y9.99544
 X64.04830 Y10.01290
 X64.45210 Y10.01860
 X72.42960
 X70.87510 Y6.61035
 X62.63610
G0 Z25.00000
 X19.34500 Y15.00010
G1 Z0.00000
 X6.81706
 X0.00000 Y0.05642
 X3.37076
 X5.59896 Y4.92513
 X15.56210
 X16.18000 Y4.94769
 X16.76040 Y5.01531
 X17.30350 Y5.12799
 X17.80900 Y5.28564
 X18.27710 Y5.48839
 X18.70760 Y5.73611
 X19.10070 Y6.02886
 X19.45640 Y6.36660
 X22.24680 Y12.47140
 X22.33190 Y12.78530
 X22.36010 Y13.09020
 X22.34350 Y13.31810
 X22.29330 Y13.53370
 X22.21000 Y13.73710
 X22.09320 Y13.92820
 X21.94310 Y14.10690
 X21.75940 Y14.27320
 X21.54240 Y14.42710
 X21.29190 Y14.56870
 X20.84710 Y14.75750
 X20.37430 Y14.89240
 X19.87360 Y14.97320
 X19.34500 Y15.00010
G0 Z25.00000
 X38.07810
G1 Z0.00000
 X34.23890 Y6.57329
 X26.01740
 X25.81100 Y6.60363
 X25.63210 Y6.64806
 X25.48070 Y6.70649
 X25.35690 Y6.77903
 X25.26070 Y6.86561
 X25.19180 Y6.96636
 X25.15060 Y7.08117
 X25.13680 Y7.21007
 X25.14180 Y7.29867
 X25.15630 Y7.37799
 X28.63990 Y15.00010
 X25.26920
 X21.31690 Y6.34858
 X21.30330 Y6.25000
 X21.29890 Y6.14187
 X21.33380 Y5.85667
 X21.43820 Y5.60949
 X21.61220 Y5.40033
 X21.85580 Y5.22922
 X22.16930 Y5.09619
 X22.55220 Y5.00119
 X23.00490 Y4.94417
 X23.52710 Y4.92513
 X33.47120
 X32.59070 Y2.97814
 X32.32330 Y2.63997
 X32.03600 Y2.34685
 X31.72860 Y2.09885
 X31.40140 Y1.89594
 X31.05430 Y1.73817
 X30.68720 Y1.62543
 X30.30030 Y1.55783
 X29.89360 Y1.53526
 X21.39280
 X19.94990 Y0.05642
 X30.28670
 X30.60500 Y0.06581
 X30.93280 Y0.09397
 X31.27000 Y0.14084
 X31.61650 Y0.20644
 X31.97250 Y0.29074
 X32.33780 Y0.39383
 X32.71240 Y0.51562
 X33.09620 Y0.65614
 X33.55610 Y0.84646
 X33.98100 Y1.05263
 X34.37080 Y1.27463
 X34.72540 Y1.51247
 X35.04490 Y1.76606
 X35.32930 Y2.03543
 X35.57870 Y2.32047
 X35.79320 Y2.62115
 X41.42960 Y15.00010
 X38.07810
G0 Z25.00000
 X44.49830 Y6.38596
G1 Z0.00000
 X44.20430 Y6.40061
 X43.94940 Y6.44439
 X43.73390 Y6.51747
 X43.55750 Y6.61974
 X43.42040 Y6.75131
 X43.32250 Y6.91211
 X43.26380 Y7.10221
 X43.24420 Y7.32156
 X43.25350 Y7.44125
 X43.28170 Y7.57482
 X43.32860 Y7.72239
 X43.39440 Y7.88390
 X45.95890 Y13.53930
 X53.93650
 X54.22630 Y13.52530
 X54.47740 Y13.48320
 X54.68970 Y13.41300
 X54.86360 Y13.31480
 X54.99870 Y13.18850
 X55.09540 Y13.03400
 X55.15330 Y12.85150
 X55.17260 Y12.64070
 X55.16330 Y12.51310
 X55.13540 Y12.37370
 X55.08890 Y12.22260
 X55.02370 Y12.05930
 X54.55530 Y11.02990
 X57.92580
 X58.58190 Y12.47140
 X58.66560 Y12.80000
 X58.69350 Y13.10780
 X58.67740 Y13.33560
 X58.62900 Y13.55050
 X58.54860 Y13.75260
 X58.43600 Y13.94170
 X58.29130 Y14.11790
 X58.11430 Y14.28130
 X57.90530 Y14.43150
 X57.66400 Y14.56870
 X57.22930 Y14.75750
 X56.76900 Y14.89240
 X56.28320 Y14.97320
 X55.77210 Y15.00010
 X43.26220
 X39.85440 Y7.50890
 X39.77060 Y7.19575
 X39.74250 Y6.89150
 X39.75890 Y6.65901
 X39.80790 Y6.43869
 X39.88990 Y6.23068
 X40.00440 Y6.03489
 X40.15180 Y5.85140
 X40.33210 Y5.68018
 X40.54530 Y5.52126
 X40.79140 Y5.37457
 X41.22510 Y5.17817
 X41.68500 Y5.03771
 X42.17070 Y4.95329
 X42.68180 Y4.92513
 X55.13530
 X55.80900 Y6.38596
 X44.49830
G0 Z25.00000
 X74.02120 Y15.00010
G1 Z0.00000
 X61.64360
 X60.96850 Y13.51990
 X72.20510
 X72.44880 Y13.50720
 X72.67330 Y13.46900
 X72.87920 Y13.40480
 X73.06630 Y13.31460
 X73.25470 Y13.17870
 X73.38960 Y13.01500
 X73.47060 Y12.82330
 X73.49780 Y12.60370
 X73.46470 Y12.34540
 X73.36680 Y12.05930
 X73.10360 Y11.47910
 X62.61670
 X61.99880 Y11.45220
 X61.43710 Y11.37140
 X60.93150 Y11.23670
 X60.48220 Y11.04820
 X60.08900 Y10.80590
 X59.75190 Y10.50990
 X59.47080 Y10.16000
 X59.24580 Y9.75640
 X57.91630 Y6.81565
 X57.86040 Y6.61963
 X57.84180 Y6.36660
 X57.85110 Y6.19211
 X57.87920 Y6.02886
 X57.92610 Y5.87690
 X57.99170 Y5.73611
 X58.07580 Y5.60661
 X58.17890 Y5.48839
 X58.30070 Y5.38140
 X58.44110 Y5.28564
 X58.60030 Y5.20117
 X58.77820 Y5.12799
 X58.97470 Y5.06597
 X59.19000 Y5.01531
 X59.42400 Y4.97586
 X59.67670 Y4.94769
 X59.94820 Y4.93078
 X60.23820 Y4.92513
 X73.46030
 X76.86860 Y12.41600
 X76.95190 Y12.74380
 X76.98000 Y13.05280
 X76.96360 Y13.28520
 X76.91460 Y13.50460
 X76.83280 Y13.71100
 X76.71820 Y13.90470
 X76.57070 Y14.08540
 X76.39040 Y14.25330
 X76.17740 Y14.40850
 X75.93120 Y14.55070
 X75.48930 Y14.74710
 X75.02380 Y14.88760
 X74.53440 Y14.97190
 X74.02120 Y15.00010
G0 Z25.00000
 X97.60940
G1 Z0.00000
 X79.91220
 X75.32510 Y4.92513
 X78.80740
 X82.72070 Y13.53930
 X88.41350
 X84.48210 Y4.92513
 X87.98350
 X91.89720 Y13.53930
 X95.79290
 X96.08690 Y13.52500
 X96.34170 Y13.48190
 X96.55720 Y13.41030
 X96.73360 Y13.30980
 X96.87070 Y13.18080
 X96.96880 Y13.02300
 X97.02750 Y12.83650
 X97.04710 Y12.62130
 X97.01420 Y12.34040
 X96.91610 Y12.05930
 X93.65820 Y4.92513
 X97.06610
 X100.51100 Y12.47140
 X100.59600 Y12.78530
 X100.62400 Y13.09020
 X100.60700 Y13.31810
 X100.55600 Y13.53370
 X100.47100 Y13.73710
 X100.35300 Y13.92820
 X100.20000 Y14.10690
 X100.01300 Y14.27320
 X99.79280 Y14.42710
 X99.53830 Y14.56870
 X99.09440 Y14.75750
 X98.62490 Y14.89240
 X98.12990 Y14.97320
 X97.60940 Y15.00010
G0 Z25.00000
M5 (stop spindle)
G04 P3 (wait for 3 seconds)
G0 Z25.00000
M2 (end program)
