G40 (disable tool radius compensation)
G49 (disable tool length compensation)
G80 (cancel modal motion)
G54 (select coordinate system 1)
G90 (disable incremental moves)
G21 (metric)
F1000.00000
S1000.00000
G61 (exact path mode)
;PYCAM_TOOLPATH_SETTINGS: START
;[Bounds]
;maxz = 0.0
;maxx = 20.000366
;maxy = 20.0002236498
;minx = -2.18885226363
;miny = -1.00001118249
;minz = 0.0
;
;[Tool]
;torus_radius = 0.125
;speed = 1000.0
;shape = CylindricalCutter
;tool_radius = 0.5
;
;[Process]
;engrave_offset = 0.0
;step_down = 3.0
;generator = EngraveCutter
;postprocessor = SimpleCutter
;overlap_percent = 0
;milling_style = conventional
;material_allowance = 0.0
;pocketing_type = none
;path_direction = x
;
;PYCAM_TOOLPATH_SETTINGS: END
G0 Z25.00000
M3 (start spindle)
G04 P3 (wait for 3 seconds)
 X0.00000 Y0.00000
G1 Z0.00000
 Y11.77000
G0 Z25.00000
 Y8.05814
G1 Z0.00000
 X-0.17165 Y10.02125
 X0.04168 Y11.98026
 X0.63184 Y13.86040
 X1.57632 Y15.58991
 X2.83905 Y17.10277
 X4.37184 Y18.34123
 X6.11619 Y19.25802
 X8.00550 Y19.81815
 X9.96766 Y20.00022
 X11.92778 Y19.79731
 X13.81103 Y19.21714
 X15.54553 Y18.28187
 X17.06508 Y17.02719
 X18.31167 Y15.50100
 X19.23771 Y13.76155
 X19.80787 Y11.87524
 X20.00037 Y9.91407
 X20.00000
 Y0.00000
G0 Z25.00000
M5 (stop spindle)
G04 P3 (wait for 3 seconds)
G0 Z25.00000
M2 (end program)
