G40 (disable tool radius compensation)
G49 (disable tool length compensation)
G80 (cancel modal motion)
G54 (select coordinate system 1)
G90 (disable incremental moves)
G21 (metric)
F1000.00000
S1000.00000
G61 (exact path mode)
;PYCAM_TOOLPATH_SETTINGS: START
;[Bounds]
;maxz = 0.0
;maxx = 150.0
;maxy = 31.9599533325
;minx = -15.0
;miny = -1.59799766662
;minz = 0.0
;
;[Tool]
;torus_radius = 0.125
;speed = 1000.0
;shape = CylindricalCutter
;tool_radius = 0.5
;
;[Process]
;engrave_offset = 0.0
;step_down = 3.0
;generator = EngraveCutter
;postprocessor = SimpleCutter
;overlap_percent = 0
;milling_style = conventional
;material_allowance = 0.0
;pocketing_type = none
;path_direction = x
;
;PYCAM_TOOLPATH_SETTINGS: END
G0 Z25.00000
M3 (start spindle)
G04 P3 (wait for 3 seconds)
 X0.00000 Y0.00000
G1 Z0.00000
 X20.00000
G0 Z25.00000
 X10.00000
G1 Z0.00000
 Y30.00000
G0 Z25.00000
 X0.00000
G1 Z0.00000
 X20.00000
G0 Z25.00000
 X23.38704 Y16.01178
G1 Z0.00000
 X22.32250 Y17.17710
 X21.49114 Y18.51877
 X20.92148 Y19.99075
 X20.63308 Y21.54255
 X20.63583 Y23.12091
 X20.92963 Y24.67169
 X21.50441 Y26.14168
 X22.34044 Y27.48045
 X23.40903 Y28.64206
 X24.67354 Y29.58666
 X26.09056 Y30.28184
 X28.13974 Y30.84156
 X30.25829 Y30.99697
 X32.36720 Y30.74227
 X34.38784 Y30.08696
 X36.24485 Y29.05549
 X37.86896 Y27.68631
 X39.19963 Y26.03049
 X40.18721 Y24.14978
 X40.79489 Y22.11432
 X41.00000 Y20.00000
 X41.20171 Y22.19099
 X41.80008 Y24.30833
 X42.77497 Y26.28082
 X44.09362 Y28.04216
 X45.71169 Y29.53313
 X47.57479 Y30.70360
 X49.62029 Y31.51423
 X51.77940 Y31.93776
 X53.97955 Y31.95995
 X56.14677 Y31.58006
 X58.20819 Y30.81086
 X60.09453 Y29.67821
 X61.25185 Y28.65643
 X62.20582 Y27.44260
 X62.92512 Y26.07656
 X63.38612 Y24.60315
 X63.57370 Y23.07075
 X63.48171 Y21.52965
 X63.11315 Y20.03044
 X62.48013 Y18.62235
 X61.60343 Y17.35158
 X60.51183 Y16.25986
G0 Z25.00000
 X23.38705 Y16.01178
G1 Z0.00000
 X41.00000 Y0.00000
 X60.51183 Y16.25986
G0 Z25.00000
 X70.00000 Y14.83910
G1 Z0.00000
 X80.00000
G0 Z25.00000
 X70.00000 Y0.00000
G1 Z0.00000
 Y29.67821
 X90.00000
G0 Z25.00000
 X120.00000
G1 Z0.00000
 X100.00000
 Y0.00000
 X120.00000
 Y12.00000
 X108.00000
G0 Z25.00000
 X130.00000 Y15.00000
G1 Z0.00000
 X150.00000
G0 Z25.00000
 X130.00000 Y0.00000
G1 Z0.00000
 Y14.69400
 X130.23066 Y17.34121
 X130.91568 Y19.90864
 X132.03443 Y22.31890
 X133.55318 Y24.49934
 X135.42615 Y26.38426
 X137.59690 Y27.91684
 X140.00000 Y29.05088
 X142.40310 Y27.91684
 X144.57385 Y26.38426
 X146.44682 Y24.49935
 X147.96557 Y22.31890
 X149.08431 Y19.90864
 X149.76934 Y17.34122
 X150.00000 Y14.69400
 Y0.00000
G0 Z25.00000
M5 (stop spindle)
G04 P3 (wait for 3 seconds)
G0 Z25.00000
M2 (end program)
