; generated by Slic3r 1.3.0-dev on 2017-05-18 at 15:21:09

; external perimeters extrusion width = 0.50mm (3.92mm^3/s)
; perimeters extrusion width = 0.72mm (11.78mm^3/s)
; infill extrusion width = 0.72mm (15.71mm^3/s)
; solid infill extrusion width = 0.72mm (3.93mm^3/s)
; top infill extrusion width = 0.72mm (2.95mm^3/s)

M107
M104 S200 ; set temperature
G28 ; home all axes
G1 Z5 F5000 ; lift nozzle

; Filament gcode

M109 S200 ; set temperature and wait for it to be reached
G21 ; set units to millimeters
G90 ; use absolute coordinates
M82 ; use absolute distances for extrusion
G92 E0
G1 Z0.350 F7800.000
G1 E-2.00000 F2400.00000
G92 E0
G1 X74.915 Y75.753 F7800.000
G1 E2.00000 F2400.00000
G1 F1800
G1 X76.668 Y74.274 E2.07096
G1 X78.820 Y73.481 E2.14192
G1 X80.000 Y73.375 E2.17858
G1 X117.000 Y73.375 E3.32340
G1 X117.619 Y73.398 E3.34258
G1 X118.557 Y73.504 E3.37179
G1 X119.481 Y73.703 E3.40101
G1 X120.380 Y73.991 E3.43023
G1 X121.247 Y74.366 E3.45946
G1 X122.073 Y74.823 E3.48867
G1 X122.849 Y75.360 E3.51787
G1 X123.571 Y75.970 E3.54712
G1 X124.232 Y76.652 E3.57650
G1 X124.815 Y77.387 E3.60552
G1 X125.328 Y78.179 E3.63473
G1 X125.761 Y79.021 E3.66401
G1 X126.108 Y79.897 E3.69317
G1 X126.368 Y80.804 E3.72236
G1 X126.539 Y81.734 E3.75162
G1 X126.617 Y82.676 E3.78087
G1 X126.625 Y120.000 E4.93573
G1 X126.228 Y122.259 E5.00669
G1 X125.085 Y124.247 E5.07765
G1 X123.332 Y125.726 E5.14861
G1 X121.180 Y126.519 E5.21958
G1 X120.000 Y126.625 E5.25623
G1 X118.000 Y126.625 E5.31811
G1 X115.741 Y126.228 E5.38907
G1 X113.315 Y124.685 E5.47803
G1 X75.315 Y86.685 E7.14082
G1 X73.999 Y84.807 E7.21178
G1 X73.375 Y82.000 E7.30074
G1 X73.375 Y80.000 E7.36262
G1 X73.772 Y77.741 E7.43359
G1 X74.878 Y75.818 E7.50223
G1 E5.50223 F2400.00000
G92 E0
G1 X119.650 Y119.650 F7800.000
G1 E2.00000 F2400.00000
G1 F1800
G1 X118.350 Y119.650 E2.04022
G1 X118.350 Y82.983 E3.17475
G1 X118.326 Y82.736 E3.18242
G1 X118.249 Y82.483 E3.19062
G1 X118.124 Y82.249 E3.19882
G1 X117.956 Y82.044 E3.20702
G1 X117.751 Y81.876 E3.21521
G1 X117.517 Y81.751 E3.22341
G1 X117.264 Y81.674 E3.23161
G1 X117.017 Y81.650 E3.23928
G1 X80.350 Y81.650 E4.37381
G1 X80.350 Y80.350 E4.41403
G1 X116.993 Y80.350 E5.54780
G1 X117.260 Y80.363 E5.55608
G1 X117.517 Y80.401 E5.56412
G1 X117.769 Y80.465 E5.57217
G1 X118.014 Y80.552 E5.58021
G1 X118.249 Y80.663 E5.58826
G1 X118.472 Y80.797 E5.59630
G1 X118.681 Y80.952 E5.60435
G1 X118.873 Y81.126 E5.61239
G1 X119.048 Y81.319 E5.62044
G1 X119.203 Y81.528 E5.62848
G1 X119.337 Y81.752 E5.63657
G1 X119.448 Y81.986 E5.64457
G1 X119.535 Y82.231 E5.65262
G1 X119.599 Y82.483 E5.66067
G1 X119.637 Y82.740 E5.66871
G1 X119.650 Y83.009 E5.67702
G1 X119.650 Y119.575 E6.80843
G1 X119.217 Y119.400 F7800.000
G1 X119.000 Y119.338 F7800.000
G1 F1800
G1 X119.000 Y83.024 E7.88726
G1 X118.963 Y82.610 E7.89963
G1 X118.849 Y82.234 E7.91129
G1 X118.664 Y81.888 E7.92295
G1 X118.415 Y81.585 E7.93460
G1 X118.112 Y81.336 E7.94625
G1 X117.766 Y81.151 E7.95791
G1 X117.390 Y81.037 E7.96956
G1 X116.977 Y81.000 E7.98190
G1 X80.662 Y81.000 E9.06076
G1 Z0.650 F7800.000
G1 E7.06076 F2400.00000
G92 E0
G1 X119.205 Y119.205 F7800.000
G1 E2.00000 F2400.00000
G1 F3600
G1 X118.795 Y119.205 E2.01139
G1 X118.795 Y82.961 E3.01816
G1 X118.764 Y82.649 E3.02687
G1 X118.662 Y82.312 E3.03666
G1 X118.496 Y82.001 E3.04646
G1 X118.272 Y81.728 E3.05626
G1 X117.999 Y81.504 E3.06605
G1 X117.688 Y81.338 E3.07585
G1 X117.351 Y81.236 E3.08564
G1 X117.039 Y81.205 E3.09435
G1 X80.795 Y81.205 E4.10113
G1 X80.795 Y80.795 E4.11251
G1 X116.984 Y80.795 E5.11777
G1 X117.430 Y80.838 E5.13021
G1 X117.843 Y80.964 E5.14221
G1 X118.224 Y81.167 E5.15421
G1 X118.558 Y81.442 E5.16621
G1 X118.833 Y81.776 E5.17822
G1 X119.036 Y82.157 E5.19021
G1 X119.162 Y82.570 E5.20222
G1 X119.205 Y83.019 E5.21476
G1 X119.205 Y119.130 E6.21783
G1 X119.750 Y119.750 F7800.000
G1 F1800
G1 X118.250 Y119.750 E6.24556
G1 X118.250 Y82.988 E6.92523
G1 X118.227 Y82.756 E6.92954
G1 X118.156 Y82.521 E6.93407
G1 X118.040 Y82.305 E6.93861
G1 X117.885 Y82.115 E6.94314
G1 X117.695 Y81.960 E6.94768
G1 X117.479 Y81.844 E6.95221
G1 X117.244 Y81.773 E6.95675
G1 X117.012 Y81.750 E6.96105
G1 X80.250 Y81.750 E7.64072
G1 X80.250 Y80.250 E7.66846
G1 X116.998 Y80.250 E8.34785
G1 X117.270 Y80.264 E8.35289
G1 X117.536 Y80.303 E8.35788
G1 X117.798 Y80.369 E8.36287
G1 X118.052 Y80.460 E8.36786
G1 X118.296 Y80.575 E8.37284
G1 X118.528 Y80.714 E8.37783
G1 X118.744 Y80.874 E8.38282
G1 X118.944 Y81.056 E8.38781
G1 X119.126 Y81.256 E8.39280
G1 X119.286 Y81.472 E8.39779
G1 X119.425 Y81.704 E8.40278
G1 X119.540 Y81.948 E8.40777
G1 X119.631 Y82.202 E8.41276
G1 X119.697 Y82.464 E8.41775
G1 X119.736 Y82.730 E8.42273
G1 X119.750 Y83.006 E8.42784
G1 X119.750 Y119.675 E9.10578
G1 X119.317 Y119.500 F7800.000
G1 Z0.950 F7800.000
G1 X119.205 Y119.205 F7800.000
G1 F3600
G1 X118.795 Y119.205 E9.11717
G1 X118.795 Y82.961 E10.12394
G1 X118.764 Y82.649 E10.13265
G1 X118.662 Y82.312 E10.14244
G1 X118.496 Y82.001 E10.15224
G1 X118.272 Y81.728 E10.16204
G1 X117.999 Y81.504 E10.17183
G1 X117.688 Y81.338 E10.18163
G1 X117.351 Y81.236 E10.19142
G1 X117.039 Y81.205 E10.20013
G1 X80.795 Y81.205 E11.20691
G1 X80.795 Y80.795 E11.21829
G1 X116.986 Y80.795 E12.22361
G1 X117.430 Y80.838 E12.23599
G1 X117.843 Y80.964 E12.24799
G1 X118.224 Y81.167 E12.25999
G1 X118.558 Y81.442 E12.27199
G1 X118.833 Y81.776 E12.28400
G1 X119.036 Y82.157 E12.29599
G1 X119.162 Y82.570 E12.30800
G1 X119.205 Y83.019 E12.32054
G1 X119.205 Y119.130 E13.32361
G1 X119.750 Y119.750 F7800.000
G1 F1800
G1 X118.250 Y119.750 E13.35134
G1 X118.250 Y82.988 E14.03101
G1 X118.227 Y82.756 E14.03532
G1 X118.156 Y82.521 E14.03985
G1 X118.040 Y82.305 E14.04439
G1 X117.885 Y82.115 E14.04892
G1 X117.695 Y81.960 E14.05346
G1 X117.479 Y81.844 E14.05799
G1 X117.244 Y81.773 E14.06253
G1 X117.012 Y81.750 E14.06683
G1 X80.250 Y81.750 E14.74650
G1 X80.250 Y80.250 E14.77424
G1 X117.000 Y80.250 E15.45368
G1 X117.270 Y80.264 E15.45867
G1 X117.536 Y80.303 E15.46366
G1 X117.798 Y80.369 E15.46865
G1 X118.052 Y80.460 E15.47364
G1 X118.296 Y80.575 E15.47863
G1 X118.528 Y80.714 E15.48361
G1 X118.744 Y80.874 E15.48860
G1 X118.944 Y81.056 E15.49359
G1 X119.126 Y81.256 E15.49858
G1 X119.286 Y81.472 E15.50357
G1 X119.425 Y81.704 E15.50856
G1 X119.540 Y81.948 E15.51355
G1 X119.631 Y82.202 E15.51854
G1 X119.697 Y82.464 E15.52353
G1 X119.737 Y82.730 E15.52851
G1 X119.750 Y83.006 E15.53362
G1 X119.750 Y119.675 E16.21156
G1 X119.317 Y119.500 F7800.000
M106 S244.8
G1 Z1.250 F7800.000
G1 X119.205 Y119.205 F7800.000
G1 F3600
G1 X118.795 Y119.205 E16.22295
G1 X118.795 Y82.961 E17.22972
G1 X118.764 Y82.649 E17.23843
G1 X118.662 Y82.312 E17.24822
G1 X118.496 Y82.001 E17.25802
G1 X118.272 Y81.728 E17.26782
G1 X117.999 Y81.504 E17.27761
G1 X117.688 Y81.338 E17.28741
G1 X117.351 Y81.236 E17.29720
G1 X117.039 Y81.205 E17.30591
G1 X80.795 Y81.205 E18.31269
G1 X80.795 Y80.795 E18.32407
G1 X116.989 Y80.795 E19.32945
G1 X117.430 Y80.838 E19.34177
G1 X117.843 Y80.964 E19.35377
G1 X118.224 Y81.167 E19.36577
G1 X118.558 Y81.442 E19.37777
G1 X118.833 Y81.776 E19.38978
G1 X119.036 Y82.157 E19.40177
G1 X119.162 Y82.570 E19.41378
G1 X119.205 Y83.019 E19.42632
G1 X119.205 Y119.130 E20.42939
G1 X119.750 Y119.750 F7800.000
G1 F1800
G1 X118.250 Y119.750 E20.45712
G1 X118.250 Y82.988 E21.13679
G1 X118.227 Y82.756 E21.14110
G1 X118.156 Y82.521 E21.14563
G1 X118.040 Y82.305 E21.15017
G1 X117.885 Y82.115 E21.15470
G1 X117.695 Y81.960 E21.15924
G1 X117.479 Y81.844 E21.16377
G1 X117.244 Y81.773 E21.16831
G1 X117.012 Y81.750 E21.17261
G1 X80.250 Y81.750 E21.85228
G1 X80.250 Y80.250 E21.88002
G1 X117.002 Y80.250 E22.55950
G1 X117.270 Y80.264 E22.56445
G1 X117.536 Y80.303 E22.56944
G1 X117.798 Y80.369 E22.57443
G1 X118.052 Y80.460 E22.57942
G1 X118.296 Y80.575 E22.58441
G1 X118.528 Y80.714 E22.58939
G1 X118.744 Y80.874 E22.59438
G1 X118.944 Y81.056 E22.59937
G1 X119.126 Y81.256 E22.60436
G1 X119.286 Y81.472 E22.60935
G1 X119.425 Y81.704 E22.61434
G1 X119.540 Y81.948 E22.61933
G1 X119.631 Y82.202 E22.62432
G1 X119.697 Y82.464 E22.62931
G1 X119.737 Y82.730 E22.63429
G1 X119.750 Y83.006 E22.63940
G1 X119.750 Y119.675 E23.31734
G1 X119.317 Y119.500 F7800.000
G1 Z1.550 F7800.000
G1 X119.205 Y119.205 F7800.000
G1 F3600
G1 X118.795 Y119.205 E23.32873
G1 X118.795 Y82.961 E24.33550
G1 X118.764 Y82.649 E24.34421
G1 X118.662 Y82.312 E24.35400
G1 X118.496 Y82.001 E24.36380
G1 X118.272 Y81.728 E24.37360
G1 X117.999 Y81.504 E24.38339
G1 X117.688 Y81.338 E24.39319
G1 X117.351 Y81.236 E24.40298
G1 X117.039 Y81.205 E24.41169
G1 X80.795 Y81.205 E25.41847
G1 X80.795 Y80.795 E25.42985
G1 X116.991 Y80.796 E26.43529
G1 X117.430 Y80.838 E26.44755
G1 X117.843 Y80.964 E26.45955
G1 X118.224 Y81.167 E26.47155
G1 X118.558 Y81.442 E26.48355
G1 X118.833 Y81.776 E26.49556
G1 X119.036 Y82.157 E26.50755
G1 X119.162 Y82.570 E26.51956
G1 X119.205 Y83.019 E26.53210
G1 X119.205 Y119.130 E27.53517
G1 X119.750 Y119.750 F7800.000
G1 F1800
G1 X118.250 Y119.750 E27.56290
G1 X118.250 Y82.988 E28.24257
G1 X118.227 Y82.756 E28.24688
G1 X118.156 Y82.521 E28.25141
G1 X118.040 Y82.305 E28.25595
G1 X117.885 Y82.115 E28.26048
G1 X117.695 Y81.960 E28.26502
G1 X117.479 Y81.844 E28.26955
G1 X117.244 Y81.773 E28.27409
G1 X117.012 Y81.750 E28.27839
G1 X80.250 Y81.750 E28.95806
G1 X80.250 Y80.250 E28.98580
G1 X117.004 Y80.251 E29.66532
G1 X117.270 Y80.264 E29.67023
G1 X117.536 Y80.303 E29.67522
G1 X117.798 Y80.369 E29.68021
G1 X118.052 Y80.460 E29.68520
G1 X118.296 Y80.575 E29.69019
G1 X118.528 Y80.714 E29.69517
G1 X118.744 Y80.874 E29.70016
G1 X118.944 Y81.056 E29.70515
G1 X119.126 Y81.256 E29.71014
G1 X119.286 Y81.472 E29.71513
G1 X119.425 Y81.704 E29.72012
G1 X119.540 Y81.948 E29.72511
G1 X119.631 Y82.202 E29.73010
G1 X119.697 Y82.464 E29.73509
G1 X119.737 Y82.730 E29.74007
G1 X119.750 Y83.006 E29.74518
G1 X119.750 Y119.675 E30.42312
G1 X119.317 Y119.500 F7800.000
G1 Z1.850 F7800.000
G1 X119.205 Y119.205 F7800.000
G1 F3600
G1 X118.795 Y119.205 E30.43451
G1 X118.795 Y82.961 E31.44128
G1 X118.764 Y82.649 E31.44999
G1 X118.662 Y82.312 E31.45978
G1 X118.496 Y82.001 E31.46958
G1 X118.272 Y81.728 E31.47938
G1 X117.999 Y81.504 E31.48917
G1 X117.688 Y81.338 E31.49897
G1 X117.351 Y81.236 E31.50876
G1 X117.039 Y81.205 E31.51747
G1 X80.795 Y81.205 E32.52425
G1 X80.795 Y80.795 E32.53563
G1 X116.993 Y80.796 E33.54113
G1 X117.430 Y80.838 E33.55333
G1 X117.843 Y80.964 E33.56533
G1 X118.224 Y81.167 E33.57733
G1 X118.558 Y81.442 E33.58933
G1 X118.833 Y81.776 E33.60134
G1 X119.036 Y82.157 E33.61333
G1 X119.162 Y82.570 E33.62534
G1 X119.205 Y83.019 E33.63788
G1 X119.205 Y119.130 E34.64095
G1 X119.750 Y119.750 F7800.000
G1 F1800
G1 X118.250 Y119.750 E34.66868
G1 X118.250 Y82.988 E35.34835
G1 X118.227 Y82.756 E35.35266
G1 X118.156 Y82.521 E35.35719
G1 X118.040 Y82.305 E35.36173
G1 X117.885 Y82.115 E35.36626
G1 X117.695 Y81.960 E35.37080
G1 X117.479 Y81.844 E35.37533
G1 X117.244 Y81.773 E35.37987
G1 X117.012 Y81.750 E35.38417
G1 X80.250 Y81.750 E36.06384
G1 X80.250 Y80.250 E36.09158
G1 X117.006 Y80.251 E36.77114
G1 X117.270 Y80.264 E36.77601
G1 X117.536 Y80.303 E36.78100
G1 X117.798 Y80.369 E36.78599
G1 X118.052 Y80.460 E36.79098
G1 X118.296 Y80.575 E36.79596
G1 X118.528 Y80.714 E36.80095
G1 X118.744 Y80.874 E36.80594
G1 X118.944 Y81.056 E36.81093
G1 X119.126 Y81.256 E36.81592
G1 X119.286 Y81.472 E36.82091
G1 X119.425 Y81.704 E36.82590
G1 X119.540 Y81.948 E36.83089
G1 X119.631 Y82.202 E36.83588
G1 X119.697 Y82.464 E36.84087
G1 X119.737 Y82.730 E36.84585
G1 X119.750 Y83.006 E36.85096
G1 X119.750 Y119.675 E37.52890
G1 X119.317 Y119.500 F7800.000
G1 Z2.150 F7800.000
G1 X119.205 Y119.205 F7800.000
G1 F3600
G1 X118.795 Y119.205 E37.54029
G1 X118.795 Y82.961 E38.54706
G1 X118.764 Y82.649 E38.55577
G1 X118.662 Y82.312 E38.56556
G1 X118.499 Y82.006 E38.57520
G1 X118.287 Y81.740 E38.58462
G1 X117.999 Y81.504 E38.59496
G1 X117.688 Y81.338 E38.60476
G1 X117.351 Y81.236 E38.61455
G1 X117.039 Y81.205 E38.62326
G1 X80.795 Y81.205 E39.63004
G1 X80.795 Y80.795 E39.64142
G1 X116.995 Y80.796 E40.64698
G1 X117.430 Y80.838 E40.65912
G1 X117.843 Y80.964 E40.67112
G1 X118.224 Y81.167 E40.68312
G1 X118.558 Y81.442 E40.69512
G1 X118.833 Y81.776 E40.70712
G1 X119.036 Y82.157 E40.71912
G1 X119.162 Y82.570 E40.73113
G1 X119.205 Y83.019 E40.74367
G1 X119.205 Y119.130 E41.74674
G1 X119.750 Y119.750 F7800.000
G1 F1800
G1 X118.250 Y119.750 E41.77447
G1 X118.250 Y82.988 E42.45414
G1 X118.227 Y82.756 E42.45845
G1 X118.156 Y82.521 E42.46298
G1 X118.041 Y82.306 E42.46748
G1 X117.897 Y82.125 E42.47177
G1 X117.695 Y81.960 E42.47659
G1 X117.479 Y81.844 E42.48113
G1 X117.244 Y81.773 E42.48566
G1 X117.012 Y81.750 E42.48997
G1 X80.250 Y81.750 E43.16964
G1 X80.250 Y80.250 E43.19737
G1 X117.009 Y80.251 E43.87697
G1 X117.270 Y80.264 E43.88180
G1 X117.536 Y80.303 E43.88679
G1 X117.798 Y80.369 E43.89178
G1 X118.052 Y80.460 E43.89677
G1 X118.296 Y80.575 E43.90176
G1 X118.528 Y80.714 E43.90675
G1 X118.744 Y80.874 E43.91174
G1 X118.944 Y81.056 E43.91672
G1 X119.126 Y81.256 E43.92171
G1 X119.286 Y81.472 E43.92670
G1 X119.425 Y81.704 E43.93169
G1 X119.540 Y81.948 E43.93668
G1 X119.631 Y82.202 E43.94167
G1 X119.697 Y82.464 E43.94666
G1 X119.737 Y82.730 E43.95165
G1 X119.750 Y83.006 E43.95675
G1 X119.750 Y119.675 E44.63469
G1 X119.317 Y119.500 F7800.000
G1 Z2.450 F7800.000
G1 X119.205 Y119.205 F7800.000
G1 F3600
G1 X118.795 Y119.205 E44.64608
G1 X118.795 Y82.961 E45.65286
G1 X118.759 Y82.599 E45.66296
G1 X118.654 Y82.297 E45.67184
G1 X118.496 Y82.001 E45.68118
G1 X118.272 Y81.728 E45.69098
G1 X117.999 Y81.504 E45.70077
G1 X117.688 Y81.338 E45.71057
G1 X117.351 Y81.236 E45.72036
G1 X117.039 Y81.205 E45.72907
G1 X80.795 Y81.205 E46.73585
G1 X80.795 Y80.795 E46.74723
G1 X116.997 Y80.796 E47.75285
G1 X117.430 Y80.838 E47.76493
G1 X117.843 Y80.964 E47.77693
G1 X118.224 Y81.167 E47.78893
G1 X118.558 Y81.442 E47.80093
G1 X118.833 Y81.776 E47.81293
G1 X119.036 Y82.157 E47.82493
G1 X119.162 Y82.570 E47.83694
G1 X119.205 Y83.019 E47.84948
G1 X119.205 Y119.130 E48.85255
G1 X119.750 Y119.750 F7800.000
G1 F1800
G1 X118.250 Y119.750 E48.88028
G1 X118.250 Y82.988 E49.55995
G1 X118.223 Y82.717 E49.56498
G1 X118.154 Y82.517 E49.56890
G1 X118.040 Y82.305 E49.57334
G1 X117.885 Y82.115 E49.57788
G1 X117.695 Y81.960 E49.58241
G1 X117.479 Y81.844 E49.58695
G1 X117.244 Y81.773 E49.59148
G1 X117.012 Y81.750 E49.59579
G1 X80.250 Y81.750 E50.27546
G1 X80.250 Y80.250 E50.30319
G1 X117.011 Y80.251 E50.98283
G1 X117.270 Y80.264 E50.98762
G1 X117.536 Y80.303 E50.99261
G1 X117.798 Y80.369 E50.99760
G1 X118.052 Y80.460 E51.00259
G1 X118.296 Y80.575 E51.00758
G1 X118.528 Y80.714 E51.01257
G1 X118.744 Y80.874 E51.01756
G1 X118.944 Y81.056 E51.02254
G1 X119.126 Y81.256 E51.02753
G1 X119.286 Y81.472 E51.03252
G1 X119.425 Y81.704 E51.03751
G1 X119.540 Y81.948 E51.04250
G1 X119.631 Y82.202 E51.04749
G1 X119.697 Y82.464 E51.05248
G1 X119.737 Y82.730 E51.05747
G1 X119.750 Y83.006 E51.06257
G1 X119.750 Y119.675 E51.74051
G1 X119.317 Y119.500 F7800.000
G1 Z2.750 F7800.000
G1 X119.205 Y119.205 F7800.000
G1 F3600
G1 X118.795 Y119.205 E51.75190
G1 X118.795 Y82.961 E52.75868
G1 X118.764 Y82.649 E52.76738
G1 X118.662 Y82.312 E52.77718
G1 X118.496 Y82.001 E52.78698
G1 X118.272 Y81.728 E52.79677
G1 X117.999 Y81.504 E52.80656
G1 X117.688 Y81.338 E52.81636
G1 X117.368 Y81.241 E52.82567
G1 X117.044 Y81.205 E52.83472
G1 X108.990 Y81.205 E53.05843
G1 X108.990 Y80.795 E53.06981
G1 X117.000 Y80.796 E53.29229
G1 X117.430 Y80.838 E53.30430
G1 X117.843 Y80.964 E53.31630
G1 X118.039 Y81.056 E53.32231
G1 X118.398 Y81.296 E53.33431
G1 X118.704 Y81.602 E53.34631
G1 X118.833 Y81.776 E53.35232
G1 X118.944 Y81.961 E53.35833
G1 X119.109 Y82.360 E53.37034
G1 X119.193 Y82.784 E53.38233
G1 X119.205 Y83.019 E53.38888
G1 X119.205 Y119.130 E54.39195
G1 X119.750 Y119.750 F7800.000
G1 F1800
G1 X118.250 Y119.750 E54.41968
G1 X118.250 Y82.988 E55.09936
G1 X118.227 Y82.756 E55.10366
G1 X118.156 Y82.521 E55.10820
G1 X118.040 Y82.305 E55.11273
G1 X117.885 Y82.115 E55.11727
G1 X117.695 Y81.960 E55.12180
G1 X117.479 Y81.844 E55.12634
G1 X117.258 Y81.777 E55.13061
