G40 (disable tool radius compensation)
G49 (disable tool length compensation)
G80 (cancel modal motion)
G54 (select coordinate system 1)
G90 (disable incremental moves)
G21 (metric)
F1000.00000
S1000.00000
G61 (exact path mode)
;PYCAM_TOOLPATH_SETTINGS: START
;[Bounds]
;maxz = 0.0
;maxx = 421.86853
;maxy = 190.0
;minx = 19.413147
;miny = 78.42670915
;minz = 0.0
;
;[Tool]
;torus_radius = 0.125
;speed = 1000.0
;shape = CylindricalCutter
;tool_radius = 0.5
;
;[Process]
;engrave_offset = 0.0
;step_down = 3.0
;generator = EngraveCutter
;postprocessor = SimpleCutter
;overlap_percent = 0
;milling_style = conventional
;material_allowance = 0.0
;pocketing_type = none
;path_direction = x
;
;PYCAM_TOOLPATH_SETTINGS: END
G0 Z25.00000
M3 (start spindle)
G04 P3 (wait for 3 seconds)
 X56.00000 Y90.00000
G1 Z0.00000
 X94.00000 Y184.00000
G0 Z25.00000
 X56.00000
G1 Z0.00000
 X94.00000 Y90.00000
G0 Z25.00000
 X106.00000
G1 Z0.00000
 Y160.00000
 X125.00000 Y130.00000
 X144.00000 Y160.00000
G0 Z25.00000
 Y90.00000
G1 Z0.00000
 Y160.00000
G0 Z25.00000
 X156.00000 Y115.00000
G1 Z0.00000
 X174.00000
G0 Z25.00000
 X156.00000 Y90.00000
G1 Z0.00000
 Y130.00000
 X174.00000
 Y90.00000
G0 Z25.00000
 X186.00000
G1 Z0.00000
 Y130.00000
 X204.00000
 Y90.00000
 X186.00000
G0 Z25.00000
 X199.18671 Y95.12344
G1 Z0.00000
 X209.88130 Y83.73972
G0 Z25.00000
 X234.00000 Y130.00000
G1 Z0.00000
 X216.00000
 Y90.00000
 X234.00000
G0 Z25.00000
 X246.00000
G1 Z0.00000
 Y130.00000
 X264.00000 Y90.00000
 Y130.00000
G0 Z25.00000
 X294.00000 Y90.00000
G1 Z0.00000
 X276.00000
 Y130.00000
 X294.00000
G0 Z25.00000
 X415.99496 Y93.17503
G1 Z0.00000
 X416.49783 Y90.00000
 X417.00070 Y93.17503
 X416.49783
 Y136.21800
G0 Z25.00000
 X411.13052 Y138.25000
G1 Z0.00000
 X411.82648
 Y139.00143
 X411.13052
G0 Z25.00000
 X413.94363 Y139.34943
G1 Z0.00000
 Y139.31412
 X414.02432 Y138.82997
 X414.26135 Y138.46686
 X414.63455 Y138.23486
 X415.12878 Y138.14914
 X415.65329 Y138.23486
 X416.04666 Y138.45677
 X416.29880 Y138.80980
 X416.38959 Y139.26369
 X416.34924 Y139.56123
 X416.23828 Y139.80331
 X416.05673 Y139.98991
 X415.81467 Y140.12608
 X416.14246 Y140.39842
 X416.25845 Y140.83214
 X416.18280 Y141.22551
 X415.96594 Y141.52306
 X415.61291 Y141.70966
 X415.12878 Y141.77522
 X414.67490 Y141.69452
 X414.32690 Y141.47263
 X414.09998 Y141.11960
 X414.02432 Y140.65057
 Y140.61528
 X414.47314
 X414.51352 Y140.93803
 X414.64462 Y141.17003
 X414.85645 Y141.31123
 X415.15399 Y141.36168
 X415.41623 Y141.32132
 X415.60788 Y141.21542
 X415.72388 Y141.04395
 X415.76926 Y140.81197
 X415.72388 Y140.56483
 X415.60284 Y140.39842
 X415.39102 Y140.29755
 X415.10358 Y140.26729
 X414.90689 Y140.27234
 Y139.87392
 X415.15399 Y139.88400
 X415.47171 Y139.83862
 X415.70874 Y139.71758
 X415.84998 Y139.52089
 X415.90039 Y139.26369
 X415.84491 Y138.97118
 X415.69867 Y138.75432
 X415.46668 Y138.61815
 X415.15903 Y138.57277
 X414.84131 Y138.62320
 X414.60931 Y138.77449
 X414.46307 Y139.01657
 X414.40759 Y139.34943
G0 Z25.00000
 X417.67966
G1 Z0.00000
 Y139.31412
 X417.76034 Y138.82997
 X417.99737 Y138.46686
 X418.37057 Y138.23486
 X418.86481 Y138.14914
 X419.38931 Y138.23486
 X419.78268 Y138.45677
 X420.03482 Y138.80980
 X420.12561 Y139.26369
 X420.08527 Y139.56123
 X419.97430 Y139.80331
 X419.79275 Y139.98991
 X419.55069 Y140.12608
 X419.87848 Y140.39842
 X419.99448 Y140.83214
 X419.91882 Y141.22551
 X419.70196 Y141.52306
 X419.34894 Y141.70966
 X418.86481 Y141.77522
 X418.41092 Y141.69452
 X418.06293 Y141.47263
 X417.83600 Y141.11960
 X417.76034 Y140.65057
 Y140.61528
 X418.20917
 X418.24954 Y140.93803
 X418.38065 Y141.17003
 X418.59247 Y141.31123
 X418.89002 Y141.36168
 X419.15225 Y141.32132
 X419.34390 Y141.21542
 X419.45990 Y141.04395
 X419.50528 Y140.81197
 X419.45990 Y140.56483
 X419.33887 Y140.39842
 X419.12705 Y140.29755
 X418.83960 Y140.26729
 X418.64291 Y140.27234
 Y139.87392
 X418.89002 Y139.88400
 X419.20773 Y139.83862
 X419.44476 Y139.71758
 X419.58600 Y139.52089
 X419.63641 Y139.26369
 X419.58093 Y138.97118
 X419.43469 Y138.75432
 X419.20270 Y138.61815
 X418.89505 Y138.57277
 X418.57733 Y138.62320
 X418.34534 Y138.77449
 X418.19910 Y139.01657
 X418.14362 Y139.34943
G0 Z25.00000
 X421.63519 Y140.81667
G1 Z0.00000
 X421.86853 Y141.75000
 X421.63519
G0 Z25.00000
 X416.49783 Y143.78200
G1 Z0.00000
 Y186.82498
 X417.00070
 X416.49783 Y190.00000
 X415.99496 Y186.82498
G0 Z25.00000
M5 (stop spindle)
G04 P3 (wait for 3 seconds)
G0 Z25.00000
M2 (end program)
